; generated by Slic3r 0.9.10b on 2013-10-07 at 14:04:13

; layer_height = 0.4
; perimeters = 3
; top_solid_layers = 3
; bottom_solid_layers = 3
; fill_density = 0.4
; perimeter_speed = 30
; infill_speed = 60
; travel_speed = 130
; nozzle_diameter = 0.5
; filament_diameter = 3
; extrusion_multiplier = 1
; perimeters extrusion width = 0.53mm
; infill extrusion width = 0.53mm
; solid infill extrusion width = 0.53mm
; top infill extrusion width = 0.53mm
; first layer extrusion width = 1.00mm

G21 ; set units to millimeters
M107
M104 S200 ; set temperature
G28 ; home all axes
G1 Z5 F5000 ; lift nozzle

M109 S200 ; wait for temperature to be reached
G90 ; use absolute coordinates
G92 E0
M82 ; use absolute distances for extrusion
G1 F1800.000 E-1.00000
G92 E0
G1 Z0.500 F7800.000
G1 X87.770 Y87.480
G1 F1800.000 E1.00000
G1 X88.270 Y86.980 F540.000 E1.04465
G1 X88.820 Y86.540 E1.08913
G1 X90.610 Y85.230 E1.22919
G1 X91.230 Y84.820 E1.27613
G1 X91.890 Y84.490 E1.32272
G1 X93.920 Y83.590 E1.46294
G1 X94.590 Y83.330 E1.50832
G1 X95.280 Y83.150 E1.55335
G1 X97.450 Y82.690 E1.69342
G1 X98.160 Y82.570 E1.73889
G1 X98.880 Y82.540 E1.78440
G1 X101.110 Y82.540 E1.92521
G1 X101.830 Y82.570 E1.97072
G1 X102.540 Y82.690 E2.01619
G1 X104.710 Y83.150 E2.15626
G1 X105.400 Y83.330 E2.20128
G1 X106.070 Y83.590 E2.24667
G1 X108.100 Y84.490 E2.38688
G1 X108.760 Y84.820 E2.43348
G1 X109.380 Y85.230 E2.48042
G1 X111.170 Y86.540 E2.62048
G1 X111.720 Y86.980 E2.66496
G1 X112.220 Y87.480 E2.70961
G1 X113.710 Y89.130 E2.84999
G1 X114.160 Y89.690 E2.89536
G1 X114.560 Y90.300 E2.94142
G1 X115.670 Y92.220 E3.08146
G1 X116.000 Y92.860 E3.12693
G1 X116.250 Y93.540 E3.17268
G1 X116.940 Y95.660 E3.31346
G1 X117.130 Y96.360 E3.35926
G1 X117.250 Y97.070 E3.40473
G1 X117.480 Y99.270 E3.54441
G1 X117.510 Y99.990 E3.58991
G1 X117.480 Y100.700 E3.63479
G1 X117.250 Y102.910 E3.77509
G1 X117.130 Y103.630 E3.82118
G1 X116.940 Y104.330 E3.86698
G1 X116.250 Y106.450 E4.00777
G1 X116.000 Y107.130 E4.05351
G1 X115.670 Y107.770 E4.09898
G1 X114.560 Y109.690 E4.23903
G1 X114.160 Y110.300 E4.28509
G1 X113.710 Y110.860 E4.33045
G1 X112.220 Y112.510 E4.47084
G1 X111.720 Y113.010 E4.51549
G1 X111.170 Y113.450 E4.55996
G1 X109.380 Y114.760 E4.70003
G1 X108.650 Y115.230 E4.75485
G1 X107.870 Y115.600 E4.80937
G1 X106.090 Y116.390 E4.93234
G1 X105.410 Y116.650 E4.97831
G1 X104.710 Y116.840 E5.02411
G1 X102.540 Y117.300 E5.16418
G1 X101.830 Y117.420 E5.20965
G1 X101.110 Y117.450 E5.25515
G1 X98.880 Y117.450 E5.39597
G1 X98.160 Y117.420 E5.44147
G1 X97.450 Y117.300 E5.48694
G1 X95.280 Y116.840 E5.62701
G1 X94.590 Y116.660 E5.67204
G1 X93.920 Y116.400 E5.71742
G1 X91.890 Y115.500 E5.85764
G1 X91.230 Y115.170 E5.90424
G1 X90.610 Y114.760 E5.95117
G1 X88.820 Y113.450 E6.09124
G1 X88.270 Y113.010 E6.13572
G1 X87.770 Y112.510 E6.18037
G1 X86.280 Y110.860 E6.32075
G1 X85.830 Y110.300 E6.36612
G1 X85.430 Y109.690 E6.41218
G1 X84.320 Y107.770 E6.55222
G1 X83.990 Y107.130 E6.59769
G1 X83.740 Y106.450 E6.64344
G1 X83.050 Y104.330 E6.78422
G1 X82.860 Y103.640 E6.82941
G1 X82.750 Y102.920 E6.87540
G1 X82.520 Y100.740 E7.01382
G1 X82.480 Y100.030 E7.05873
G1 X82.510 Y99.310 E7.10423
G1 X82.740 Y97.080 E7.24579
G1 X82.860 Y96.360 E7.29189
G1 X83.050 Y95.660 E7.33769
G1 X83.740 Y93.540 E7.47847
G1 X83.990 Y92.860 E7.52422
G1 X84.320 Y92.220 E7.56969
G1 X85.430 Y90.300 E7.70973
G1 X85.830 Y89.690 E7.75579
G1 X86.280 Y89.130 E7.80115
G1 X87.680 Y87.580 E7.93308
G1 F1800.000 E6.93308
G92 E0
G1 X94.392 Y93.772 F7800.000
G1 F1800.000 E1.00000
G1 X95.810 Y92.742 F540.000 E1.11064
G1 X97.410 Y92.029 E1.22127
G1 X99.124 Y91.665 E1.33191
G1 X100.876 Y91.665 E1.44255
G1 X102.590 Y92.029 E1.55319
G1 X104.190 Y92.742 E1.66382
G1 X105.608 Y93.772 E1.77446
G1 X106.780 Y95.074 E1.88510
G1 X107.656 Y96.591 E1.99573
G1 X108.198 Y98.258 E2.10637
G1 X108.381 Y100.000 E2.21701
G1 X108.198 Y101.743 E2.32765
G1 X107.656 Y103.409 E2.43828
G1 X106.780 Y104.926 E2.54892
G1 X105.608 Y106.228 E2.65956
G1 X104.190 Y107.258 E2.77019
G1 X102.590 Y107.971 E2.88083
G1 X100.876 Y108.335 E2.99147
G1 X99.124 Y108.335 E3.10210
G1 X97.410 Y107.971 E3.21274
G1 X95.810 Y107.258 E3.32338
G1 X94.392 Y106.228 E3.43401
G1 X93.220 Y104.926 E3.54465
G1 X92.344 Y103.409 E3.65529
G1 X91.802 Y101.742 E3.76593
G1 X91.619 Y100.000 E3.87656
G1 X91.802 Y98.257 E3.98720
G1 X92.344 Y96.591 E4.09784
G1 X93.220 Y95.074 E4.20847
G1 X94.302 Y93.871 E4.31066
G1 X93.640 Y93.273 F7800.000
G1 X93.791 Y93.105 F540.000 E4.32495
G1 X95.361 Y91.965 E4.44744
G1 X97.133 Y91.176 E4.56993
G1 X99.030 Y90.772 E4.69241
G1 X100.970 Y90.772 E4.81490
G1 X102.867 Y91.176 E4.93739
G1 X104.639 Y91.965 E5.05987
G1 X106.209 Y93.105 E5.18236
G1 X107.507 Y94.546 E5.30484
G1 X108.476 Y96.226 E5.42733
G1 X109.076 Y98.071 E5.54982
G1 X109.279 Y100.000 E5.67230
G1 X109.076 Y101.929 E5.79479
G1 X108.476 Y103.774 E5.91728
G1 X107.507 Y105.454 E6.03976
G1 X106.209 Y106.895 E6.16225
G1 X104.639 Y108.035 E6.28474
G1 X102.867 Y108.824 E6.40722
G1 X100.970 Y109.228 E6.52971
G1 X99.030 Y109.228 E6.65220
G1 X97.133 Y108.824 E6.77468
G1 X95.361 Y108.035 E6.89717
G1 X93.791 Y106.895 E7.01965
G1 X92.493 Y105.454 E7.14214
G1 X91.524 Y103.774 E7.26463
G1 X90.924 Y101.929 E7.38711
G1 X90.721 Y100.000 E7.50960
G1 X90.924 Y98.071 E7.63209
G1 X91.524 Y96.226 E7.75457
G1 X92.493 Y94.546 E7.87706
G1 X93.550 Y93.372 E7.97679
G1 X92.977 Y92.676 F7800.000
G1 X93.191 Y92.438 F378.000 E7.99702
G1 X94.912 Y91.187 E8.13135
G1 X96.855 Y90.322 E8.26569
G1 X98.936 Y89.880 E8.40002
G1 X101.064 Y89.880 E8.53436
G1 X103.145 Y90.322 E8.66870
G1 X105.088 Y91.187 E8.80303
G1 X106.809 Y92.438 E8.93737
G1 X108.233 Y94.019 E9.07170
G1 X109.296 Y95.861 E9.20604
G1 X109.954 Y97.884 E9.34037
G1 X110.176 Y100.000 E9.47471
G1 X109.954 Y102.116 E9.60905
G1 X109.296 Y104.139 E9.74338
G1 X108.233 Y105.981 E9.87772
G1 X106.809 Y107.562 E10.01206
G1 X105.088 Y108.813 E10.14639
G1 X103.145 Y109.678 E10.28073
G1 X101.064 Y110.120 E10.41506
G1 X98.936 Y110.120 E10.54940
G1 X96.855 Y109.678 E10.68373
G1 X95.060 Y108.879 E10.80783
G1 X94.912 Y108.813 E10.81807
G1 X93.191 Y107.562 E10.95241
G1 X91.767 Y105.981 E11.08674
G1 X90.704 Y104.139 E11.22108
G1 X90.046 Y102.116 E11.35541
G1 X89.824 Y100.000 E11.48975
G1 X90.046 Y97.884 E11.62409
G1 X90.704 Y95.861 E11.75842
G1 X91.767 Y94.019 E11.89276
G1 X92.887 Y92.775 E11.99842
G1 X93.290 Y92.742 F7800.000
G1 X106.265 Y95.475
G1 X104.706 Y93.916 F1080.000 E12.13812
G1 X102.113 Y92.589 E12.32262
G1 X107.391 Y97.868 E12.79545
G1 X107.668 Y99.412 E12.89483
G1 X100.569 Y92.312 E13.53083
G1 X99.302 Y92.312 E13.61105
G1 X107.660 Y100.670 E14.35972
G1 X107.505 Y101.781 E14.43081
G1 X98.239 Y92.515 E15.26089
G1 X97.261 Y92.804 E15.32545
G1 X107.194 Y102.737 E16.21526
G1 X106.796 Y103.605 E16.27576
G1 X96.385 Y93.194 E17.20839
G1 X95.611 Y93.686 E17.26650
G1 X106.332 Y104.408 E18.22697
G1 X105.756 Y105.097 E18.28391
G1 X94.877 Y94.219 E19.25840
G1 X94.268 Y94.876 E19.31517
G1 X105.152 Y105.760 E20.29013
G1 X104.418 Y106.293 E20.34756
G1 X93.686 Y95.560 E21.30898
G1 X93.222 Y96.363 E21.36770
G1 X103.650 Y106.791 E22.30179
G1 X102.773 Y107.181 E22.36255
G1 X92.818 Y97.225 E23.25436
G1 X92.507 Y98.181 E23.31802
G1 X101.803 Y107.477 E24.15070
G1 X100.748 Y107.688 E24.21886
G1 X92.345 Y99.285 E24.97159
G1 X92.326 Y100.532 E25.05061
G1 X99.481 Y107.688 E25.69160
G1 X97.951 Y107.424 E25.78996
G1 X92.585 Y102.058 E26.27063
G1 X93.667 Y104.406 E26.43437
G1 X95.477 Y106.217 E26.59655
M106 S255
G1 F1800.000 E25.59655
G92 E0
G1 Z0.900 F7800.000
G1 X94.472 Y106.610
G1 F1800.000 E1.00000
G1 X94.216 Y106.424 F828.128 E1.00930
G1 X93.007 Y105.081 E1.06244
G1 X92.104 Y103.516 E1.11558
G1 X91.545 Y101.797 E1.16871
G1 X91.356 Y100.000 E1.22185
G1 X91.545 Y98.203 E1.27499
G1 X92.104 Y96.484 E1.32812
G1 X93.007 Y94.919 E1.38126
G1 X94.216 Y93.576 E1.43440
G1 X95.678 Y92.514 E1.48753
G1 X97.329 Y91.779 E1.54067
G1 X99.096 Y91.404 E1.59381
G1 X100.904 Y91.404 E1.64694
G1 X102.671 Y91.779 E1.70008
G1 X104.322 Y92.514 E1.75322
G1 X105.784 Y93.576 E1.80635
G1 X106.993 Y94.919 E1.85949
G1 X107.896 Y96.484 E1.91262
G1 X108.455 Y98.203 E1.96576
G1 X108.644 Y100.000 E2.01890
G1 X108.455 Y101.797 E2.07203
G1 X107.896 Y103.516 E2.12517
G1 X106.993 Y105.081 E2.17831
G1 X105.784 Y106.424 E2.23144
G1 X104.322 Y107.486 E2.28458
G1 X102.671 Y108.221 E2.33772
G1 X100.904 Y108.596 E2.39085
G1 X99.096 Y108.596 E2.44399
G1 X97.329 Y108.221 E2.49713
G1 X95.678 Y107.486 E2.55026
G1 X94.535 Y106.655 E2.59180
G1 X94.167 Y107.030 F7800.000
G1 X93.867 Y106.812 F828.128 E2.60271
G1 X92.584 Y105.388 E2.65906
G1 X91.626 Y103.728 E2.71541
G1 X91.034 Y101.906 E2.77176
G1 X90.834 Y100.000 E2.82811
G1 X91.034 Y98.094 E2.88446
G1 X91.626 Y96.272 E2.94080
G1 X92.584 Y94.612 E2.99715
G1 X93.867 Y93.188 E3.05350
G1 X95.417 Y92.062 E3.10985
G1 X97.167 Y91.282 E3.16620
G1 X99.042 Y90.884 E3.22255
G1 X100.958 Y90.884 E3.27889
G1 X102.833 Y91.282 E3.33524
G1 X104.583 Y92.062 E3.39159
G1 X106.133 Y93.188 E3.44794
G1 X107.416 Y94.612 E3.50429
G1 X108.374 Y96.272 E3.56064
G1 X108.966 Y98.094 E3.61698
G1 X109.114 Y99.499 E3.65853
G1 X109.166 Y100.000 E3.67333
G1 X108.966 Y101.906 E3.72968
G1 X108.374 Y103.728 E3.78603
G1 X107.416 Y105.388 E3.84238
G1 X106.133 Y106.812 E3.89873
G1 X104.583 Y107.938 E3.95508
G1 X102.833 Y108.718 E4.01143
G1 X100.958 Y109.116 E4.06777
G1 X99.042 Y109.116 E4.12412
G1 X97.167 Y108.718 E4.18047
G1 X95.417 Y107.938 E4.23682
G1 X94.230 Y107.076 E4.27996
G1 X93.968 Y107.528 F7800.000
G1 X93.517 Y107.200 F600.000 E4.29637
G1 X92.162 Y105.695 E4.35593
G1 X91.149 Y103.941 E4.41549
G1 X90.523 Y102.014 E4.47506
G1 X90.311 Y100.000 E4.53462
G1 X90.523 Y97.986 E4.59418
G1 X91.149 Y96.059 E4.65374
G1 X92.162 Y94.305 E4.71330
G1 X93.517 Y92.800 E4.77286
G1 X95.156 Y91.609 E4.83242
G1 X97.006 Y90.785 E4.89198
G1 X98.987 Y90.364 E4.95154
G1 X101.013 Y90.364 E5.01110
G1 X102.994 Y90.785 E5.07066
G1 X104.844 Y91.609 E5.13022
G1 X106.483 Y92.800 E5.18978
G1 X107.838 Y94.305 E5.24934
G1 X108.851 Y96.059 E5.30890
G1 X109.477 Y97.986 E5.36846
G1 X109.689 Y100.000 E5.42802
G1 X109.477 Y102.014 E5.48758
G1 X108.865 Y103.897 E5.54579
G1 X107.838 Y105.695 E5.60668
G1 X106.483 Y107.200 E5.66624
G1 X104.844 Y108.391 E5.72580
G1 X102.994 Y109.215 E5.78536
G1 X101.013 Y109.636 E5.84492
G1 X98.987 Y109.636 E5.90448
G1 X97.006 Y109.215 E5.96404
G1 X95.156 Y108.391 E6.02360
G1 X94.031 Y107.574 E6.06446
G1 X94.023 Y107.011 F7800.000
G1 X107.015 Y104.288
G1 X104.182 Y107.122 F1656.255 E6.18289
G1 X102.825 Y107.740 E6.22697
G1 X107.718 Y102.848 E6.43148
G1 X108.073 Y101.753 E6.46549
G1 X101.807 Y108.019 E6.72744
G1 X100.869 Y108.219 E6.75579
G1 X108.168 Y100.919 E7.06094
G1 X108.255 Y100.094 E7.08548
G1 X100.129 Y108.220 E7.42519
G1 X99.390 Y108.220 E7.44702
G1 X108.203 Y99.407 E7.81542
G1 X108.133 Y98.739 E7.83529
G1 X98.737 Y108.135 E8.22809
G1 X98.127 Y108.005 E8.24650
G1 X108.027 Y98.105 E8.66036
G1 X107.846 Y97.548 E8.67769
G1 X97.518 Y107.876 E9.10945
G1 X96.995 Y107.660 E9.12617
G1 X107.665 Y96.990 E9.57221
G1 X107.451 Y96.466 E9.58896
G1 X96.484 Y107.432 E10.04742
G1 X95.973 Y107.205 E10.06396
G1 X107.180 Y95.997 E10.53248
G1 X106.910 Y95.529 E10.54847
G1 X95.528 Y106.911 E11.02430
G1 X95.100 Y106.600 E11.03993
G1 X106.626 Y95.074 E11.52176
G1 X106.276 Y94.686 E11.53722
G1 X94.672 Y106.289 E12.02231
G1 X94.285 Y105.937 E12.03777
G1 X105.926 Y94.297 E12.52439
G1 X105.576 Y93.908 E12.53986
G1 X93.935 Y105.549 E13.02648
G1 X93.585 Y105.160 E13.04195
G1 X105.158 Y93.587 E13.52574
G1 X104.730 Y93.276 E13.54137
G1 X93.253 Y104.753 E14.02117
G1 X92.983 Y104.285 E14.03716
G1 X104.302 Y92.965 E14.51037
G1 X103.824 Y92.705 E14.52646
G1 X92.712 Y103.817 E14.99099
G1 X92.444 Y103.346 E15.00700
G1 X103.313 Y92.477 E15.46136
G1 X102.802 Y92.250 E15.47790
G1 X92.263 Y102.788 E15.91846
G1 X92.082 Y102.231 E15.93579
G1 X102.240 Y92.073 E16.36044
G1 X101.631 Y91.943 E16.37885
G1 X91.910 Y101.664 E16.78523
G1 X91.840 Y100.996 E16.80510
G1 X101.021 Y91.814 E17.18895
G1 X100.316 Y91.780 E17.20982
G1 X91.769 Y100.327 E17.56712
G1 X91.779 Y99.578 E17.58925
G1 X99.577 Y91.780 E17.91525
G1 X98.758 Y91.860 E17.93958
G1 X91.866 Y98.753 E18.22771
G1 X92.068 Y97.812 E18.25616
G1 X97.820 Y92.060 E18.49663
G1 X96.646 Y92.496 E18.53366
G1 X92.424 Y96.718 E18.71016
G1 X93.789 Y94.613 E18.78432
G1 X94.745 Y93.658 E18.82426
G1 F1800.000 E17.82426
G92 E0
G1 Z1.300 F7800.000
G1 X94.782 Y93.903
G1 F1800.000 E1.00000
G1 X95.978 Y93.034 F740.856 E1.04349
G1 X97.514 Y92.350 E1.09294
G1 X99.159 Y92.000 E1.14238
G1 X100.841 Y92.000 E1.19183
G1 X102.486 Y92.350 E1.24128
G1 X104.022 Y93.034 E1.29073
G1 X105.382 Y94.022 E1.34018
G1 X106.508 Y95.272 E1.38963
G1 X107.348 Y96.728 E1.43907
G1 X107.868 Y98.328 E1.48852
G1 X108.044 Y100.000 E1.53797
G1 X107.868 Y101.672 E1.58742
G1 X107.348 Y103.272 E1.63687
G1 X106.508 Y104.728 E1.68631
G1 X105.382 Y105.978 E1.73576
G1 X104.022 Y106.966 E1.78521
G1 X102.486 Y107.650 E1.83466
G1 X100.841 Y108.000 E1.88411
G1 X99.159 Y108.000 E1.93355
G1 X97.514 Y107.650 E1.98300
G1 X95.978 Y106.966 E2.03245
G1 X94.618 Y105.978 E2.08190
G1 X93.492 Y104.728 E2.13135
G1 X92.652 Y103.272 E2.18079
G1 X92.132 Y101.672 E2.23024
G1 X91.956 Y100.000 E2.27969
G1 X92.132 Y98.328 E2.32914
G1 X92.652 Y96.728 E2.37859
G1 X93.492 Y95.272 E2.42803
G1 X94.618 Y94.022 E2.47748
G1 X94.719 Y93.949 E2.48115
G1 X94.476 Y93.483 F7800.000
G1 X95.717 Y92.581 F740.856 E2.52624
G1 X97.353 Y91.853 E2.57890
G1 X99.105 Y91.481 E2.63156
G1 X100.895 Y91.481 E2.68422
G1 X102.647 Y91.853 E2.73688
G1 X104.283 Y92.581 E2.78954
G1 X105.732 Y93.634 E2.84220
G1 X106.930 Y94.965 E2.89487
G1 X107.826 Y96.516 E2.94753
G1 X108.379 Y98.219 E3.00018
G1 X108.566 Y100.000 E3.05285
G1 X108.379 Y101.781 E3.10551
G1 X107.826 Y103.484 E3.15816
G1 X106.930 Y105.035 E3.21082
G1 X105.732 Y106.366 E3.26349
G1 X104.283 Y107.419 E3.31615
G1 X102.647 Y108.147 E3.36881
G1 X100.895 Y108.519 E3.42147
G1 X99.105 Y108.519 E3.47413
G1 X97.353 Y108.147 E3.52679
G1 X95.717 Y107.419 E3.57945
G1 X94.268 Y106.366 E3.63211
G1 X93.070 Y105.035 E3.68477
G1 X92.174 Y103.484 E3.73743
G1 X91.621 Y101.781 E3.79009
G1 X91.434 Y100.000 E3.84275
G1 X91.621 Y98.219 E3.89541
G1 X92.174 Y96.516 E3.94807
G1 X93.070 Y94.965 E4.00073
G1 X94.268 Y93.634 E4.05339
G1 X94.413 Y93.529 E4.05866
G1 X94.171 Y93.062 F7800.000
G1 X95.456 Y92.129 F600.000 E4.10536
G1 X97.191 Y91.356 E4.16123
G1 X99.050 Y90.961 E4.21710
G1 X100.950 Y90.961 E4.27298
G1 X102.809 Y91.356 E4.32885
G1 X104.544 Y92.129 E4.38472
G1 X106.082 Y93.246 E4.44059
G1 X107.353 Y94.658 E4.49646
G1 X108.303 Y96.303 E4.55234
G1 X108.890 Y98.110 E4.60821
G1 X109.089 Y100.000 E4.66408
G1 X108.890 Y101.890 E4.71995
G1 X108.303 Y103.697 E4.77582
G1 X107.353 Y105.342 E4.83170
G1 X106.082 Y106.754 E4.88757
G1 X104.544 Y107.871 E4.94344
G1 X102.809 Y108.644 E4.99931
G1 X100.950 Y109.039 E5.05518
G1 X99.050 Y109.039 E5.11106
G1 X97.191 Y108.644 E5.16693
G1 X95.456 Y107.871 E5.22280
G1 X93.918 Y106.754 E5.27867
G1 X92.647 Y105.342 E5.33454
G1 X91.697 Y103.697 E5.39042
G1 X91.110 Y101.890 E5.44629
G1 X90.911 Y100.000 E5.50216
G1 X91.110 Y98.110 E5.55803
G1 X91.697 Y96.303 E5.61390
G1 X92.647 Y94.658 E5.66978
G1 X93.918 Y93.246 E5.72565
G1 X94.108 Y93.108 E5.73253
G1 X94.645 Y93.274 F7800.000
G1 X103.647 Y93.279
G1 X106.664 Y96.297 F1481.711 E5.85868
G1 X107.239 Y97.610 E5.90106
G1 X102.331 Y92.702 E6.10623
G1 X101.393 Y92.503 E6.13458
G1 X107.521 Y98.631 E6.39078
G1 X107.608 Y99.457 E6.41532
G1 X100.528 Y92.377 E6.71129
G1 X99.789 Y92.377 E6.73313
G1 X107.641 Y100.229 E7.06136
G1 X107.571 Y100.897 E7.08123
G1 X99.077 Y92.403 E7.43632
G1 X98.467 Y92.532 E7.45473
G1 X107.501 Y101.565 E7.83236
G1 X107.324 Y102.128 E7.84978
G1 X97.858 Y92.662 E8.24550
G1 X97.310 Y92.853 E8.26264
G1 X107.143 Y102.685 E8.67368
G1 X106.942 Y103.223 E8.69065
G1 X96.799 Y93.081 E9.11465
G1 X96.288 Y93.308 E9.13119
G1 X106.671 Y103.691 E9.56525
G1 X106.401 Y104.160 E9.58123
G1 X95.841 Y93.599 E10.02270
G1 X95.413 Y93.910 E10.03834
G1 X106.110 Y104.607 E10.48551
G1 X105.760 Y104.996 E10.50098
G1 X94.985 Y94.221 E10.95141
