(Generated by PartKam Version 0.05)

G20 G90 G40

(pocket 1)
G0 Z0.5
T0 M6
G17
M3
G0 X9.075 Y4.2125
G1 Z-0.05 F30
G1 X8.925 Y4.2125 F60
G1 X8.925 Y4.0625
G1 X9.075 Y4.0625
G1 X9.075 Y4.2125
G1 X9.175 Y4.3125 F60
G1 X8.825 Y4.3125 F60
G1 X8.825 Y3.9625
G1 X9.175 Y3.9625
G1 X9.175 Y4.3125
G1 X9.275 Y4.4125 F60
G1 X8.725 Y4.4125 F60
G1 X8.725 Y3.8625
G1 X9.275 Y3.8625
G1 X9.275 Y4.4125
G1 X9.375 Y4.4375 F60
G3 X9.3693 Y4.4662 I-0.075 J0 F60
G3 X9.353 Y4.4905 I-0.0693 J-0.0287
G3 X9.3287 Y4.5068 I-0.053 J-0.053
G3 X9.3 Y4.5125 I-0.0287 J-0.0693
G1 X8.7 Y4.5125
G3 X8.6713 Y4.5068 I0 J-0.075
G3 X8.647 Y4.4905 I0.0287 J-0.0693
G3 X8.6307 Y4.4662 I0.053 J-0.053
G3 X8.625 Y4.4375 I0.0693 J-0.0287
G1 X8.625 Y3.8375
G3 X8.6307 Y3.8088 I0.075 J0
G3 X8.647 Y3.7845 I0.0693 J0.0287
G3 X8.6713 Y3.7682 I0.053 J0.053
G3 X8.7 Y3.7625 I0.0287 J0.0693
G1 X9.3 Y3.7625
G3 X9.3287 Y3.7682 I0 J0.075
G3 X9.353 Y3.7845 I-0.0287 J0.0693
G3 X9.3693 Y3.8088 I-0.053 J0.053
G3 X9.375 Y3.8375 I-0.0693 J0.0287
G1 X9.375 Y4.4375
G0 Z0.5
G0 X9.075 Y4.2125
G1 Z-0.1 F30
G1 X8.925 Y4.2125 F60
G1 X8.925 Y4.0625
G1 X9.075 Y4.0625
G1 X9.075 Y4.2125
G1 X9.175 Y4.3125 F60
G1 X8.825 Y4.3125 F60
G1 X8.825 Y3.9625
G1 X9.175 Y3.9625
G1 X9.175 Y4.3125
G1 X9.275 Y4.4125 F60
G1 X8.725 Y4.4125 F60
G1 X8.725 Y3.8625
G1 X9.275 Y3.8625
G1 X9.275 Y4.4125
G1 X9.375 Y4.4375 F60
G3 X9.3693 Y4.4662 I-0.075 J0 F60
G3 X9.353 Y4.4905 I-0.0693 J-0.0287
G3 X9.3287 Y4.5068 I-0.053 J-0.053
G3 X9.3 Y4.5125 I-0.0287 J-0.0693
G1 X8.7 Y4.5125
G3 X8.6713 Y4.5068 I0 J-0.075
G3 X8.647 Y4.4905 I0.0287 J-0.0693
G3 X8.6307 Y4.4662 I0.053 J-0.053
G3 X8.625 Y4.4375 I0.0693 J-0.0287
G1 X8.625 Y3.8375
G3 X8.6307 Y3.8088 I0.075 J0
G3 X8.647 Y3.7845 I0.0693 J0.0287
G3 X8.6713 Y3.7682 I0.053 J0.053
G3 X8.7 Y3.7625 I0.0287 J0.0693
G1 X9.3 Y3.7625
G3 X9.3287 Y3.7682 I0 J0.075
G3 X9.353 Y3.7845 I-0.0287 J0.0693
G3 X9.3693 Y3.8088 I-0.053 J0.053
G3 X9.375 Y3.8375 I-0.0693 J0.0287
G1 X9.375 Y4.4375
G0 Z0.5
G0 X9.075 Y4.2125
G1 Z-0.15 F30
G1 X8.925 Y4.2125 F60
G1 X8.925 Y4.0625
G1 X9.075 Y4.0625
G1 X9.075 Y4.2125
G1 X9.175 Y4.3125 F60
G1 X8.825 Y4.3125 F60
G1 X8.825 Y3.9625
G1 X9.175 Y3.9625
G1 X9.175 Y4.3125
G1 X9.275 Y4.4125 F60
G1 X8.725 Y4.4125 F60
G1 X8.725 Y3.8625
G1 X9.275 Y3.8625
G1 X9.275 Y4.4125
G1 X9.375 Y4.4375 F60
G3 X9.3693 Y4.4662 I-0.075 J0 F60
G3 X9.353 Y4.4905 I-0.0693 J-0.0287
G3 X9.3287 Y4.5068 I-0.053 J-0.053
G3 X9.3 Y4.5125 I-0.0287 J-0.0693
G1 X8.7 Y4.5125
G3 X8.6713 Y4.5068 I0 J-0.075
G3 X8.647 Y4.4905 I0.0287 J-0.0693
G3 X8.6307 Y4.4662 I0.053 J-0.053
G3 X8.625 Y4.4375 I0.0693 J-0.0287
G1 X8.625 Y3.8375
G3 X8.6307 Y3.8088 I0.075 J0
G3 X8.647 Y3.7845 I0.0693 J0.0287
G3 X8.6713 Y3.7682 I0.053 J0.053
G3 X8.7 Y3.7625 I0.0287 J0.0693
G1 X9.3 Y3.7625
G3 X9.3287 Y3.7682 I0 J0.075
G3 X9.353 Y3.7845 I-0.0287 J0.0693
G3 X9.3693 Y3.8088 I-0.053 J0.053
G3 X9.375 Y3.8375 I-0.0693 J0.0287
G1 X9.375 Y4.4375
G0 Z0.5
G0 X9.075 Y4.2125
G1 Z-0.2 F30
G1 X8.925 Y4.2125 F60
G1 X8.925 Y4.0625
G1 X9.075 Y4.0625
G1 X9.075 Y4.2125
G1 X9.175 Y4.3125 F60
G1 X8.825 Y4.3125 F60
G1 X8.825 Y3.9625
G1 X9.175 Y3.9625
G1 X9.175 Y4.3125
G1 X9.275 Y4.4125 F60
G1 X8.725 Y4.4125 F60
G1 X8.725 Y3.8625
G1 X9.275 Y3.8625
G1 X9.275 Y4.4125
G1 X9.375 Y4.4375 F60
G3 X9.3693 Y4.4662 I-0.075 J0 F60
G3 X9.353 Y4.4905 I-0.0693 J-0.0287
G3 X9.3287 Y4.5068 I-0.053 J-0.053
G3 X9.3 Y4.5125 I-0.0287 J-0.0693
G1 X8.7 Y4.5125
G3 X8.6713 Y4.5068 I0 J-0.075
G3 X8.647 Y4.4905 I0.0287 J-0.0693
G3 X8.6307 Y4.4662 I0.053 J-0.053
G3 X8.625 Y4.4375 I0.0693 J-0.0287
G1 X8.625 Y3.8375
G3 X8.6307 Y3.8088 I0.075 J0
G3 X8.647 Y3.7845 I0.0693 J0.0287
G3 X8.6713 Y3.7682 I0.053 J0.053
G3 X8.7 Y3.7625 I0.0287 J0.0693
G1 X9.3 Y3.7625
G3 X9.3287 Y3.7682 I0 J0.075
G3 X9.353 Y3.7845 I-0.0287 J0.0693
G3 X9.3693 Y3.8088 I-0.053 J0.053
G3 X9.375 Y3.8375 I-0.0693 J0.0287
G1 X9.375 Y4.4375
G0 Z0.5
G0 X9.075 Y4.2125
G1 Z-0.25 F30
G1 X8.925 Y4.2125 F60
G1 X8.925 Y4.0625
G1 X9.075 Y4.0625
G1 X9.075 Y4.2125
G1 X9.175 Y4.3125 F60
G1 X8.825 Y4.3125 F60
G1 X8.825 Y3.9625
G1 X9.175 Y3.9625
G1 X9.175 Y4.3125
G1 X9.275 Y4.4125 F60
G1 X8.725 Y4.4125 F60
G1 X8.725 Y3.8625
G1 X9.275 Y3.8625
G1 X9.275 Y4.4125
G1 X9.375 Y4.4375 F60
G3 X9.3693 Y4.4662 I-0.075 J0 F60
G3 X9.353 Y4.4905 I-0.0693 J-0.0287
G3 X9.3287 Y4.5068 I-0.053 J-0.053
G3 X9.3 Y4.5125 I-0.0287 J-0.0693
G1 X8.7 Y4.5125
G3 X8.6713 Y4.5068 I0 J-0.075
G3 X8.647 Y4.4905 I0.0287 J-0.0693
G3 X8.6307 Y4.4662 I0.053 J-0.053
G3 X8.625 Y4.4375 I0.0693 J-0.0287
G1 X8.625 Y3.8375
G3 X8.6307 Y3.8088 I0.075 J0
G3 X8.647 Y3.7845 I0.0693 J0.0287
G3 X8.6713 Y3.7682 I0.053 J0.053
G3 X8.7 Y3.7625 I0.0287 J0.0693
G1 X9.3 Y3.7625
G3 X9.3287 Y3.7682 I0 J0.075
G3 X9.353 Y3.7845 I-0.0287 J0.0693
G3 X9.3693 Y3.8088 I-0.053 J0.053
G3 X9.375 Y3.8375 I-0.0693 J0.0287
G1 X9.375 Y4.4375
G0 Z0.5
G0 X9.075 Y4.2125
G1 Z-0.3 F30
G1 X8.925 Y4.2125 F60
G1 X8.925 Y4.0625
G1 X9.075 Y4.0625
G1 X9.075 Y4.2125
G1 X9.175 Y4.3125 F60
G1 X8.825 Y4.3125 F60
G1 X8.825 Y3.9625
G1 X9.175 Y3.9625
G1 X9.175 Y4.3125
G1 X9.275 Y4.4125 F60
G1 X8.725 Y4.4125 F60
G1 X8.725 Y3.8625
G1 X9.275 Y3.8625
G1 X9.275 Y4.4125
G1 X9.375 Y4.4375 F60
G3 X9.3693 Y4.4662 I-0.075 J0 F60
G3 X9.353 Y4.4905 I-0.0693 J-0.0287
G3 X9.3287 Y4.5068 I-0.053 J-0.053
G3 X9.3 Y4.5125 I-0.0287 J-0.0693
G1 X8.7 Y4.5125
G3 X8.6713 Y4.5068 I0 J-0.075
G3 X8.647 Y4.4905 I0.0287 J-0.0693
G3 X8.6307 Y4.4662 I0.053 J-0.053
G3 X8.625 Y4.4375 I0.0693 J-0.0287
G1 X8.625 Y3.8375
G3 X8.6307 Y3.8088 I0.075 J0
G3 X8.647 Y3.7845 I0.0693 J0.0287
G3 X8.6713 Y3.7682 I0.053 J0.053
G3 X8.7 Y3.7625 I0.0287 J0.0693
G1 X9.3 Y3.7625
G3 X9.3287 Y3.7682 I0 J0.075
G3 X9.353 Y3.7845 I-0.0287 J0.0693
G3 X9.3693 Y3.8088 I-0.053 J0.053
G3 X9.375 Y3.8375 I-0.0693 J0.0287
G1 X9.375 Y4.4375
G0 Z0.5
G0 X9.075 Y4.2125
G1 Z-0.35 F30
G1 X8.925 Y4.2125 F60
G1 X8.925 Y4.0625
G1 X9.075 Y4.0625
G1 X9.075 Y4.2125
G1 X9.175 Y4.3125 F60
G1 X8.825 Y4.3125 F60
G1 X8.825 Y3.9625
G1 X9.175 Y3.9625
G1 X9.175 Y4.3125
G1 X9.275 Y4.4125 F60
G1 X8.725 Y4.4125 F60
G1 X8.725 Y3.8625
G1 X9.275 Y3.8625
G1 X9.275 Y4.4125
G1 X9.375 Y4.4375 F60
G3 X9.3693 Y4.4662 I-0.075 J0 F60
G3 X9.353 Y4.4905 I-0.0693 J-0.0287
G3 X9.3287 Y4.5068 I-0.053 J-0.053
G3 X9.3 Y4.5125 I-0.0287 J-0.0693
G1 X8.7 Y4.5125
G3 X8.6713 Y4.5068 I0 J-0.075
G3 X8.647 Y4.4905 I0.0287 J-0.0693
G3 X8.6307 Y4.4662 I0.053 J-0.053
G3 X8.625 Y4.4375 I0.0693 J-0.0287
G1 X8.625 Y3.8375
G3 X8.6307 Y3.8088 I0.075 J0
G3 X8.647 Y3.7845 I0.0693 J0.0287
G3 X8.6713 Y3.7682 I0.053 J0.053
G3 X8.7 Y3.7625 I0.0287 J0.0693
G1 X9.3 Y3.7625
G3 X9.3287 Y3.7682 I0 J0.075
G3 X9.353 Y3.7845 I-0.0287 J0.0693
G3 X9.3693 Y3.8088 I-0.053 J0.053
G3 X9.375 Y3.8375 I-0.0693 J0.0287
G1 X9.375 Y4.4375
G0 Z0.5
G0 X9.075 Y4.2125
G1 Z-0.4 F30
G1 X8.925 Y4.2125 F60
G1 X8.925 Y4.0625
G1 X9.075 Y4.0625
G1 X9.075 Y4.2125
G1 X9.175 Y4.3125 F60
G1 X8.825 Y4.3125 F60
G1 X8.825 Y3.9625
G1 X9.175 Y3.9625
G1 X9.175 Y4.3125
G1 X9.275 Y4.4125 F60
G1 X8.725 Y4.4125 F60
G1 X8.725 Y3.8625
G1 X9.275 Y3.8625
G1 X9.275 Y4.4125
G1 X9.375 Y4.4375 F60
G3 X9.3693 Y4.4662 I-0.075 J0 F60
G3 X9.353 Y4.4905 I-0.0693 J-0.0287
G3 X9.3287 Y4.5068 I-0.053 J-0.053
G3 X9.3 Y4.5125 I-0.0287 J-0.0693
G1 X8.7 Y4.5125
G3 X8.6713 Y4.5068 I0 J-0.075
G3 X8.647 Y4.4905 I0.0287 J-0.0693
G3 X8.6307 Y4.4662 I0.053 J-0.053
G3 X8.625 Y4.4375 I0.0693 J-0.0287
G1 X8.625 Y3.8375
G3 X8.6307 Y3.8088 I0.075 J0
G3 X8.647 Y3.7845 I0.0693 J0.0287
G3 X8.6713 Y3.7682 I0.053 J0.053
G3 X8.7 Y3.7625 I0.0287 J0.0693
G1 X9.3 Y3.7625
G3 X9.3287 Y3.7682 I0 J0.075
G3 X9.353 Y3.7845 I-0.0287 J0.0693
G3 X9.3693 Y3.8088 I-0.053 J0.053
G3 X9.375 Y3.8375 I-0.0693 J0.0287
G1 X9.375 Y4.4375
G0 Z0.5
G0 X9.075 Y4.2125
G1 Z-0.45 F30
G1 X8.925 Y4.2125 F60
G1 X8.925 Y4.0625
G1 X9.075 Y4.0625
G1 X9.075 Y4.2125
G1 X9.175 Y4.3125 F60
G1 X8.825 Y4.3125 F60
G1 X8.825 Y3.9625
G1 X9.175 Y3.9625
G1 X9.175 Y4.3125
G1 X9.275 Y4.4125 F60
G1 X8.725 Y4.4125 F60
G1 X8.725 Y3.8625
G1 X9.275 Y3.8625
G1 X9.275 Y4.4125
G1 X9.375 Y4.4375 F60
G3 X9.3693 Y4.4662 I-0.075 J0 F60
G3 X9.353 Y4.4905 I-0.0693 J-0.0287
G3 X9.3287 Y4.5068 I-0.053 J-0.053
G3 X9.3 Y4.5125 I-0.0287 J-0.0693
G1 X8.7 Y4.5125
G3 X8.6713 Y4.5068 I0 J-0.075
G3 X8.647 Y4.4905 I0.0287 J-0.0693
G3 X8.6307 Y4.4662 I0.053 J-0.053
G3 X8.625 Y4.4375 I0.0693 J-0.0287
G1 X8.625 Y3.8375
G3 X8.6307 Y3.8088 I0.075 J0
G3 X8.647 Y3.7845 I0.0693 J0.0287
G3 X8.6713 Y3.7682 I0.053 J0.053
G3 X8.7 Y3.7625 I0.0287 J0.0693
G1 X9.3 Y3.7625
G3 X9.3287 Y3.7682 I0 J0.075
G3 X9.353 Y3.7845 I-0.0287 J0.0693
G3 X9.3693 Y3.8088 I-0.053 J0.053
G3 X9.375 Y3.8375 I-0.0693 J0.0287
G1 X9.375 Y4.4375
G0 Z0.5
G0 X9.075 Y4.2125
G1 Z-0.5 F30
G1 X8.925 Y4.2125 F60
G1 X8.925 Y4.0625
G1 X9.075 Y4.0625
G1 X9.075 Y4.2125
G1 X9.175 Y4.3125 F60
G1 X8.825 Y4.3125 F60
G1 X8.825 Y3.9625
G1 X9.175 Y3.9625
G1 X9.175 Y4.3125
G1 X9.275 Y4.4125 F60
G1 X8.725 Y4.4125 F60
G1 X8.725 Y3.8625
G1 X9.275 Y3.8625
G1 X9.275 Y4.4125
G1 X9.375 Y4.4375 F60
G3 X9.3693 Y4.4662 I-0.075 J0 F60
G3 X9.353 Y4.4905 I-0.0693 J-0.0287
G3 X9.3287 Y4.5068 I-0.053 J-0.053
G3 X9.3 Y4.5125 I-0.0287 J-0.0693
G1 X8.7 Y4.5125
G3 X8.6713 Y4.5068 I0 J-0.075
G3 X8.647 Y4.4905 I0.0287 J-0.0693
G3 X8.6307 Y4.4662 I0.053 J-0.053
G3 X8.625 Y4.4375 I0.0693 J-0.0287
G1 X8.625 Y3.8375
G3 X8.6307 Y3.8088 I0.075 J0
G3 X8.647 Y3.7845 I0.0693 J0.0287
G3 X8.6713 Y3.7682 I0.053 J0.053
G3 X8.7 Y3.7625 I0.0287 J0.0693
G1 X9.3 Y3.7625
G3 X9.3287 Y3.7682 I0 J0.075
G3 X9.353 Y3.7845 I-0.0287 J0.0693
G3 X9.3693 Y3.8088 I-0.053 J0.053
G3 X9.375 Y3.8375 I-0.0693 J0.0287
G1 X9.375 Y4.4375
G0 Z0.5
G0 X9.075 Y4.2125
G1 Z-0.55 F30
G1 X8.925 Y4.2125 F60
G1 X8.925 Y4.0625
G1 X9.075 Y4.0625
G1 X9.075 Y4.2125
G1 X9.175 Y4.3125 F60
G1 X8.825 Y4.3125 F60
G1 X8.825 Y3.9625
G1 X9.175 Y3.9625
G1 X9.175 Y4.3125
G1 X9.275 Y4.4125 F60
G1 X8.725 Y4.4125 F60
G1 X8.725 Y3.8625
G1 X9.275 Y3.8625
G1 X9.275 Y4.4125
G1 X9.375 Y4.4375 F60
G3 X9.3693 Y4.4662 I-0.075 J0 F60
G3 X9.353 Y4.4905 I-0.0693 J-0.0287
G3 X9.3287 Y4.5068 I-0.053 J-0.053
G3 X9.3 Y4.5125 I-0.0287 J-0.0693
G1 X8.7 Y4.5125
G3 X8.6713 Y4.5068 I0 J-0.075
G3 X8.647 Y4.4905 I0.0287 J-0.0693
G3 X8.6307 Y4.4662 I0.053 J-0.053
G3 X8.625 Y4.4375 I0.0693 J-0.0287
G1 X8.625 Y3.8375
G3 X8.6307 Y3.8088 I0.075 J0
G3 X8.647 Y3.7845 I0.0693 J0.0287
G3 X8.6713 Y3.7682 I0.053 J0.053
G3 X8.7 Y3.7625 I0.0287 J0.0693
G1 X9.3 Y3.7625
G3 X9.3287 Y3.7682 I0 J0.075
G3 X9.353 Y3.7845 I-0.0287 J0.0693
G3 X9.3693 Y3.8088 I-0.053 J0.053
G3 X9.375 Y3.8375 I-0.0693 J0.0287
G1 X9.375 Y4.4375
G0 Z0.5
G0 X9.075 Y4.2125
G1 Z-0.6 F30
G1 X8.925 Y4.2125 F60
G1 X8.925 Y4.0625
G1 X9.075 Y4.0625
G1 X9.075 Y4.2125
G1 X9.175 Y4.3125 F60
G1 X8.825 Y4.3125 F60
G1 X8.825 Y3.9625
G1 X9.175 Y3.9625
G1 X9.175 Y4.3125
G1 X9.275 Y4.4125 F60
G1 X8.725 Y4.4125 F60
G1 X8.725 Y3.8625
G1 X9.275 Y3.8625
G1 X9.275 Y4.4125
G1 X9.375 Y4.4375 F60
G3 X9.3693 Y4.4662 I-0.075 J0 F60
G3 X9.353 Y4.4905 I-0.0693 J-0.0287
G3 X9.3287 Y4.5068 I-0.053 J-0.053
G3 X9.3 Y4.5125 I-0.0287 J-0.0693
G1 X8.7 Y4.5125
G3 X8.6713 Y4.5068 I0 J-0.075
G3 X8.647 Y4.4905 I0.0287 J-0.0693
G3 X8.6307 Y4.4662 I0.053 J-0.053
G3 X8.625 Y4.4375 I0.0693 J-0.0287
G1 X8.625 Y3.8375
G3 X8.6307 Y3.8088 I0.075 J0
G3 X8.647 Y3.7845 I0.0693 J0.0287
G3 X8.6713 Y3.7682 I0.053 J0.053
G3 X8.7 Y3.7625 I0.0287 J0.0693
G1 X9.3 Y3.7625
G3 X9.3287 Y3.7682 I0 J0.075
G3 X9.353 Y3.7845 I-0.0287 J0.0693
G3 X9.3693 Y3.8088 I-0.053 J0.053
G3 X9.375 Y3.8375 I-0.0693 J0.0287
G1 X9.375 Y4.4375
G0 Z0.5
G0 X9.075 Y4.2125
G1 Z-0.65 F30
G1 X8.925 Y4.2125 F60
G1 X8.925 Y4.0625
G1 X9.075 Y4.0625
G1 X9.075 Y4.2125
G1 X9.175 Y4.3125 F60
G1 X8.825 Y4.3125 F60
G1 X8.825 Y3.9625
G1 X9.175 Y3.9625
G1 X9.175 Y4.3125
G1 X9.275 Y4.4125 F60
G1 X8.725 Y4.4125 F60
G1 X8.725 Y3.8625
G1 X9.275 Y3.8625
G1 X9.275 Y4.4125
G1 X9.375 Y4.4375 F60
G3 X9.3693 Y4.4662 I-0.075 J0 F60
G3 X9.353 Y4.4905 I-0.0693 J-0.0287
G3 X9.3287 Y4.5068 I-0.053 J-0.053
G3 X9.3 Y4.5125 I-0.0287 J-0.0693
G1 X8.7 Y4.5125
G3 X8.6713 Y4.5068 I0 J-0.075
G3 X8.647 Y4.4905 I0.0287 J-0.0693
G3 X8.6307 Y4.4662 I0.053 J-0.053
G3 X8.625 Y4.4375 I0.0693 J-0.0287
G1 X8.625 Y3.8375
G3 X8.6307 Y3.8088 I0.075 J0
G3 X8.647 Y3.7845 I0.0693 J0.0287
G3 X8.6713 Y3.7682 I0.053 J0.053
G3 X8.7 Y3.7625 I0.0287 J0.0693
G1 X9.3 Y3.7625
G3 X9.3287 Y3.7682 I0 J0.075
G3 X9.353 Y3.7845 I-0.0287 J0.0693
G3 X9.3693 Y3.8088 I-0.053 J0.053
G3 X9.375 Y3.8375 I-0.0693 J0.0287
G1 X9.375 Y4.4375
G0 Z0.5
G0 X9.075 Y4.2125
G1 Z-0.7 F30
G1 X8.925 Y4.2125 F60
G1 X8.925 Y4.0625
G1 X9.075 Y4.0625
G1 X9.075 Y4.2125
G1 X9.175 Y4.3125 F60
G1 X8.825 Y4.3125 F60
G1 X8.825 Y3.9625
G1 X9.175 Y3.9625
G1 X9.175 Y4.3125
G1 X9.275 Y4.4125 F60
G1 X8.725 Y4.4125 F60
G1 X8.725 Y3.8625
G1 X9.275 Y3.8625
G1 X9.275 Y4.4125
G1 X9.375 Y4.4375 F60
G3 X9.3693 Y4.4662 I-0.075 J0 F60
G3 X9.353 Y4.4905 I-0.0693 J-0.0287
G3 X9.3287 Y4.5068 I-0.053 J-0.053
G3 X9.3 Y4.5125 I-0.0287 J-0.0693
G1 X8.7 Y4.5125
G3 X8.6713 Y4.5068 I0 J-0.075
G3 X8.647 Y4.4905 I0.0287 J-0.0693
G3 X8.6307 Y4.4662 I0.053 J-0.053
G3 X8.625 Y4.4375 I0.0693 J-0.0287
G1 X8.625 Y3.8375
G3 X8.6307 Y3.8088 I0.075 J0
G3 X8.647 Y3.7845 I0.0693 J0.0287
G3 X8.6713 Y3.7682 I0.053 J0.053
G3 X8.7 Y3.7625 I0.0287 J0.0693
G1 X9.3 Y3.7625
G3 X9.3287 Y3.7682 I0 J0.075
G3 X9.353 Y3.7845 I-0.0287 J0.0693
G3 X9.3693 Y3.8088 I-0.053 J0.053
G3 X9.375 Y3.8375 I-0.0693 J0.0287
G1 X9.375 Y4.4375
G0 Z0.5
G0 X9.075 Y4.2125
G1 Z-0.75 F30
G1 X8.925 Y4.2125 F60
G1 X8.925 Y4.0625
G1 X9.075 Y4.0625
G1 X9.075 Y4.2125
G1 X9.175 Y4.3125 F60
G1 X8.825 Y4.3125 F60
G1 X8.825 Y3.9625
G1 X9.175 Y3.9625
G1 X9.175 Y4.3125
G1 X9.275 Y4.4125 F60
G1 X8.725 Y4.4125 F60
G1 X8.725 Y3.8625
G1 X9.275 Y3.8625
G1 X9.275 Y4.4125
G1 X9.375 Y4.4375 F60
G3 X9.3693 Y4.4662 I-0.075 J0 F60
G3 X9.353 Y4.4905 I-0.0693 J-0.0287
G3 X9.3287 Y4.5068 I-0.053 J-0.053
G3 X9.3 Y4.5125 I-0.0287 J-0.0693
G1 X8.7 Y4.5125
G3 X8.6713 Y4.5068 I0 J-0.075
G3 X8.647 Y4.4905 I0.0287 J-0.0693
G3 X8.6307 Y4.4662 I0.053 J-0.053
G3 X8.625 Y4.4375 I0.0693 J-0.0287
G1 X8.625 Y3.8375
G3 X8.6307 Y3.8088 I0.075 J0
G3 X8.647 Y3.7845 I0.0693 J0.0287
G3 X8.6713 Y3.7682 I0.053 J0.053
G3 X8.7 Y3.7625 I0.0287 J0.0693
G1 X9.3 Y3.7625
G3 X9.3287 Y3.7682 I0 J0.075
G3 X9.353 Y3.7845 I-0.0287 J0.0693
G3 X9.3693 Y3.8088 I-0.053 J0.053
G3 X9.375 Y3.8375 I-0.0693 J0.0287
G1 X9.375 Y4.4375

(drill 2)
G0 Z0.5
G0 X9 Y4.1375
G1 Z-0.05 F30
G1 Z0 F30
G1 Z-0.1 F30
G1 Z0 F30
G1 Z-0.15 F30
G1 Z0 F30
G1 Z-0.2 F30
G1 Z0 F30
G1 Z-0.25 F30
G1 Z0 F30
G1 Z-0.3 F30
G1 Z0 F30
G1 Z-0.35 F30
G1 Z0 F30
G1 Z-0.4 F30
G1 Z0 F30
G1 Z-0.45 F30
G1 Z0 F30
G1 Z-0.5 F30
G1 Z0 F30
G1 Z-0.55 F30
G1 Z0 F30
G1 Z-0.6 F30
G1 Z0 F30
G1 Z-0.65 F30
G1 Z0 F30
G1 Z-0.7 F30
G1 Z0 F30
G1 Z-0.75 F30
G1 Z0 F30
G0 Z0.5
M5
M30
