; generated by Slic3r 0.9.10b on 2013-10-18 at 12:13:19

; layer_height = 0.25
; perimeters = 3
; top_solid_layers = 3
; bottom_solid_layers = 3
; fill_density = 0.4
; perimeter_speed = 30
; infill_speed = 60
; travel_speed = 130
; nozzle_diameter = 0.4
; filament_diameter = 1.75
; extrusion_multiplier = 1
; perimeters extrusion width = 0.53mm
; infill extrusion width = 0.53mm
; solid infill extrusion width = 0.53mm
; top infill extrusion width = 0.53mm
; first layer extrusion width = 0.60mm

G21 ; set units to millimeters
M107
M104 S200 ; set temperature
G1 Z5 F5000 ; lift nozzle
G28 ; Home All
M92 X100 ; calibrate X
M92 Y100 ; calibrate Y
M92 Z1826 ; calibrate Z
M92 E440 ; calibrate E
;N9200 M106 S22 *126 ; Fan on
M109 S200 ; wait for temperature to be reached
G90 ; use absolute coordinates
G92 E0
M82 ; use absolute distances for extrusion
G1 F1800.000 E-1.00000
G92 E0
G1 Z0.300 F7800.000
G1 X20.820 Y39.240
G1 F1800.000 E1.00000
G1 X48.400 Y19.240 F540.000 E3.36714
G1 X49.690 Y18.500 E3.47047
G1 X51.100 Y18.040 E3.57353
G1 X52.580 Y17.890 E3.67689
G1 X75.000 Y17.890 E5.23467
G1 X76.390 Y18.020 E5.33168
G1 X77.720 Y18.430 E5.42838
G1 X78.950 Y19.080 E5.52504
G1 X80.030 Y19.970 E5.62228
G1 X80.920 Y21.050 E5.71952
G1 X81.570 Y22.280 E5.81618
G1 X81.980 Y23.610 E5.91288
G1 X82.110 Y25.000 E6.00988
G1 X82.110 Y75.000 E9.48398
G1 X81.980 Y76.390 E9.58098
G1 X81.570 Y77.720 E9.67769
G1 X80.920 Y78.950 E9.77435
G1 X80.030 Y80.030 E9.87159
G1 X78.950 Y80.920 E9.96883
G1 X77.720 Y81.570 E10.06549
G1 X76.390 Y81.980 E10.16219
G1 X75.000 Y82.110 E10.25919
G1 X25.000 Y82.110 E13.73329
G1 X23.610 Y81.980 E13.83029
G1 X22.280 Y81.570 E13.92700
G1 X21.050 Y80.920 E14.02366
G1 X19.970 Y80.030 E14.12090
G1 X19.080 Y78.950 E14.21813
G1 X18.430 Y77.720 E14.31480
G1 X18.020 Y76.390 E14.41150
G1 X17.890 Y75.000 E14.50850
G1 X17.890 Y45.000 E16.59296
G1 X18.010 Y43.670 E16.68575
G1 X18.390 Y42.380 E16.77919
G1 X19.000 Y41.180 E16.87272
G1 X19.820 Y40.130 E16.96529
G1 X20.758 Y39.296 E17.05250
G1 X21.150 Y39.690 F7800.000
G1 X48.730 Y19.690 F540.000 E19.41964
G1 X49.920 Y19.010 E19.51487
G1 X51.220 Y18.590 E19.60980
G1 X52.580 Y18.440 E19.70486
G1 X75.000 Y18.440 E21.26265
G1 X76.280 Y18.570 E21.35205
G1 X77.510 Y18.940 E21.44129
G1 X78.640 Y19.550 E21.53052
G1 X79.640 Y20.360 E21.61993
G1 X80.450 Y21.360 E21.70935
G1 X81.060 Y22.490 E21.79857
G1 X81.430 Y23.720 E21.88782
G1 X81.560 Y25.000 E21.97721
G1 X81.560 Y75.000 E25.45131
G1 X81.430 Y76.280 E25.54071
G1 X81.060 Y77.510 E25.62995
G1 X80.450 Y78.640 E25.71918
G1 X79.640 Y79.640 E25.80860
G1 X78.640 Y80.450 E25.89801
G1 X77.510 Y81.060 E25.98724
G1 X76.280 Y81.430 E26.07648
G1 X75.000 Y81.560 E26.16588
G1 X25.000 Y81.560 E29.63998
G1 X23.720 Y81.430 E29.72937
G1 X22.490 Y81.060 E29.81862
G1 X21.360 Y80.450 E29.90784
G1 X20.360 Y79.640 E29.99726
G1 X19.550 Y78.640 E30.08667
G1 X18.940 Y77.510 E30.17590
G1 X18.570 Y76.280 E30.26514
G1 X18.440 Y75.000 E30.35454
G1 X18.440 Y45.000 E32.43900
G1 X18.620 Y43.470 E32.54604
G1 X19.160 Y42.020 E32.65355
G1 X20.020 Y40.740 E32.76070
G1 X21.089 Y39.747 E32.86207
G1 F1800.000 E31.86207
G92 E0
G1 X26.721 Y46.721 F7800.000
G1 F1800.000 E1.00000
G1 X49.279 Y46.721 F378.000 E2.56731
G1 X49.279 Y49.279 E2.74498
G1 X47.279 Y49.279 E2.88395
G1 X47.279 Y52.279 E3.09239
G1 X45.279 Y52.279 E3.23136
G1 X45.279 Y55.279 E3.43980
G1 X43.279 Y55.279 E3.57877
G1 X43.279 Y58.279 E3.78721
G1 X41.279 Y58.279 E3.92618
G1 X41.279 Y61.279 E4.13462
G1 X39.279 Y61.279 E4.27359
G1 X39.279 Y64.279 E4.48203
G1 X37.279 Y64.279 E4.62100
G1 X37.279 Y67.279 E4.82944
G1 X35.279 Y67.279 E4.96841
G1 X35.279 Y70.279 E5.17685
G1 X33.279 Y70.279 E5.31582
G1 X33.279 Y73.279 E5.52426
G1 X26.721 Y73.279 E5.97986
G1 X26.721 Y46.805 E7.81930
G1 X27.204 Y47.000 F7800.000
G1 X31.646 Y44.158
G1 X31.482 Y43.902 F378.000 E7.84045
G1 X31.482 Y43.598 E7.86160
G1 X31.646 Y43.342 E7.88276
G1 X31.923 Y43.215 E7.90391
G1 X32.224 Y43.259 E7.92506
G1 X32.436 Y43.442 E7.94449
G1 X32.615 Y43.039 E7.97513
G1 X32.858 Y42.820 E7.99781
G1 X33.168 Y42.720 E8.02048
G1 X33.492 Y42.754 E8.04315
G1 X33.983 Y43.037 E8.08248
G1 X33.983 Y42.809 E8.09829
G1 X34.095 Y42.444 E8.12484
G1 X34.310 Y42.128 E8.15138
G1 X34.609 Y41.890 E8.17793
G1 X34.965 Y41.750 E8.20447
G1 X35.346 Y41.722 E8.23102
G1 X35.718 Y41.807 E8.25757
G1 X36.049 Y41.998 E8.28411
G1 X36.444 Y42.424 E8.32445
G1 X36.511 Y42.393 E8.32958
G1 X36.470 Y42.000 E8.35704
G1 X36.520 Y41.526 E8.39016
G1 X36.667 Y41.073 E8.42328
G1 X36.905 Y40.660 E8.45640
G1 X37.224 Y40.306 E8.48952
G1 X37.610 Y40.025 E8.52264
G1 X38.045 Y39.832 E8.55576
G1 X38.512 Y39.732 E8.58888
G1 X38.988 Y39.732 E8.62199
G1 X39.455 Y39.832 E8.65512
G1 X39.890 Y40.025 E8.68824
G1 X40.276 Y40.306 E8.72136
G1 X40.713 Y40.791 E8.76678
G1 X40.778 Y40.764 E8.77167
G1 X40.721 Y40.000 E8.82489
G1 X40.768 Y39.362 E8.86933
G1 X40.911 Y38.739 E8.91377
G1 X41.144 Y38.143 E8.95821
G1 X41.464 Y37.589 E9.00265
G1 X41.863 Y37.089 E9.04709
G1 X42.332 Y36.654 E9.09153
G1 X42.860 Y36.294 E9.13597
G1 X43.437 Y36.016 E9.18041
G1 X44.048 Y35.828 E9.22485
G1 X44.651 Y35.737 E9.26722
G1 X45.320 Y35.733 E9.31371
G1 X45.952 Y35.828 E9.35815
G1 X46.563 Y36.016 E9.40259
G1 X47.140 Y36.294 E9.44703
G1 X47.668 Y36.654 E9.49147
G1 X48.137 Y37.089 E9.53591
G1 X48.536 Y37.589 E9.58035
G1 X48.841 Y38.117 E9.62271
G1 X49.089 Y38.739 E9.66920
G1 X49.232 Y39.362 E9.71365
G1 X49.279 Y40.000 E9.75808
G1 X49.232 Y40.638 E9.80253
G1 X49.096 Y41.232 E9.84489
G1 X48.856 Y41.857 E9.89138
G1 X48.536 Y42.411 E9.93582
G1 X48.137 Y42.911 E9.98026
G1 X47.668 Y43.346 E10.02470
G1 X47.140 Y43.706 E10.06914
G1 X46.563 Y43.983 E10.11358
G1 X45.952 Y44.172 E10.15802
G1 X45.320 Y44.267 E10.20246
G1 X44.680 Y44.267 E10.24690
G1 X44.048 Y44.172 E10.29134
G1 X43.437 Y43.984 E10.33578
G1 X42.860 Y43.706 E10.38022
G1 X42.332 Y43.346 E10.42466
G1 X41.863 Y42.911 E10.46910
G1 X41.464 Y42.411 E10.51354
G1 X41.123 Y41.819 E10.56097
G1 X41.047 Y41.836 E10.56634
G1 X40.980 Y42.474 E10.61094
G1 X40.833 Y42.927 E10.64406
G1 X40.595 Y43.340 E10.67719
G1 X40.276 Y43.694 E10.71031
G1 X39.890 Y43.975 E10.74342
G1 X39.455 Y44.168 E10.77654
G1 X38.988 Y44.268 E10.80966
G1 X38.512 Y44.268 E10.84279
G1 X38.045 Y44.168 E10.87591
G1 X37.610 Y43.975 E10.90902
G1 X37.224 Y43.694 E10.94215
G1 X36.905 Y43.340 E10.97527
G1 X36.619 Y42.844 E11.01504
G1 X36.553 Y42.857 E11.01970
G1 X36.475 Y43.378 E11.05630
G1 X36.309 Y43.722 E11.08284
G1 X36.049 Y44.002 E11.10939
G1 X35.718 Y44.193 E11.13594
G1 X35.346 Y44.278 E11.16248
G1 X34.965 Y44.250 E11.18903
G1 X34.609 Y44.110 E11.21557
G1 X34.310 Y43.872 E11.24212
G1 X34.040 Y43.475 E11.27547
G1 X33.967 Y43.819 E11.29991
G1 X33.775 Y44.083 E11.32258
G1 X33.493 Y44.246 E11.34526
G1 X33.168 Y44.280 E11.36793
G1 X32.858 Y44.180 E11.39060
G1 X32.507 Y43.864 E11.42340
G1 X32.455 Y44.042 E11.43631
G1 X32.224 Y44.241 E11.45746
G1 X31.923 Y44.285 E11.47861
G1 X31.722 Y44.193 E11.49396
G1 X31.732 Y43.866 F7800.000
G1 F1800.000 E10.49396
G92 E0
G1 X54.721 Y29.279 F7800.000
G1 F1800.000 E1.00000
G1 X54.721 Y26.721 F378.000 E1.17767
G1 X73.279 Y26.721 E2.46705
G1 X73.279 Y29.279 E2.64473
G1 X54.805 Y29.279 E3.92830
G1 X55.000 Y28.796 F7800.000
G1 X54.721 Y32.721
G1 X73.279 Y32.721 F378.000 E5.21769
G1 X73.279 Y35.279 E5.39536
G1 X54.721 Y35.279 E6.68474
G1 X54.721 Y32.805 E6.85661
G1 X55.204 Y33.000 F7800.000
G1 F1800.000 E5.85661
G92 E0
G1 X54.721 Y36.721 F7800.000
G1 F1800.000 E1.00000
G1 X73.279 Y36.721 F378.000 E2.28938
G1 X73.279 Y39.279 E2.46705
G1 X54.721 Y39.279 E3.75644
G1 X54.721 Y36.805 E3.92830
G1 X55.204 Y37.000 F7800.000
G1 F1800.000 E2.92830
G92 E0
G1 X54.721 Y39.721 F7800.000
G1 F1800.000 E1.00000
G1 X73.279 Y39.721 F378.000 E2.28938
G1 X73.279 Y47.029 E2.79709
G1 X54.721 Y47.029 E4.08648
G1 X54.721 Y39.805 E4.58838
G1 X55.204 Y40.000 F7800.000
G1 F1800.000 E3.58838
G92 E0
G1 X52.971 Y54.721 F7800.000
G1 F1800.000 E1.00000
G1 X60.279 Y54.721 F378.000 E1.50771
G1 X60.279 Y73.279 E2.79709
G1 X52.971 Y73.279 E3.30481
G1 X52.971 Y54.805 E4.58838
G1 X53.454 Y55.000 F7800.000
G1 X60.721 Y54.721
G1 X63.279 Y54.721 F378.000 E4.76605
G1 X63.279 Y73.279 E6.05544
G1 X60.721 Y73.279 E6.23311
G1 X60.721 Y54.805 E7.51669
G1 X61.204 Y55.000 F7800.000
G1 X64.721 Y54.721
G1 X67.279 Y54.721 F378.000 E7.69436
G1 X67.279 Y73.279 E8.98374
G1 X64.721 Y73.279 E9.16141
G1 X64.721 Y54.805 E10.44499
G1 X65.204 Y55.000 F7800.000
G1 X70.721 Y54.721
G1 X73.279 Y54.721 F378.000 E10.62266
G1 X73.279 Y73.279 E11.91204
G1 X70.721 Y73.279 E12.08972
G1 X70.721 Y54.805 E13.37329
G1 X71.204 Y55.000 F7800.000
G1 X69.607 Y53.607
G1 X69.607 Y73.607 F540.000 E14.76293
G1 X68.393 Y73.607 E14.84733
G1 X68.393 Y53.607 E16.23697
G1 X51.857 Y53.607 E17.38588
G1 X51.857 Y73.607 E18.77552
G1 X34.393 Y73.607 E19.98900
G1 X34.393 Y71.393 E20.14287
G1 X36.393 Y71.393 E20.28184
G1 X36.393 Y68.393 E20.49028
G1 X38.393 Y68.393 E20.62925
G1 X38.393 Y65.393 E20.83769
G1 X40.393 Y65.393 E20.97666
G1 X40.393 Y62.393 E21.18510
G1 X42.393 Y62.393 E21.32407
G1 X42.393 Y59.393 E21.53251
G1 X44.393 Y59.393 E21.67148
G1 X44.393 Y56.393 E21.87992
G1 X46.393 Y56.393 E22.01889
G1 X46.393 Y53.393 E22.22733
G1 X48.393 Y53.393 E22.36630
G1 X48.393 Y50.393 E22.57474
G1 X50.393 Y50.393 E22.71371
G1 X50.393 Y45.607 E23.04621
G1 X46.208 Y45.607 E23.33697
G1 X46.158 Y45.275 E23.36035
G1 X46.972 Y45.024 E23.41952
G1 X47.698 Y44.674 E23.47557
G1 X48.365 Y44.219 E23.53162
G1 X48.956 Y43.671 E23.58764
G1 X49.459 Y43.040 E23.64368
G1 X49.862 Y42.342 E23.69972
G1 X49.904 Y42.236 E23.70760
G1 X50.157 Y41.591 E23.75577
G1 X50.336 Y40.804 E23.81181
G1 X50.397 Y40.000 E23.86786
G1 X50.336 Y39.196 E23.92389
G1 X50.157 Y38.409 E23.97995
G1 X49.862 Y37.659 E24.03598
G1 X49.459 Y36.960 E24.09202
G1 X48.956 Y36.329 E24.14806
G1 X48.365 Y35.781 E24.20411
G1 X47.698 Y35.326 E24.26015
G1 X46.972 Y34.976 E24.31620
G1 X46.158 Y34.725 E24.37537
G1 X46.208 Y34.393 E24.39875
G1 X47.078 Y34.393 E24.45917
G1 X47.078 Y32.393 E24.59814
G1 X50.033 Y32.393 E24.80346
G1 X50.033 Y30.393 E24.94242
G1 X52.003 Y30.393 E25.07930
G1 X52.003 Y28.393 E25.21827
G1 X53.607 Y28.393 E25.32976
G1 X53.607 Y30.393 E25.46872
G1 X73.607 Y30.393 E26.85836
G1 X73.607 Y31.607 E26.94275
G1 X53.607 Y31.607 E28.33240
G1 X53.607 Y48.143 E29.48131
G1 X73.607 Y48.143 E30.87095
G1 X73.607 Y53.607 E31.25064
G1 X69.691 Y53.607 E31.52276
G1 F1800.000 E30.52276
G92 E0
G1 X43.792 Y45.607 F7800.000
G1 F1800.000 E1.00000
G1 X39.596 Y45.607 F540.000 E1.29155
G1 X39.541 Y45.350 E1.30986
G1 X40.451 Y44.945 E1.37904
G1 X41.025 Y44.527 E1.42840
G1 X41.429 Y44.079 E1.47031
G1 X42.302 Y44.674 E1.54371
G1 X43.029 Y45.024 E1.59976
G1 X43.842 Y45.275 E1.65891
G1 X43.804 Y45.525 E1.67649
G1 X37.959 Y45.350 F7800.000
G1 X37.904 Y45.607 F540.000 E1.69480
G1 X35.895 Y45.607 E1.83436
G1 X35.842 Y45.408 E1.84869
G1 X36.870 Y44.814 E1.93119
G1 X37.050 Y44.945 E1.94661
G1 X37.883 Y45.316 E2.00994
G1 X31.585 Y45.355 F7800.000
G1 X31.530 Y45.607 F540.000 E2.02787
G1 X29.348 Y45.607 E2.17950
G1 X29.348 Y44.393 E2.26389
G1 X30.472 Y44.393 E2.34203
G1 X30.886 Y45.036 E2.39516
G1 X31.509 Y45.320 E2.44275
G1 X31.840 Y44.859 F7800.000
G1 X32.466 Y44.770 F540.000 E2.48663
G1 X32.576 Y44.674 E2.49679
G1 X33.108 Y44.847 E2.53568
G1 X33.668 Y44.788 E2.57481
G1 X34.189 Y44.487 E2.61657
G1 X34.327 Y44.598 E2.62887
G1 X34.839 Y44.799 E2.66709
G1 X35.388 Y44.840 E2.70530
G1 X35.924 Y44.718 E2.74352
G1 X36.400 Y44.443 E2.78173
G1 X36.765 Y44.049 E2.81899
G1 X37.330 Y44.460 E2.86750
G1 X37.872 Y44.701 E2.90874
G1 X38.453 Y44.825 E2.95001
G1 X39.047 Y44.825 E2.99128
G1 X39.628 Y44.701 E3.03253
G1 X40.170 Y44.460 E3.07380
G1 X40.651 Y44.111 E3.11503
G1 X41.048 Y43.669 E3.15629
G1 X41.332 Y43.178 E3.19575
G1 X41.984 Y43.782 E3.25754
G1 X42.581 Y44.190 E3.30778
G1 X43.233 Y44.504 E3.35802
G1 X43.923 Y44.717 E3.40826
G1 X44.638 Y44.824 E3.45850
G1 X45.362 Y44.824 E3.50875
G1 X46.077 Y44.717 E3.55899
G1 X46.768 Y44.504 E3.60922
G1 X47.419 Y44.190 E3.65947
G1 X48.017 Y43.782 E3.70971
G1 X48.546 Y43.291 E3.75994
G1 X48.997 Y42.725 E3.81018
G1 X49.359 Y42.099 E3.86042
G1 X49.623 Y41.426 E3.91067
G1 X49.784 Y40.721 E3.96091
G1 X49.838 Y40.000 E4.01115
G1 X49.784 Y39.279 E4.06139
G1 X49.623 Y38.574 E4.11164
G1 X49.359 Y37.901 E4.16187
G1 X48.953 Y37.219 E4.21703
G1 X48.547 Y36.709 E4.26230
G1 X48.016 Y36.218 E4.31255
G1 X47.419 Y35.810 E4.36279
G1 X46.768 Y35.496 E4.41303
G1 X46.077 Y35.283 E4.46327
G1 X45.362 Y35.176 E4.51351
G1 X44.638 Y35.176 E4.56375
G1 X43.923 Y35.283 E4.61399
G1 X43.566 Y35.394 E4.64001
G1 X43.566 Y33.836 E4.74827
G1 X46.521 Y33.836 E4.95359
G1 X46.521 Y31.836 E5.09256
G1 X49.476 Y31.836 E5.29788
G1 X49.476 Y29.836 E5.43684
G1 X51.446 Y29.836 E5.57372
G1 X51.446 Y27.836 E5.71268
G1 X53.416 Y27.836 E5.84956
G1 X53.416 Y25.836 E5.98853
G1 X54.164 Y25.836 E6.04055
G1 X54.164 Y29.836 E6.31848
G1 X74.164 Y29.836 E7.70812
G1 X74.164 Y32.164 E7.86993
G1 X54.164 Y32.164 E9.25957
G1 X54.164 Y47.586 E10.33107
G1 X74.164 Y47.586 E11.72071
G1 X74.164 Y54.164 E12.17782
G1 X70.164 Y54.164 E12.45574
G1 X70.164 Y74.164 E13.84538
G1 X67.836 Y74.164 E14.00719
G1 X67.836 Y54.164 E15.39683
G1 X52.414 Y54.164 E16.46833
G1 X52.414 Y74.164 E17.85797
G1 X33.836 Y74.164 E19.14886
G1 X33.836 Y70.836 E19.38015
G1 X35.836 Y70.836 E19.51912
G1 X35.836 Y67.836 E19.72756
G1 X37.836 Y67.836 E19.86653
G1 X37.836 Y64.836 E20.07497
G1 X39.836 Y64.836 E20.21394
G1 X39.836 Y61.836 E20.42238
G1 X41.836 Y61.836 E20.56135
G1 X41.836 Y58.836 E20.76979
G1 X43.836 Y58.836 E20.90876
G1 X43.836 Y55.836 E21.11720
G1 X45.836 Y55.836 E21.25617
G1 X45.836 Y52.836 E21.46461
G1 X47.836 Y52.836 E21.60358
G1 X47.836 Y49.836 E21.81202
G1 X49.836 Y49.836 E21.95099
G1 X49.836 Y46.164 E22.20607
G1 X28.791 Y46.164 E23.66832
G1 X28.791 Y43.836 E23.83013
G1 X30.925 Y43.836 E23.97840
G1 X30.925 Y44.066 E23.99439
G1 X31.266 Y44.597 E24.03827
G1 X31.764 Y44.825 E24.07635
G1 F1800.000 E23.07635
G92 E0
G1 X40.611 Y37.563 F7800.000
G1 F1800.000 E1.00000
G1 X40.611 Y35.836 F540.000 E1.12004
G1 X42.395 Y35.836 E1.24403
G1 X41.454 Y36.709 E1.33328
G1 X40.737 Y37.608 E1.41311
G1 X40.689 Y37.591 E1.41662
G1 X40.667 Y37.836 F7800.000
G1 X40.377 Y38.574 F540.000 E1.47174
G1 X40.158 Y39.535 E1.54021
G1 X39.628 Y39.299 E1.58050
G1 X39.047 Y39.175 E1.62178
G1 X38.453 Y39.175 E1.66301
G1 X37.656 Y39.345 E1.71968
G1 X37.656 Y37.836 E1.82454
G1 X40.583 Y37.836 E2.02796
G1 X36.898 Y39.836 F7800.000
G1 X36.452 Y40.331 F540.000 E2.07423
G1 X36.155 Y40.845 E2.11548
G1 X36.007 Y41.301 E2.14885
G1 X35.388 Y41.160 E2.19297
G1 X34.701 Y41.212 E2.24086
G1 X34.701 Y39.836 E2.33646
G1 X36.814 Y39.836 E2.48333
G1 X33.119 Y41.836 F7800.000
G1 X32.172 Y42.688 F540.000 E2.57185
G1 X31.746 Y42.627 E2.60178
G1 X31.746 Y41.836 E2.65675
G1 X33.035 Y41.836 E2.74636
G1 X34.144 Y41.279 F7800.000
G1 X34.144 Y39.279 F378.000 E2.88532
G1 X37.099 Y39.279 E3.09064
G1 X37.099 Y37.279 E3.22960
G1 X40.054 Y37.279 E3.43492
G1 X40.054 Y35.279 E3.57389
G1 X43.009 Y35.279 E3.77921
G1 X43.009 Y33.279 E3.91817
G1 X45.964 Y33.279 E4.12349
G1 X45.964 Y31.279 E4.26246
G1 X48.919 Y31.279 E4.46777
G1 X48.919 Y29.279 E4.60674
G1 X50.889 Y29.279 E4.74362
G1 X50.889 Y27.279 E4.88258
G1 X52.859 Y27.279 E5.01946
G1 X52.859 Y25.279 E5.15843
G1 X74.721 Y25.279 E6.67751
G1 X74.721 Y74.721 E10.11290
G1 X25.279 Y74.721 E13.54830
G1 X25.279 Y45.279 E15.59405
G1 X28.234 Y45.279 E15.79937
G1 X28.234 Y43.279 E15.93833
G1 X31.189 Y43.279 E16.14365
G1 X31.189 Y41.279 E16.28262
G1 X34.060 Y41.279 E16.48213
G1 X34.701 Y41.279 F7800.000
G1 F1800.000 E15.48213
G92 E0
G1 X55.335 Y70.750 F7800.000
G1 F1800.000 E1.00000
G1 X55.387 Y68.427 F540.000 E1.16145
G1 X55.295 Y68.350 E1.16980
G1 X55.388 Y68.132 E1.18629
G1 X55.290 Y68.050 E1.19516
G1 X55.389 Y67.837 E1.21150
G1 X55.285 Y67.750 E1.22090
G1 X55.390 Y67.541 E1.23712
G1 X55.280 Y67.450 E1.24705
G1 X55.391 Y67.246 E1.26315
G1 X55.275 Y67.150 E1.27360
G1 X55.391 Y66.951 E1.28961
G1 X55.270 Y66.850 E1.30059
G1 X55.392 Y66.656 E1.31652
G1 X55.265 Y66.550 E1.32803
G1 X55.393 Y66.361 E1.34390
G1 X55.260 Y66.250 E1.35593
G1 X55.394 Y66.066 E1.37175
