(Generated by PartKam Version 0.05)

G20 G90 G40

(pocket 1)
G0 Z0.5
T0 M6
G17
M3
G0 X3.6937 Y1.7014
G1 Z-0.025 F30
G1 X1.6437 Y1.7014 F60
G1 X1.6437 Y1.6514
G1 X3.6937 Y1.6514
G1 X3.6937 Y1.7014
G1 X3.7937 Y1.8014 F60
G1 X1.5437 Y1.8014 F60
G1 X1.5437 Y1.5514
G1 X3.7937 Y1.5514
G1 X3.7937 Y1.8014
G1 X3.8937 Y1.9014 F60
G1 X1.4437 Y1.9014 F60
G1 X1.4437 Y1.4514
G1 X3.8937 Y1.4514
G1 X3.8937 Y1.9014
G1 X3.9937 Y2.0014 F60
G1 X1.3437 Y2.0014 F60
G1 X1.3437 Y1.3514
G1 X3.9937 Y1.3514
G1 X3.9937 Y2.0014
G1 X4.0937 Y2.1014 F60
G1 X1.2437 Y2.1014 F60
G1 X1.2437 Y1.2514
G1 X4.0937 Y1.2514
G1 X4.0937 Y2.1014
G1 X4.1937 Y2.2014 F60
G1 X1.1437 Y2.2014 F60
G1 X1.1437 Y1.1514
G1 X4.1937 Y1.1514
G1 X4.1937 Y2.2014
G1 X4.2937 Y2.3014 F60
G1 X1.0437 Y2.3014 F60
G1 X1.0437 Y1.0514
G1 X4.2937 Y1.0514
G1 X4.2937 Y2.3014
G1 X4.3937 Y2.4014 F60
G1 X0.9437 Y2.4014 F60
G1 X0.9437 Y0.9514
G1 X4.3937 Y0.9514
G1 X4.3937 Y2.4014
G1 X4.4937 Y2.5014 F60
G1 X0.8437 Y2.5014 F60
G1 X0.8437 Y0.8514
G1 X4.4937 Y0.8514
G1 X4.4937 Y2.5014
G1 X4.5937 Y2.6014 F60
G1 X0.7437 Y2.6014 F60
G1 X0.7437 Y0.7514
G1 X4.5937 Y0.7514
G1 X4.5937 Y2.6014
G1 X4.6937 Y2.7014 F60
G1 X0.6437 Y2.7014 F60
G1 X0.6437 Y0.6514
G1 X4.6937 Y0.6514
G1 X4.6937 Y2.7014
G1 X4.7937 Y2.7264 F60
G3 X4.788 Y2.7551 I-0.075 J0 F60
G3 X4.7717 Y2.7795 I-0.0693 J-0.0287
G3 X4.7474 Y2.7957 I-0.053 J-0.053
G3 X4.7187 Y2.8014 I-0.0287 J-0.0693
G1 X0.6187 Y2.8014
G3 X0.59 Y2.7957 I0 J-0.075
G3 X0.5657 Y2.7795 I0.0287 J-0.0693
G3 X0.5494 Y2.7551 I0.053 J-0.053
G3 X0.5437 Y2.7264 I0.0693 J-0.0287
G1 X0.5437 Y0.6264
G3 X0.5494 Y0.5977 I0.075 J0
G3 X0.5657 Y0.5734 I0.0693 J0.0287
G3 X0.59 Y0.5571 I0.053 J0.053
G3 X0.6187 Y0.5514 I0.0287 J0.0693
G1 X4.7187 Y0.5514
G3 X4.7474 Y0.5571 I0 J0.075
G3 X4.7717 Y0.5734 I-0.0287 J0.0693
G3 X4.788 Y0.5977 I-0.053 J0.053
G3 X4.7937 Y0.6264 I-0.0693 J0.0287
G1 X4.7937 Y2.7264
G0 Z0.5
G0 X3.6937 Y1.7014
G1 Z-0.05 F30
G1 X1.6437 Y1.7014 F60
G1 X1.6437 Y1.6514
G1 X3.6937 Y1.6514
G1 X3.6937 Y1.7014
G1 X3.7937 Y1.8014 F60
G1 X1.5437 Y1.8014 F60
G1 X1.5437 Y1.5514
G1 X3.7937 Y1.5514
G1 X3.7937 Y1.8014
G1 X3.8937 Y1.9014 F60
G1 X1.4437 Y1.9014 F60
G1 X1.4437 Y1.4514
G1 X3.8937 Y1.4514
G1 X3.8937 Y1.9014
G1 X3.9937 Y2.0014 F60
G1 X1.3437 Y2.0014 F60
G1 X1.3437 Y1.3514
G1 X3.9937 Y1.3514
G1 X3.9937 Y2.0014
G1 X4.0937 Y2.1014 F60
G1 X1.2437 Y2.1014 F60
G1 X1.2437 Y1.2514
G1 X4.0937 Y1.2514
G1 X4.0937 Y2.1014
G1 X4.1937 Y2.2014 F60
G1 X1.1437 Y2.2014 F60
G1 X1.1437 Y1.1514
G1 X4.1937 Y1.1514
G1 X4.1937 Y2.2014
G1 X4.2937 Y2.3014 F60
G1 X1.0437 Y2.3014 F60
G1 X1.0437 Y1.0514
G1 X4.2937 Y1.0514
G1 X4.2937 Y2.3014
G1 X4.3937 Y2.4014 F60
G1 X0.9437 Y2.4014 F60
G1 X0.9437 Y0.9514
G1 X4.3937 Y0.9514
G1 X4.3937 Y2.4014
G1 X4.4937 Y2.5014 F60
G1 X0.8437 Y2.5014 F60
G1 X0.8437 Y0.8514
G1 X4.4937 Y0.8514
G1 X4.4937 Y2.5014
G1 X4.5937 Y2.6014 F60
G1 X0.7437 Y2.6014 F60
G1 X0.7437 Y0.7514
G1 X4.5937 Y0.7514
G1 X4.5937 Y2.6014
G1 X4.6937 Y2.7014 F60
G1 X0.6437 Y2.7014 F60
G1 X0.6437 Y0.6514
G1 X4.6937 Y0.6514
G1 X4.6937 Y2.7014
G1 X4.7937 Y2.7264 F60
G3 X4.788 Y2.7551 I-0.075 J0 F60
G3 X4.7717 Y2.7795 I-0.0693 J-0.0287
G3 X4.7474 Y2.7957 I-0.053 J-0.053
G3 X4.7187 Y2.8014 I-0.0287 J-0.0693
G1 X0.6187 Y2.8014
G3 X0.59 Y2.7957 I0 J-0.075
G3 X0.5657 Y2.7795 I0.0287 J-0.0693
G3 X0.5494 Y2.7551 I0.053 J-0.053
G3 X0.5437 Y2.7264 I0.0693 J-0.0287
G1 X0.5437 Y0.6264
G3 X0.5494 Y0.5977 I0.075 J0
G3 X0.5657 Y0.5734 I0.0693 J0.0287
G3 X0.59 Y0.5571 I0.053 J0.053
G3 X0.6187 Y0.5514 I0.0287 J0.0693
G1 X4.7187 Y0.5514
G3 X4.7474 Y0.5571 I0 J0.075
G3 X4.7717 Y0.5734 I-0.0287 J0.0693
G3 X4.788 Y0.5977 I-0.053 J0.053
G3 X4.7937 Y0.6264 I-0.0693 J0.0287
G1 X4.7937 Y2.7264
G0 Z0.5
G0 X3.6937 Y1.7014
G1 Z-0.075 F30
G1 X1.6437 Y1.7014 F60
G1 X1.6437 Y1.6514
G1 X3.6937 Y1.6514
G1 X3.6937 Y1.7014
G1 X3.7937 Y1.8014 F60
G1 X1.5437 Y1.8014 F60
G1 X1.5437 Y1.5514
G1 X3.7937 Y1.5514
G1 X3.7937 Y1.8014
G1 X3.8937 Y1.9014 F60
G1 X1.4437 Y1.9014 F60
G1 X1.4437 Y1.4514
G1 X3.8937 Y1.4514
G1 X3.8937 Y1.9014
G1 X3.9937 Y2.0014 F60
G1 X1.3437 Y2.0014 F60
G1 X1.3437 Y1.3514
G1 X3.9937 Y1.3514
G1 X3.9937 Y2.0014
G1 X4.0937 Y2.1014 F60
G1 X1.2437 Y2.1014 F60
G1 X1.2437 Y1.2514
G1 X4.0937 Y1.2514
G1 X4.0937 Y2.1014
G1 X4.1937 Y2.2014 F60
G1 X1.1437 Y2.2014 F60
G1 X1.1437 Y1.1514
G1 X4.1937 Y1.1514
G1 X4.1937 Y2.2014
G1 X4.2937 Y2.3014 F60
G1 X1.0437 Y2.3014 F60
G1 X1.0437 Y1.0514
G1 X4.2937 Y1.0514
G1 X4.2937 Y2.3014
G1 X4.3937 Y2.4014 F60
G1 X0.9437 Y2.4014 F60
G1 X0.9437 Y0.9514
G1 X4.3937 Y0.9514
G1 X4.3937 Y2.4014
G1 X4.4937 Y2.5014 F60
G1 X0.8437 Y2.5014 F60
G1 X0.8437 Y0.8514
G1 X4.4937 Y0.8514
G1 X4.4937 Y2.5014
G1 X4.5937 Y2.6014 F60
G1 X0.7437 Y2.6014 F60
G1 X0.7437 Y0.7514
G1 X4.5937 Y0.7514
G1 X4.5937 Y2.6014
G1 X4.6937 Y2.7014 F60
G1 X0.6437 Y2.7014 F60
G1 X0.6437 Y0.6514
G1 X4.6937 Y0.6514
G1 X4.6937 Y2.7014
G1 X4.7937 Y2.7264 F60
G3 X4.788 Y2.7551 I-0.075 J0 F60
G3 X4.7717 Y2.7795 I-0.0693 J-0.0287
G3 X4.7474 Y2.7957 I-0.053 J-0.053
G3 X4.7187 Y2.8014 I-0.0287 J-0.0693
G1 X0.6187 Y2.8014
G3 X0.59 Y2.7957 I0 J-0.075
G3 X0.5657 Y2.7795 I0.0287 J-0.0693
G3 X0.5494 Y2.7551 I0.053 J-0.053
G3 X0.5437 Y2.7264 I0.0693 J-0.0287
G1 X0.5437 Y0.6264
G3 X0.5494 Y0.5977 I0.075 J0
G3 X0.5657 Y0.5734 I0.0693 J0.0287
G3 X0.59 Y0.5571 I0.053 J0.053
G3 X0.6187 Y0.5514 I0.0287 J0.0693
G1 X4.7187 Y0.5514
G3 X4.7474 Y0.5571 I0 J0.075
G3 X4.7717 Y0.5734 I-0.0287 J0.0693
G3 X4.788 Y0.5977 I-0.053 J0.053
G3 X4.7937 Y0.6264 I-0.0693 J0.0287
G1 X4.7937 Y2.7264
G0 Z0.5
G0 X3.6937 Y1.7014
G1 Z-0.1 F30
G1 X1.6437 Y1.7014 F60
G1 X1.6437 Y1.6514
G1 X3.6937 Y1.6514
G1 X3.6937 Y1.7014
G1 X3.7937 Y1.8014 F60
G1 X1.5437 Y1.8014 F60
G1 X1.5437 Y1.5514
G1 X3.7937 Y1.5514
G1 X3.7937 Y1.8014
G1 X3.8937 Y1.9014 F60
G1 X1.4437 Y1.9014 F60
G1 X1.4437 Y1.4514
G1 X3.8937 Y1.4514
G1 X3.8937 Y1.9014
G1 X3.9937 Y2.0014 F60
G1 X1.3437 Y2.0014 F60
G1 X1.3437 Y1.3514
G1 X3.9937 Y1.3514
G1 X3.9937 Y2.0014
G1 X4.0937 Y2.1014 F60
G1 X1.2437 Y2.1014 F60
G1 X1.2437 Y1.2514
G1 X4.0937 Y1.2514
G1 X4.0937 Y2.1014
G1 X4.1937 Y2.2014 F60
G1 X1.1437 Y2.2014 F60
G1 X1.1437 Y1.1514
G1 X4.1937 Y1.1514
G1 X4.1937 Y2.2014
G1 X4.2937 Y2.3014 F60
G1 X1.0437 Y2.3014 F60
G1 X1.0437 Y1.0514
G1 X4.2937 Y1.0514
G1 X4.2937 Y2.3014
G1 X4.3937 Y2.4014 F60
G1 X0.9437 Y2.4014 F60
G1 X0.9437 Y0.9514
G1 X4.3937 Y0.9514
G1 X4.3937 Y2.4014
G1 X4.4937 Y2.5014 F60
G1 X0.8437 Y2.5014 F60
G1 X0.8437 Y0.8514
G1 X4.4937 Y0.8514
G1 X4.4937 Y2.5014
G1 X4.5937 Y2.6014 F60
G1 X0.7437 Y2.6014 F60
G1 X0.7437 Y0.7514
G1 X4.5937 Y0.7514
G1 X4.5937 Y2.6014
G1 X4.6937 Y2.7014 F60
G1 X0.6437 Y2.7014 F60
G1 X0.6437 Y0.6514
G1 X4.6937 Y0.6514
G1 X4.6937 Y2.7014
G1 X4.7937 Y2.7264 F60
G3 X4.788 Y2.7551 I-0.075 J0 F60
G3 X4.7717 Y2.7795 I-0.0693 J-0.0287
G3 X4.7474 Y2.7957 I-0.053 J-0.053
G3 X4.7187 Y2.8014 I-0.0287 J-0.0693
G1 X0.6187 Y2.8014
G3 X0.59 Y2.7957 I0 J-0.075
G3 X0.5657 Y2.7795 I0.0287 J-0.0693
G3 X0.5494 Y2.7551 I0.053 J-0.053
G3 X0.5437 Y2.7264 I0.0693 J-0.0287
G1 X0.5437 Y0.6264
G3 X0.5494 Y0.5977 I0.075 J0
G3 X0.5657 Y0.5734 I0.0693 J0.0287
G3 X0.59 Y0.5571 I0.053 J0.053
G3 X0.6187 Y0.5514 I0.0287 J0.0693
G1 X4.7187 Y0.5514
G3 X4.7474 Y0.5571 I0 J0.075
G3 X4.7717 Y0.5734 I-0.0287 J0.0693
G3 X4.788 Y0.5977 I-0.053 J0.053
G3 X4.7937 Y0.6264 I-0.0693 J0.0287
G1 X4.7937 Y2.7264
G0 Z0.5
G0 X3.6937 Y1.7014
G1 Z-0.125 F30
G1 X1.6437 Y1.7014 F60
G1 X1.6437 Y1.6514
G1 X3.6937 Y1.6514
G1 X3.6937 Y1.7014
G1 X3.7937 Y1.8014 F60
G1 X1.5437 Y1.8014 F60
G1 X1.5437 Y1.5514
G1 X3.7937 Y1.5514
G1 X3.7937 Y1.8014
G1 X3.8937 Y1.9014 F60
G1 X1.4437 Y1.9014 F60
G1 X1.4437 Y1.4514
G1 X3.8937 Y1.4514
G1 X3.8937 Y1.9014
G1 X3.9937 Y2.0014 F60
G1 X1.3437 Y2.0014 F60
G1 X1.3437 Y1.3514
G1 X3.9937 Y1.3514
G1 X3.9937 Y2.0014
G1 X4.0937 Y2.1014 F60
G1 X1.2437 Y2.1014 F60
G1 X1.2437 Y1.2514
G1 X4.0937 Y1.2514
G1 X4.0937 Y2.1014
G1 X4.1937 Y2.2014 F60
G1 X1.1437 Y2.2014 F60
G1 X1.1437 Y1.1514
G1 X4.1937 Y1.1514
G1 X4.1937 Y2.2014
G1 X4.2937 Y2.3014 F60
G1 X1.0437 Y2.3014 F60
G1 X1.0437 Y1.0514
G1 X4.2937 Y1.0514
G1 X4.2937 Y2.3014
G1 X4.3937 Y2.4014 F60
G1 X0.9437 Y2.4014 F60
G1 X0.9437 Y0.9514
G1 X4.3937 Y0.9514
G1 X4.3937 Y2.4014
G1 X4.4937 Y2.5014 F60
G1 X0.8437 Y2.5014 F60
G1 X0.8437 Y0.8514
G1 X4.4937 Y0.8514
G1 X4.4937 Y2.5014
G1 X4.5937 Y2.6014 F60
G1 X0.7437 Y2.6014 F60
G1 X0.7437 Y0.7514
G1 X4.5937 Y0.7514
G1 X4.5937 Y2.6014
G1 X4.6937 Y2.7014 F60
G1 X0.6437 Y2.7014 F60
G1 X0.6437 Y0.6514
G1 X4.6937 Y0.6514
G1 X4.6937 Y2.7014
G1 X4.7937 Y2.7264 F60
G3 X4.788 Y2.7551 I-0.075 J0 F60
G3 X4.7717 Y2.7795 I-0.0693 J-0.0287
G3 X4.7474 Y2.7957 I-0.053 J-0.053
G3 X4.7187 Y2.8014 I-0.0287 J-0.0693
G1 X0.6187 Y2.8014
G3 X0.59 Y2.7957 I0 J-0.075
G3 X0.5657 Y2.7795 I0.0287 J-0.0693
G3 X0.5494 Y2.7551 I0.053 J-0.053
G3 X0.5437 Y2.7264 I0.0693 J-0.0287
G1 X0.5437 Y0.6264
G3 X0.5494 Y0.5977 I0.075 J0
G3 X0.5657 Y0.5734 I0.0693 J0.0287
G3 X0.59 Y0.5571 I0.053 J0.053
G3 X0.6187 Y0.5514 I0.0287 J0.0693
G1 X4.7187 Y0.5514
G3 X4.7474 Y0.5571 I0 J0.075
G3 X4.7717 Y0.5734 I-0.0287 J0.0693
G3 X4.788 Y0.5977 I-0.053 J0.053
G3 X4.7937 Y0.6264 I-0.0693 J0.0287
G1 X4.7937 Y2.7264
G0 Z0.5
G0 X3.6937 Y1.7014
G1 Z-0.15 F30
G1 X1.6437 Y1.7014 F60
G1 X1.6437 Y1.6514
G1 X3.6937 Y1.6514
G1 X3.6937 Y1.7014
G1 X3.7937 Y1.8014 F60
G1 X1.5437 Y1.8014 F60
G1 X1.5437 Y1.5514
G1 X3.7937 Y1.5514
G1 X3.7937 Y1.8014
G1 X3.8937 Y1.9014 F60
G1 X1.4437 Y1.9014 F60
G1 X1.4437 Y1.4514
G1 X3.8937 Y1.4514
G1 X3.8937 Y1.9014
G1 X3.9937 Y2.0014 F60
G1 X1.3437 Y2.0014 F60
G1 X1.3437 Y1.3514
G1 X3.9937 Y1.3514
G1 X3.9937 Y2.0014
G1 X4.0937 Y2.1014 F60
G1 X1.2437 Y2.1014 F60
G1 X1.2437 Y1.2514
G1 X4.0937 Y1.2514
G1 X4.0937 Y2.1014
G1 X4.1937 Y2.2014 F60
G1 X1.1437 Y2.2014 F60
G1 X1.1437 Y1.1514
G1 X4.1937 Y1.1514
G1 X4.1937 Y2.2014
G1 X4.2937 Y2.3014 F60
G1 X1.0437 Y2.3014 F60
G1 X1.0437 Y1.0514
G1 X4.2937 Y1.0514
G1 X4.2937 Y2.3014
G1 X4.3937 Y2.4014 F60
G1 X0.9437 Y2.4014 F60
G1 X0.9437 Y0.9514
G1 X4.3937 Y0.9514
G1 X4.3937 Y2.4014
G1 X4.4937 Y2.5014 F60
G1 X0.8437 Y2.5014 F60
G1 X0.8437 Y0.8514
G1 X4.4937 Y0.8514
G1 X4.4937 Y2.5014
G1 X4.5937 Y2.6014 F60
G1 X0.7437 Y2.6014 F60
G1 X0.7437 Y0.7514
G1 X4.5937 Y0.7514
G1 X4.5937 Y2.6014
G1 X4.6937 Y2.7014 F60
G1 X0.6437 Y2.7014 F60
G1 X0.6437 Y0.6514
G1 X4.6937 Y0.6514
G1 X4.6937 Y2.7014
G1 X4.7937 Y2.7264 F60
G3 X4.788 Y2.7551 I-0.075 J0 F60
G3 X4.7717 Y2.7795 I-0.0693 J-0.0287
G3 X4.7474 Y2.7957 I-0.053 J-0.053
G3 X4.7187 Y2.8014 I-0.0287 J-0.0693
G1 X0.6187 Y2.8014
G3 X0.59 Y2.7957 I0 J-0.075
G3 X0.5657 Y2.7795 I0.0287 J-0.0693
G3 X0.5494 Y2.7551 I0.053 J-0.053
G3 X0.5437 Y2.7264 I0.0693 J-0.0287
G1 X0.5437 Y0.6264
G3 X0.5494 Y0.5977 I0.075 J0
G3 X0.5657 Y0.5734 I0.0693 J0.0287
G3 X0.59 Y0.5571 I0.053 J0.053
G3 X0.6187 Y0.5514 I0.0287 J0.0693
G1 X4.7187 Y0.5514
G3 X4.7474 Y0.5571 I0 J0.075
G3 X4.7717 Y0.5734 I-0.0287 J0.0693
G3 X4.788 Y0.5977 I-0.053 J0.053
G3 X4.7937 Y0.6264 I-0.0693 J0.0287
G1 X4.7937 Y2.7264
G0 Z0.5
G0 X3.6937 Y1.7014
G1 Z-0.175 F30
G1 X1.6437 Y1.7014 F60
G1 X1.6437 Y1.6514
G1 X3.6937 Y1.6514
G1 X3.6937 Y1.7014
G1 X3.7937 Y1.8014 F60
G1 X1.5437 Y1.8014 F60
G1 X1.5437 Y1.5514
G1 X3.7937 Y1.5514
G1 X3.7937 Y1.8014
G1 X3.8937 Y1.9014 F60
G1 X1.4437 Y1.9014 F60
G1 X1.4437 Y1.4514
G1 X3.8937 Y1.4514
G1 X3.8937 Y1.9014
G1 X3.9937 Y2.0014 F60
G1 X1.3437 Y2.0014 F60
G1 X1.3437 Y1.3514
G1 X3.9937 Y1.3514
G1 X3.9937 Y2.0014
G1 X4.0937 Y2.1014 F60
G1 X1.2437 Y2.1014 F60
G1 X1.2437 Y1.2514
G1 X4.0937 Y1.2514
G1 X4.0937 Y2.1014
G1 X4.1937 Y2.2014 F60
G1 X1.1437 Y2.2014 F60
G1 X1.1437 Y1.1514
G1 X4.1937 Y1.1514
G1 X4.1937 Y2.2014
G1 X4.2937 Y2.3014 F60
G1 X1.0437 Y2.3014 F60
G1 X1.0437 Y1.0514
G1 X4.2937 Y1.0514
G1 X4.2937 Y2.3014
G1 X4.3937 Y2.4014 F60
G1 X0.9437 Y2.4014 F60
G1 X0.9437 Y0.9514
G1 X4.3937 Y0.9514
G1 X4.3937 Y2.4014
G1 X4.4937 Y2.5014 F60
G1 X0.8437 Y2.5014 F60
G1 X0.8437 Y0.8514
G1 X4.4937 Y0.8514
G1 X4.4937 Y2.5014
G1 X4.5937 Y2.6014 F60
G1 X0.7437 Y2.6014 F60
G1 X0.7437 Y0.7514
G1 X4.5937 Y0.7514
G1 X4.5937 Y2.6014
G1 X4.6937 Y2.7014 F60
G1 X0.6437 Y2.7014 F60
G1 X0.6437 Y0.6514
G1 X4.6937 Y0.6514
G1 X4.6937 Y2.7014
G1 X4.7937 Y2.7264 F60
G3 X4.788 Y2.7551 I-0.075 J0 F60
G3 X4.7717 Y2.7795 I-0.0693 J-0.0287
G3 X4.7474 Y2.7957 I-0.053 J-0.053
G3 X4.7187 Y2.8014 I-0.0287 J-0.0693
G1 X0.6187 Y2.8014
G3 X0.59 Y2.7957 I0 J-0.075
G3 X0.5657 Y2.7795 I0.0287 J-0.0693
G3 X0.5494 Y2.7551 I0.053 J-0.053
G3 X0.5437 Y2.7264 I0.0693 J-0.0287
G1 X0.5437 Y0.6264
G3 X0.5494 Y0.5977 I0.075 J0
G3 X0.5657 Y0.5734 I0.0693 J0.0287
G3 X0.59 Y0.5571 I0.053 J0.053
G3 X0.6187 Y0.5514 I0.0287 J0.0693
G1 X4.7187 Y0.5514
G3 X4.7474 Y0.5571 I0 J0.075
G3 X4.7717 Y0.5734 I-0.0287 J0.0693
G3 X4.788 Y0.5977 I-0.053 J0.053
G3 X4.7937 Y0.6264 I-0.0693 J0.0287
G1 X4.7937 Y2.7264
G0 Z0.5
G0 X3.6937 Y1.7014
G1 Z-0.2 F30
G1 X1.6437 Y1.7014 F60
G1 X1.6437 Y1.6514
G1 X3.6937 Y1.6514
G1 X3.6937 Y1.7014
G1 X3.7937 Y1.8014 F60
G1 X1.5437 Y1.8014 F60
G1 X1.5437 Y1.5514
G1 X3.7937 Y1.5514
G1 X3.7937 Y1.8014
G1 X3.8937 Y1.9014 F60
G1 X1.4437 Y1.9014 F60
G1 X1.4437 Y1.4514
G1 X3.8937 Y1.4514
G1 X3.8937 Y1.9014
G1 X3.9937 Y2.0014 F60
G1 X1.3437 Y2.0014 F60
G1 X1.3437 Y1.3514
G1 X3.9937 Y1.3514
G1 X3.9937 Y2.0014
G1 X4.0937 Y2.1014 F60
G1 X1.2437 Y2.1014 F60
G1 X1.2437 Y1.2514
G1 X4.0937 Y1.2514
G1 X4.0937 Y2.1014
G1 X4.1937 Y2.2014 F60
G1 X1.1437 Y2.2014 F60
G1 X1.1437 Y1.1514
G1 X4.1937 Y1.1514
G1 X4.1937 Y2.2014
G1 X4.2937 Y2.3014 F60
G1 X1.0437 Y2.3014 F60
G1 X1.0437 Y1.0514
G1 X4.2937 Y1.0514
G1 X4.2937 Y2.3014
G1 X4.3937 Y2.4014 F60
G1 X0.9437 Y2.4014 F60
G1 X0.9437 Y0.9514
G1 X4.3937 Y0.9514
G1 X4.3937 Y2.4014
G1 X4.4937 Y2.5014 F60
G1 X0.8437 Y2.5014 F60
G1 X0.8437 Y0.8514
G1 X4.4937 Y0.8514
G1 X4.4937 Y2.5014
G1 X4.5937 Y2.6014 F60
G1 X0.7437 Y2.6014 F60
G1 X0.7437 Y0.7514
G1 X4.5937 Y0.7514
G1 X4.5937 Y2.6014
G1 X4.6937 Y2.7014 F60
G1 X0.6437 Y2.7014 F60
G1 X0.6437 Y0.6514
G1 X4.6937 Y0.6514
G1 X4.6937 Y2.7014
G1 X4.7937 Y2.7264 F60
G3 X4.788 Y2.7551 I-0.075 J0 F60
G3 X4.7717 Y2.7795 I-0.0693 J-0.0287
G3 X4.7474 Y2.7957 I-0.053 J-0.053
G3 X4.7187 Y2.8014 I-0.0287 J-0.0693
G1 X0.6187 Y2.8014
G3 X0.59 Y2.7957 I0 J-0.075
G3 X0.5657 Y2.7795 I0.0287 J-0.0693
G3 X0.5494 Y2.7551 I0.053 J-0.053
G3 X0.5437 Y2.7264 I0.0693 J-0.0287
G1 X0.5437 Y0.6264
G3 X0.5494 Y0.5977 I0.075 J0
G3 X0.5657 Y0.5734 I0.0693 J0.0287
G3 X0.59 Y0.5571 I0.053 J0.053
G3 X0.6187 Y0.5514 I0.0287 J0.0693
G1 X4.7187 Y0.5514
G3 X4.7474 Y0.5571 I0 J0.075
G3 X4.7717 Y0.5734 I-0.0287 J0.0693
G3 X4.788 Y0.5977 I-0.053 J0.053
G3 X4.7937 Y0.6264 I-0.0693 J0.0287
G1 X4.7937 Y2.7264
G0 Z0.5
G0 X3.6937 Y1.7014
G1 Z-0.225 F30
G1 X1.6437 Y1.7014 F60
G1 X1.6437 Y1.6514
G1 X3.6937 Y1.6514
G1 X3.6937 Y1.7014
G1 X3.7937 Y1.8014 F60
G1 X1.5437 Y1.8014 F60
G1 X1.5437 Y1.5514
G1 X3.7937 Y1.5514
G1 X3.7937 Y1.8014
G1 X3.8937 Y1.9014 F60
G1 X1.4437 Y1.9014 F60
G1 X1.4437 Y1.4514
G1 X3.8937 Y1.4514
G1 X3.8937 Y1.9014
G1 X3.9937 Y2.0014 F60
G1 X1.3437 Y2.0014 F60
G1 X1.3437 Y1.3514
G1 X3.9937 Y1.3514
G1 X3.9937 Y2.0014
G1 X4.0937 Y2.1014 F60
G1 X1.2437 Y2.1014 F60
G1 X1.2437 Y1.2514
G1 X4.0937 Y1.2514
G1 X4.0937 Y2.1014
G1 X4.1937 Y2.2014 F60
G1 X1.1437 Y2.2014 F60
G1 X1.1437 Y1.1514
G1 X4.1937 Y1.1514
G1 X4.1937 Y2.2014
G1 X4.2937 Y2.3014 F60
G1 X1.0437 Y2.3014 F60
G1 X1.0437 Y1.0514
G1 X4.2937 Y1.0514
G1 X4.2937 Y2.3014
G1 X4.3937 Y2.4014 F60
G1 X0.9437 Y2.4014 F60
G1 X0.9437 Y0.9514
G1 X4.3937 Y0.9514
G1 X4.3937 Y2.4014
G1 X4.4937 Y2.5014 F60
G1 X0.8437 Y2.5014 F60
G1 X0.8437 Y0.8514
G1 X4.4937 Y0.8514
G1 X4.4937 Y2.5014
G1 X4.5937 Y2.6014 F60
G1 X0.7437 Y2.6014 F60
G1 X0.7437 Y0.7514
G1 X4.5937 Y0.7514
G1 X4.5937 Y2.6014
G1 X4.6937 Y2.7014 F60
G1 X0.6437 Y2.7014 F60
G1 X0.6437 Y0.6514
G1 X4.6937 Y0.6514
G1 X4.6937 Y2.7014
G1 X4.7937 Y2.7264 F60
G3 X4.788 Y2.7551 I-0.075 J0 F60
G3 X4.7717 Y2.7795 I-0.0693 J-0.0287
G3 X4.7474 Y2.7957 I-0.053 J-0.053
G3 X4.7187 Y2.8014 I-0.0287 J-0.0693
G1 X0.6187 Y2.8014
G3 X0.59 Y2.7957 I0 J-0.075
G3 X0.5657 Y2.7795 I0.0287 J-0.0693
G3 X0.5494 Y2.7551 I0.053 J-0.053
G3 X0.5437 Y2.7264 I0.0693 J-0.0287
G1 X0.5437 Y0.6264
G3 X0.5494 Y0.5977 I0.075 J0
G3 X0.5657 Y0.5734 I0.0693 J0.0287
G3 X0.59 Y0.5571 I0.053 J0.053
G3 X0.6187 Y0.5514 I0.0287 J0.0693
G1 X4.7187 Y0.5514
G3 X4.7474 Y0.5571 I0 J0.075
G3 X4.7717 Y0.5734 I-0.0287 J0.0693
G3 X4.788 Y0.5977 I-0.053 J0.053
G3 X4.7937 Y0.6264 I-0.0693 J0.0287
G1 X4.7937 Y2.7264
G0 Z0.5
G0 X3.6937 Y1.7014
G1 Z-0.25 F30
G1 X1.6437 Y1.7014 F60
G1 X1.6437 Y1.6514
G1 X3.6937 Y1.6514
G1 X3.6937 Y1.7014
G1 X3.7937 Y1.8014 F60
G1 X1.5437 Y1.8014 F60
G1 X1.5437 Y1.5514
G1 X3.7937 Y1.5514
G1 X3.7937 Y1.8014
G1 X3.8937 Y1.9014 F60
G1 X1.4437 Y1.9014 F60
G1 X1.4437 Y1.4514
G1 X3.8937 Y1.4514
G1 X3.8937 Y1.9014
G1 X3.9937 Y2.0014 F60
G1 X1.3437 Y2.0014 F60
G1 X1.3437 Y1.3514
G1 X3.9937 Y1.3514
G1 X3.9937 Y2.0014
G1 X4.0937 Y2.1014 F60
G1 X1.2437 Y2.1014 F60
G1 X1.2437 Y1.2514
G1 X4.0937 Y1.2514
G1 X4.0937 Y2.1014
G1 X4.1937 Y2.2014 F60
G1 X1.1437 Y2.2014 F60
G1 X1.1437 Y1.1514
G1 X4.1937 Y1.1514
G1 X4.1937 Y2.2014
G1 X4.2937 Y2.3014 F60
G1 X1.0437 Y2.3014 F60
G1 X1.0437 Y1.0514
G1 X4.2937 Y1.0514
G1 X4.2937 Y2.3014
G1 X4.3937 Y2.4014 F60
G1 X0.9437 Y2.4014 F60
G1 X0.9437 Y0.9514
G1 X4.3937 Y0.9514
G1 X4.3937 Y2.4014
G1 X4.4937 Y2.5014 F60
G1 X0.8437 Y2.5014 F60
G1 X0.8437 Y0.8514
G1 X4.4937 Y0.8514
G1 X4.4937 Y2.5014
G1 X4.5937 Y2.6014 F60
G1 X0.7437 Y2.6014 F60
G1 X0.7437 Y0.7514
G1 X4.5937 Y0.7514
G1 X4.5937 Y2.6014
G1 X4.6937 Y2.7014 F60
G1 X0.6437 Y2.7014 F60
G1 X0.6437 Y0.6514
G1 X4.6937 Y0.6514
G1 X4.6937 Y2.7014
G1 X4.7937 Y2.7264 F60
G3 X4.788 Y2.7551 I-0.075 J0 F60
G3 X4.7717 Y2.7795 I-0.0693 J-0.0287
G3 X4.7474 Y2.7957 I-0.053 J-0.053
G3 X4.7187 Y2.8014 I-0.0287 J-0.0693
G1 X0.6187 Y2.8014
G3 X0.59 Y2.7957 I0 J-0.075
G3 X0.5657 Y2.7795 I0.0287 J-0.0693
G3 X0.5494 Y2.7551 I0.053 J-0.053
G3 X0.5437 Y2.7264 I0.0693 J-0.0287
G1 X0.5437 Y0.6264
G3 X0.5494 Y0.5977 I0.075 J0
G3 X0.5657 Y0.5734 I0.0693 J0.0287
G3 X0.59 Y0.5571 I0.053 J0.053
G3 X0.6187 Y0.5514 I0.0287 J0.0693
G1 X4.7187 Y0.5514
G3 X4.7474 Y0.5571 I0 J0.075
G3 X4.7717 Y0.5734 I-0.0287 J0.0693
G3 X4.788 Y0.5977 I-0.053 J0.053
G3 X4.7937 Y0.6264 I-0.0693 J0.0287
G1 X4.7937 Y2.7264
G0 Z0.5
G0 X3.6937 Y1.7014
G1 Z-0.275 F30
G1 X1.6437 Y1.7014 F60
G1 X1.6437 Y1.6514
G1 X3.6937 Y1.6514
G1 X3.6937 Y1.7014
G1 X3.7937 Y1.8014 F60
G1 X1.5437 Y1.8014 F60
G1 X1.5437 Y1.5514
G1 X3.7937 Y1.5514
G1 X3.7937 Y1.8014
G1 X3.8937 Y1.9014 F60
G1 X1.4437 Y1.9014 F60
G1 X1.4437 Y1.4514
G1 X3.8937 Y1.4514
G1 X3.8937 Y1.9014
G1 X3.9937 Y2.0014 F60
G1 X1.3437 Y2.0014 F60
G1 X1.3437 Y1.3514
G1 X3.9937 Y1.3514
G1 X3.9937 Y2.0014
G1 X4.0937 Y2.1014 F60
G1 X1.2437 Y2.1014 F60
G1 X1.2437 Y1.2514
G1 X4.0937 Y1.2514
G1 X4.0937 Y2.1014
G1 X4.1937 Y2.2014 F60
G1 X1.1437 Y2.2014 F60
G1 X1.1437 Y1.1514
G1 X4.1937 Y1.1514
G1 X4.1937 Y2.2014
G1 X4.2937 Y2.3014 F60
G1 X1.0437 Y2.3014 F60
G1 X1.0437 Y1.0514
G1 X4.2937 Y1.0514
G1 X4.2937 Y2.3014
G1 X4.3937 Y2.4014 F60
G1 X0.9437 Y2.4014 F60
G1 X0.9437 Y0.9514
G1 X4.3937 Y0.9514
G1 X4.3937 Y2.4014
G1 X4.4937 Y2.5014 F60
G1 X0.8437 Y2.5014 F60
G1 X0.8437 Y0.8514
G1 X4.4937 Y0.8514
G1 X4.4937 Y2.5014
G1 X4.5937 Y2.6014 F60
G1 X0.7437 Y2.6014 F60
G1 X0.7437 Y0.7514
G1 X4.5937 Y0.7514
G1 X4.5937 Y2.6014
G1 X4.6937 Y2.7014 F60
G1 X0.6437 Y2.7014 F60
G1 X0.6437 Y0.6514
G1 X4.6937 Y0.6514
G1 X4.6937 Y2.7014
G1 X4.7937 Y2.7264 F60
G3 X4.788 Y2.7551 I-0.075 J0 F60
G3 X4.7717 Y2.7795 I-0.0693 J-0.0287
G3 X4.7474 Y2.7957 I-0.053 J-0.053
G3 X4.7187 Y2.8014 I-0.0287 J-0.0693
G1 X0.6187 Y2.8014
G3 X0.59 Y2.7957 I0 J-0.075
G3 X0.5657 Y2.7795 I0.0287 J-0.0693
G3 X0.5494 Y2.7551 I0.053 J-0.053
G3 X0.5437 Y2.7264 I0.0693 J-0.0287
G1 X0.5437 Y0.6264
G3 X0.5494 Y0.5977 I0.075 J0
G3 X0.5657 Y0.5734 I0.0693 J0.0287
G3 X0.59 Y0.5571 I0.053 J0.053
G3 X0.6187 Y0.5514 I0.0287 J0.0693
G1 X4.7187 Y0.5514
G3 X4.7474 Y0.5571 I0 J0.075
G3 X4.7717 Y0.5734 I-0.0287 J0.0693
G3 X4.788 Y0.5977 I-0.053 J0.053
G3 X4.7937 Y0.6264 I-0.0693 J0.0287
G1 X4.7937 Y2.7264
G0 Z0.5
G0 X3.6937 Y1.7014
G1 Z-0.3 F30
G1 X1.6437 Y1.7014 F60
G1 X1.6437 Y1.6514
G1 X3.6937 Y1.6514
G1 X3.6937 Y1.7014
G1 X3.7937 Y1.8014 F60
G1 X1.5437 Y1.8014 F60
G1 X1.5437 Y1.5514
G1 X3.7937 Y1.5514
G1 X3.7937 Y1.8014
G1 X3.8937 Y1.9014 F60
G1 X1.4437 Y1.9014 F60
G1 X1.4437 Y1.4514
G1 X3.8937 Y1.4514
G1 X3.8937 Y1.9014
G1 X3.9937 Y2.0014 F60
G1 X1.3437 Y2.0014 F60
G1 X1.3437 Y1.3514
G1 X3.9937 Y1.3514
G1 X3.9937 Y2.0014
G1 X4.0937 Y2.1014 F60
G1 X1.2437 Y2.1014 F60
G1 X1.2437 Y1.2514
G1 X4.0937 Y1.2514
G1 X4.0937 Y2.1014
G1 X4.1937 Y2.2014 F60
G1 X1.1437 Y2.2014 F60
G1 X1.1437 Y1.1514
G1 X4.1937 Y1.1514
G1 X4.1937 Y2.2014
G1 X4.2937 Y2.3014 F60
G1 X1.0437 Y2.3014 F60
G1 X1.0437 Y1.0514
G1 X4.2937 Y1.0514
G1 X4.2937 Y2.3014
G1 X4.3937 Y2.4014 F60
G1 X0.9437 Y2.4014 F60
G1 X0.9437 Y0.9514
G1 X4.3937 Y0.9514
G1 X4.3937 Y2.4014
G1 X4.4937 Y2.5014 F60
G1 X0.8437 Y2.5014 F60
G1 X0.8437 Y0.8514
G1 X4.4937 Y0.8514
G1 X4.4937 Y2.5014
G1 X4.5937 Y2.6014 F60
G1 X0.7437 Y2.6014 F60
G1 X0.7437 Y0.7514
G1 X4.5937 Y0.7514
G1 X4.5937 Y2.6014
G1 X4.6937 Y2.7014 F60
G1 X0.6437 Y2.7014 F60
G1 X0.6437 Y0.6514
G1 X4.6937 Y0.6514
G1 X4.6937 Y2.7014
G1 X4.7937 Y2.7264 F60
G3 X4.788 Y2.7551 I-0.075 J0 F60
G3 X4.7717 Y2.7795 I-0.0693 J-0.0287
G3 X4.7474 Y2.7957 I-0.053 J-0.053
G3 X4.7187 Y2.8014 I-0.0287 J-0.0693
G1 X0.6187 Y2.8014
G3 X0.59 Y2.7957 I0 J-0.075
G3 X0.5657 Y2.7795 I0.0287 J-0.0693
G3 X0.5494 Y2.7551 I0.053 J-0.053
G3 X0.5437 Y2.7264 I0.0693 J-0.0287
G1 X0.5437 Y0.6264
G3 X0.5494 Y0.5977 I0.075 J0
G3 X0.5657 Y0.5734 I0.0693 J0.0287
G3 X0.59 Y0.5571 I0.053 J0.053
G3 X0.6187 Y0.5514 I0.0287 J0.0693
G1 X4.7187 Y0.5514
G3 X4.7474 Y0.5571 I0 J0.075
G3 X4.7717 Y0.5734 I-0.0287 J0.0693
G3 X4.788 Y0.5977 I-0.053 J0.053
G3 X4.7937 Y0.6264 I-0.0693 J0.0287
G1 X4.7937 Y2.7264
G0 Z0.5
G0 X3.6937 Y1.7014
G1 Z-0.325 F30
G1 X1.6437 Y1.7014 F60
G1 X1.6437 Y1.6514
G1 X3.6937 Y1.6514
G1 X3.6937 Y1.7014
G1 X3.7937 Y1.8014 F60
G1 X1.5437 Y1.8014 F60
G1 X1.5437 Y1.5514
G1 X3.7937 Y1.5514
G1 X3.7937 Y1.8014
G1 X3.8937 Y1.9014 F60
G1 X1.4437 Y1.9014 F60
G1 X1.4437 Y1.4514
G1 X3.8937 Y1.4514
G1 X3.8937 Y1.9014
G1 X3.9937 Y2.0014 F60
G1 X1.3437 Y2.0014 F60
G1 X1.3437 Y1.3514
G1 X3.9937 Y1.3514
G1 X3.9937 Y2.0014
G1 X4.0937 Y2.1014 F60
G1 X1.2437 Y2.1014 F60
G1 X1.2437 Y1.2514
G1 X4.0937 Y1.2514
G1 X4.0937 Y2.1014
G1 X4.1937 Y2.2014 F60
G1 X1.1437 Y2.2014 F60
G1 X1.1437 Y1.1514
G1 X4.1937 Y1.1514
G1 X4.1937 Y2.2014
G1 X4.2937 Y2.3014 F60
G1 X1.0437 Y2.3014 F60
G1 X1.0437 Y1.0514
G1 X4.2937 Y1.0514
G1 X4.2937 Y2.3014
G1 X4.3937 Y2.4014 F60
G1 X0.9437 Y2.4014 F60
G1 X0.9437 Y0.9514
G1 X4.3937 Y0.9514
G1 X4.3937 Y2.4014
G1 X4.4937 Y2.5014 F60
G1 X0.8437 Y2.5014 F60
G1 X0.8437 Y0.8514
G1 X4.4937 Y0.8514
G1 X4.4937 Y2.5014
G1 X4.5937 Y2.6014 F60
G1 X0.7437 Y2.6014 F60
G1 X0.7437 Y0.7514
G1 X4.5937 Y0.7514
G1 X4.5937 Y2.6014
G1 X4.6937 Y2.7014 F60
G1 X0.6437 Y2.7014 F60
G1 X0.6437 Y0.6514
G1 X4.6937 Y0.6514
G1 X4.6937 Y2.7014
G1 X4.7937 Y2.7264 F60
G3 X4.788 Y2.7551 I-0.075 J0 F60
G3 X4.7717 Y2.7795 I-0.0693 J-0.0287
G3 X4.7474 Y2.7957 I-0.053 J-0.053
G3 X4.7187 Y2.8014 I-0.0287 J-0.0693
G1 X0.6187 Y2.8014
G3 X0.59 Y2.7957 I0 J-0.075
G3 X0.5657 Y2.7795 I0.0287 J-0.0693
G3 X0.5494 Y2.7551 I0.053 J-0.053
G3 X0.5437 Y2.7264 I0.0693 J-0.0287
G1 X0.5437 Y0.6264
G3 X0.5494 Y0.5977 I0.075 J0
G3 X0.5657 Y0.5734 I0.0693 J0.0287
G3 X0.59 Y0.5571 I0.053 J0.053
G3 X0.6187 Y0.5514 I0.0287 J0.0693
G1 X4.7187 Y0.5514
G3 X4.7474 Y0.5571 I0 J0.075
G3 X4.7717 Y0.5734 I-0.0287 J0.0693
G3 X4.788 Y0.5977 I-0.053 J0.053
G3 X4.7937 Y0.6264 I-0.0693 J0.0287
G1 X4.7937 Y2.7264
G0 Z0.5
G0 X3.6937 Y1.7014
G1 Z-0.35 F30
G1 X1.6437 Y1.7014 F60
G1 X1.6437 Y1.6514
G1 X3.6937 Y1.6514
G1 X3.6937 Y1.7014
G1 X3.7937 Y1.8014 F60
G1 X1.5437 Y1.8014 F60
G1 X1.5437 Y1.5514
G1 X3.7937 Y1.5514
G1 X3.7937 Y1.8014
G1 X3.8937 Y1.9014 F60
G1 X1.4437 Y1.9014 F60
G1 X1.4437 Y1.4514
G1 X3.8937 Y1.4514
G1 X3.8937 Y1.9014
G1 X3.9937 Y2.0014 F60
G1 X1.3437 Y2.0014 F60
G1 X1.3437 Y1.3514
G1 X3.9937 Y1.3514
G1 X3.9937 Y2.0014
G1 X4.0937 Y2.1014 F60
G1 X1.2437 Y2.1014 F60
G1 X1.2437 Y1.2514
G1 X4.0937 Y1.2514
G1 X4.0937 Y2.1014
G1 X4.1937 Y2.2014 F60
G1 X1.1437 Y2.2014 F60
G1 X1.1437 Y1.1514
G1 X4.1937 Y1.1514
G1 X4.1937 Y2.2014
G1 X4.2937 Y2.3014 F60
G1 X1.0437 Y2.3014 F60
G1 X1.0437 Y1.0514
G1 X4.2937 Y1.0514
G1 X4.2937 Y2.3014
G1 X4.3937 Y2.4014 F60
G1 X0.9437 Y2.4014 F60
G1 X0.9437 Y0.9514
G1 X4.3937 Y0.9514
G1 X4.3937 Y2.4014
G1 X4.4937 Y2.5014 F60
G1 X0.8437 Y2.5014 F60
G1 X0.8437 Y0.8514
G1 X4.4937 Y0.8514
G1 X4.4937 Y2.5014
G1 X4.5937 Y2.6014 F60
G1 X0.7437 Y2.6014 F60
G1 X0.7437 Y0.7514
G1 X4.5937 Y0.7514
G1 X4.5937 Y2.6014
G1 X4.6937 Y2.7014 F60
G1 X0.6437 Y2.7014 F60
G1 X0.6437 Y0.6514
G1 X4.6937 Y0.6514
G1 X4.6937 Y2.7014
G1 X4.7937 Y2.7264 F60
G3 X4.788 Y2.7551 I-0.075 J0 F60
G3 X4.7717 Y2.7795 I-0.0693 J-0.0287
G3 X4.7474 Y2.7957 I-0.053 J-0.053
G3 X4.7187 Y2.8014 I-0.0287 J-0.0693
G1 X0.6187 Y2.8014
G3 X0.59 Y2.7957 I0 J-0.075
G3 X0.5657 Y2.7795 I0.0287 J-0.0693
G3 X0.5494 Y2.7551 I0.053 J-0.053
G3 X0.5437 Y2.7264 I0.0693 J-0.0287
G1 X0.5437 Y0.6264
G3 X0.5494 Y0.5977 I0.075 J0
G3 X0.5657 Y0.5734 I0.0693 J0.0287
G3 X0.59 Y0.5571 I0.053 J0.053
G3 X0.6187 Y0.5514 I0.0287 J0.0693
G1 X4.7187 Y0.5514
G3 X4.7474 Y0.5571 I0 J0.075
G3 X4.7717 Y0.5734 I-0.0287 J0.0693
G3 X4.788 Y0.5977 I-0.053 J0.053
G3 X4.7937 Y0.6264 I-0.0693 J0.0287
G1 X4.7937 Y2.7264
G0 Z0.5
G0 X3.6937 Y1.7014
G1 Z-0.375 F30
G1 X1.6437 Y1.7014 F60
G1 X1.6437 Y1.6514
G1 X3.6937 Y1.6514
G1 X3.6937 Y1.7014
G1 X3.7937 Y1.8014 F60
G1 X1.5437 Y1.8014 F60
G1 X1.5437 Y1.5514
G1 X3.7937 Y1.5514
G1 X3.7937 Y1.8014
G1 X3.8937 Y1.9014 F60
G1 X1.4437 Y1.9014 F60
G1 X1.4437 Y1.4514
G1 X3.8937 Y1.4514
G1 X3.8937 Y1.9014
G1 X3.9937 Y2.0014 F60
G1 X1.3437 Y2.0014 F60
G1 X1.3437 Y1.3514
G1 X3.9937 Y1.3514
G1 X3.9937 Y2.0014
G1 X4.0937 Y2.1014 F60
G1 X1.2437 Y2.1014 F60
G1 X1.2437 Y1.2514
G1 X4.0937 Y1.2514
G1 X4.0937 Y2.1014
G1 X4.1937 Y2.2014 F60
G1 X1.1437 Y2.2014 F60
G1 X1.1437 Y1.1514
G1 X4.1937 Y1.1514
G1 X4.1937 Y2.2014
G1 X4.2937 Y2.3014 F60
G1 X1.0437 Y2.3014 F60
G1 X1.0437 Y1.0514
G1 X4.2937 Y1.0514
G1 X4.2937 Y2.3014
G1 X4.3937 Y2.4014 F60
G1 X0.9437 Y2.4014 F60
G1 X0.9437 Y0.9514
G1 X4.3937 Y0.9514
G1 X4.3937 Y2.4014
G1 X4.4937 Y2.5014 F60
G1 X0.8437 Y2.5014 F60
G1 X0.8437 Y0.8514
G1 X4.4937 Y0.8514
G1 X4.4937 Y2.5014
G1 X4.5937 Y2.6014 F60
G1 X0.7437 Y2.6014 F60
G1 X0.7437 Y0.7514
G1 X4.5937 Y0.7514
G1 X4.5937 Y2.6014
G1 X4.6937 Y2.7014 F60
G1 X0.6437 Y2.7014 F60
G1 X0.6437 Y0.6514
G1 X4.6937 Y0.6514
G1 X4.6937 Y2.7014
G1 X4.7937 Y2.7264 F60
G3 X4.788 Y2.7551 I-0.075 J0 F60
G3 X4.7717 Y2.7795 I-0.0693 J-0.0287
G3 X4.7474 Y2.7957 I-0.053 J-0.053
G3 X4.7187 Y2.8014 I-0.0287 J-0.0693
G1 X0.6187 Y2.8014
G3 X0.59 Y2.7957 I0 J-0.075
G3 X0.5657 Y2.7795 I0.0287 J-0.0693
G3 X0.5494 Y2.7551 I0.053 J-0.053
G3 X0.5437 Y2.7264 I0.0693 J-0.0287
G1 X0.5437 Y0.6264
G3 X0.5494 Y0.5977 I0.075 J0
G3 X0.5657 Y0.5734 I0.0693 J0.0287
G3 X0.59 Y0.5571 I0.053 J0.053
G3 X0.6187 Y0.5514 I0.0287 J0.0693
G1 X4.7187 Y0.5514
G3 X4.7474 Y0.5571 I0 J0.075
G3 X4.7717 Y0.5734 I-0.0287 J0.0693
G3 X4.788 Y0.5977 I-0.053 J0.053
G3 X4.7937 Y0.6264 I-0.0693 J0.0287
G1 X4.7937 Y2.7264
G0 Z0.5
G0 X3.6937 Y1.7014
G1 Z-0.4 F30
G1 X1.6437 Y1.7014 F60
G1 X1.6437 Y1.6514
G1 X3.6937 Y1.6514
G1 X3.6937 Y1.7014
G1 X3.7937 Y1.8014 F60
G1 X1.5437 Y1.8014 F60
G1 X1.5437 Y1.5514
G1 X3.7937 Y1.5514
G1 X3.7937 Y1.8014
G1 X3.8937 Y1.9014 F60
G1 X1.4437 Y1.9014 F60
G1 X1.4437 Y1.4514
G1 X3.8937 Y1.4514
G1 X3.8937 Y1.9014
G1 X3.9937 Y2.0014 F60
G1 X1.3437 Y2.0014 F60
G1 X1.3437 Y1.3514
G1 X3.9937 Y1.3514
G1 X3.9937 Y2.0014
G1 X4.0937 Y2.1014 F60
G1 X1.2437 Y2.1014 F60
G1 X1.2437 Y1.2514
G1 X4.0937 Y1.2514
G1 X4.0937 Y2.1014
G1 X4.1937 Y2.2014 F60
G1 X1.1437 Y2.2014 F60
G1 X1.1437 Y1.1514
G1 X4.1937 Y1.1514
G1 X4.1937 Y2.2014
G1 X4.2937 Y2.3014 F60
G1 X1.0437 Y2.3014 F60
G1 X1.0437 Y1.0514
G1 X4.2937 Y1.0514
G1 X4.2937 Y2.3014
G1 X4.3937 Y2.4014 F60
G1 X0.9437 Y2.4014 F60
G1 X0.9437 Y0.9514
G1 X4.3937 Y0.9514
G1 X4.3937 Y2.4014
G1 X4.4937 Y2.5014 F60
G1 X0.8437 Y2.5014 F60
G1 X0.8437 Y0.8514
G1 X4.4937 Y0.8514
G1 X4.4937 Y2.5014
G1 X4.5937 Y2.6014 F60
G1 X0.7437 Y2.6014 F60
G1 X0.7437 Y0.7514
G1 X4.5937 Y0.7514
G1 X4.5937 Y2.6014
G1 X4.6937 Y2.7014 F60
G1 X0.6437 Y2.7014 F60
G1 X0.6437 Y0.6514
G1 X4.6937 Y0.6514
G1 X4.6937 Y2.7014
G1 X4.7937 Y2.7264 F60
G3 X4.788 Y2.7551 I-0.075 J0 F60
G3 X4.7717 Y2.7795 I-0.0693 J-0.0287
G3 X4.7474 Y2.7957 I-0.053 J-0.053
G3 X4.7187 Y2.8014 I-0.0287 J-0.0693
G1 X0.6187 Y2.8014
G3 X0.59 Y2.7957 I0 J-0.075
G3 X0.5657 Y2.7795 I0.0287 J-0.0693
G3 X0.5494 Y2.7551 I0.053 J-0.053
G3 X0.5437 Y2.7264 I0.0693 J-0.0287
G1 X0.5437 Y0.6264
G3 X0.5494 Y0.5977 I0.075 J0
G3 X0.5657 Y0.5734 I0.0693 J0.0287
G3 X0.59 Y0.5571 I0.053 J0.053
G3 X0.6187 Y0.5514 I0.0287 J0.0693
G1 X4.7187 Y0.5514
G3 X4.7474 Y0.5571 I0 J0.075
G3 X4.7717 Y0.5734 I-0.0287 J0.0693
G3 X4.788 Y0.5977 I-0.053 J0.053
G3 X4.7937 Y0.6264 I-0.0693 J0.0287
G1 X4.7937 Y2.7264
G0 Z0.5
G0 X3.6937 Y1.7014
G1 Z-0.425 F30
G1 X1.6437 Y1.7014 F60
G1 X1.6437 Y1.6514
G1 X3.6937 Y1.6514
G1 X3.6937 Y1.7014
G1 X3.7937 Y1.8014 F60
G1 X1.5437 Y1.8014 F60
G1 X1.5437 Y1.5514
G1 X3.7937 Y1.5514
G1 X3.7937 Y1.8014
G1 X3.8937 Y1.9014 F60
G1 X1.4437 Y1.9014 F60
G1 X1.4437 Y1.4514
G1 X3.8937 Y1.4514
G1 X3.8937 Y1.9014
G1 X3.9937 Y2.0014 F60
G1 X1.3437 Y2.0014 F60
G1 X1.3437 Y1.3514
G1 X3.9937 Y1.3514
G1 X3.9937 Y2.0014
G1 X4.0937 Y2.1014 F60
G1 X1.2437 Y2.1014 F60
G1 X1.2437 Y1.2514
G1 X4.0937 Y1.2514
G1 X4.0937 Y2.1014
G1 X4.1937 Y2.2014 F60
G1 X1.1437 Y2.2014 F60
G1 X1.1437 Y1.1514
G1 X4.1937 Y1.1514
G1 X4.1937 Y2.2014
G1 X4.2937 Y2.3014 F60
G1 X1.0437 Y2.3014 F60
G1 X1.0437 Y1.0514
G1 X4.2937 Y1.0514
G1 X4.2937 Y2.3014
G1 X4.3937 Y2.4014 F60
G1 X0.9437 Y2.4014 F60
G1 X0.9437 Y0.9514
G1 X4.3937 Y0.9514
G1 X4.3937 Y2.4014
G1 X4.4937 Y2.5014 F60
G1 X0.8437 Y2.5014 F60
G1 X0.8437 Y0.8514
G1 X4.4937 Y0.8514
G1 X4.4937 Y2.5014
G1 X4.5937 Y2.6014 F60
G1 X0.7437 Y2.6014 F60
G1 X0.7437 Y0.7514
G1 X4.5937 Y0.7514
G1 X4.5937 Y2.6014
G1 X4.6937 Y2.7014 F60
G1 X0.6437 Y2.7014 F60
G1 X0.6437 Y0.6514
G1 X4.6937 Y0.6514
G1 X4.6937 Y2.7014
G1 X4.7937 Y2.7264 F60
G3 X4.788 Y2.7551 I-0.075 J0 F60
G3 X4.7717 Y2.7795 I-0.0693 J-0.0287
G3 X4.7474 Y2.7957 I-0.053 J-0.053
G3 X4.7187 Y2.8014 I-0.0287 J-0.0693
G1 X0.6187 Y2.8014
G3 X0.59 Y2.7957 I0 J-0.075
G3 X0.5657 Y2.7795 I0.0287 J-0.0693
G3 X0.5494 Y2.7551 I0.053 J-0.053
G3 X0.5437 Y2.7264 I0.0693 J-0.0287
G1 X0.5437 Y0.6264
G3 X0.5494 Y0.5977 I0.075 J0
G3 X0.5657 Y0.5734 I0.0693 J0.0287
G3 X0.59 Y0.5571 I0.053 J0.053
G3 X0.6187 Y0.5514 I0.0287 J0.0693
G1 X4.7187 Y0.5514
G3 X4.7474 Y0.5571 I0 J0.075
G3 X4.7717 Y0.5734 I-0.0287 J0.0693
G3 X4.788 Y0.5977 I-0.053 J0.053
G3 X4.7937 Y0.6264 I-0.0693 J0.0287
G1 X4.7937 Y2.7264
G0 Z0.5
G0 X3.6937 Y1.7014
G1 Z-0.45 F30
G1 X1.6437 Y1.7014 F60
G1 X1.6437 Y1.6514
G1 X3.6937 Y1.6514
G1 X3.6937 Y1.7014
G1 X3.7937 Y1.8014 F60
G1 X1.5437 Y1.8014 F60
G1 X1.5437 Y1.5514
G1 X3.7937 Y1.5514
G1 X3.7937 Y1.8014
G1 X3.8937 Y1.9014 F60
G1 X1.4437 Y1.9014 F60
G1 X1.4437 Y1.4514
G1 X3.8937 Y1.4514
G1 X3.8937 Y1.9014
G1 X3.9937 Y2.0014 F60
G1 X1.3437 Y2.0014 F60
G1 X1.3437 Y1.3514
G1 X3.9937 Y1.3514
G1 X3.9937 Y2.0014
G1 X4.0937 Y2.1014 F60
G1 X1.2437 Y2.1014 F60
G1 X1.2437 Y1.2514
G1 X4.0937 Y1.2514
G1 X4.0937 Y2.1014
G1 X4.1937 Y2.2014 F60
G1 X1.1437 Y2.2014 F60
G1 X1.1437 Y1.1514
G1 X4.1937 Y1.1514
G1 X4.1937 Y2.2014
G1 X4.2937 Y2.3014 F60
G1 X1.0437 Y2.3014 F60
G1 X1.0437 Y1.0514
G1 X4.2937 Y1.0514
G1 X4.2937 Y2.3014
G1 X4.3937 Y2.4014 F60
G1 X0.9437 Y2.4014 F60
G1 X0.9437 Y0.9514
G1 X4.3937 Y0.9514
G1 X4.3937 Y2.4014
G1 X4.4937 Y2.5014 F60
G1 X0.8437 Y2.5014 F60
G1 X0.8437 Y0.8514
G1 X4.4937 Y0.8514
G1 X4.4937 Y2.5014
G1 X4.5937 Y2.6014 F60
G1 X0.7437 Y2.6014 F60
G1 X0.7437 Y0.7514
G1 X4.5937 Y0.7514
G1 X4.5937 Y2.6014
G1 X4.6937 Y2.7014 F60
G1 X0.6437 Y2.7014 F60
G1 X0.6437 Y0.6514
G1 X4.6937 Y0.6514
G1 X4.6937 Y2.7014
G1 X4.7937 Y2.7264 F60
G3 X4.788 Y2.7551 I-0.075 J0 F60
G3 X4.7717 Y2.7795 I-0.0693 J-0.0287
G3 X4.7474 Y2.7957 I-0.053 J-0.053
G3 X4.7187 Y2.8014 I-0.0287 J-0.0693
G1 X0.6187 Y2.8014
G3 X0.59 Y2.7957 I0 J-0.075
G3 X0.5657 Y2.7795 I0.0287 J-0.0693
G3 X0.5494 Y2.7551 I0.053 J-0.053
G3 X0.5437 Y2.7264 I0.0693 J-0.0287
G1 X0.5437 Y0.6264
G3 X0.5494 Y0.5977 I0.075 J0
G3 X0.5657 Y0.5734 I0.0693 J0.0287
G3 X0.59 Y0.5571 I0.053 J0.053
G3 X0.6187 Y0.5514 I0.0287 J0.0693
G1 X4.7187 Y0.5514
G3 X4.7474 Y0.5571 I0 J0.075
G3 X4.7717 Y0.5734 I-0.0287 J0.0693
G3 X4.788 Y0.5977 I-0.053 J0.053
G3 X4.7937 Y0.6264 I-0.0693 J0.0287
G1 X4.7937 Y2.7264
G0 Z0.5
G0 X3.6937 Y1.7014
G1 Z-0.475 F30
G1 X1.6437 Y1.7014 F60
G1 X1.6437 Y1.6514
G1 X3.6937 Y1.6514
G1 X3.6937 Y1.7014
G1 X3.7937 Y1.8014 F60
G1 X1.5437 Y1.8014 F60
G1 X1.5437 Y1.5514
G1 X3.7937 Y1.5514
G1 X3.7937 Y1.8014
G1 X3.8937 Y1.9014 F60
G1 X1.4437 Y1.9014 F60
G1 X1.4437 Y1.4514
G1 X3.8937 Y1.4514
G1 X3.8937 Y1.9014
G1 X3.9937 Y2.0014 F60
G1 X1.3437 Y2.0014 F60
G1 X1.3437 Y1.3514
G1 X3.9937 Y1.3514
G1 X3.9937 Y2.0014
G1 X4.0937 Y2.1014 F60
G1 X1.2437 Y2.1014 F60
G1 X1.2437 Y1.2514
G1 X4.0937 Y1.2514
G1 X4.0937 Y2.1014
G1 X4.1937 Y2.2014 F60
G1 X1.1437 Y2.2014 F60
G1 X1.1437 Y1.1514
G1 X4.1937 Y1.1514
G1 X4.1937 Y2.2014
G1 X4.2937 Y2.3014 F60
G1 X1.0437 Y2.3014 F60
G1 X1.0437 Y1.0514
G1 X4.2937 Y1.0514
G1 X4.2937 Y2.3014
G1 X4.3937 Y2.4014 F60
G1 X0.9437 Y2.4014 F60
G1 X0.9437 Y0.9514
G1 X4.3937 Y0.9514
G1 X4.3937 Y2.4014
G1 X4.4937 Y2.5014 F60
G1 X0.8437 Y2.5014 F60
G1 X0.8437 Y0.8514
G1 X4.4937 Y0.8514
G1 X4.4937 Y2.5014
G1 X4.5937 Y2.6014 F60
G1 X0.7437 Y2.6014 F60
G1 X0.7437 Y0.7514
G1 X4.5937 Y0.7514
G1 X4.5937 Y2.6014
G1 X4.6937 Y2.7014 F60
G1 X0.6437 Y2.7014 F60
G1 X0.6437 Y0.6514
G1 X4.6937 Y0.6514
G1 X4.6937 Y2.7014
G1 X4.7937 Y2.7264 F60
G3 X4.788 Y2.7551 I-0.075 J0 F60
G3 X4.7717 Y2.7795 I-0.0693 J-0.0287
G3 X4.7474 Y2.7957 I-0.053 J-0.053
G3 X4.7187 Y2.8014 I-0.0287 J-0.0693
G1 X0.6187 Y2.8014
G3 X0.59 Y2.7957 I0 J-0.075
G3 X0.5657 Y2.7795 I0.0287 J-0.0693
G3 X0.5494 Y2.7551 I0.053 J-0.053
G3 X0.5437 Y2.7264 I0.0693 J-0.0287
G1 X0.5437 Y0.6264
G3 X0.5494 Y0.5977 I0.075 J0
G3 X0.5657 Y0.5734 I0.0693 J0.0287
G3 X0.59 Y0.5571 I0.053 J0.053
G3 X0.6187 Y0.5514 I0.0287 J0.0693
G1 X4.7187 Y0.5514
G3 X4.7474 Y0.5571 I0 J0.075
G3 X4.7717 Y0.5734 I-0.0287 J0.0693
G3 X4.788 Y0.5977 I-0.053 J0.053
G3 X4.7937 Y0.6264 I-0.0693 J0.0287
G1 X4.7937 Y2.7264
G0 Z0.5
G0 X3.6937 Y1.7014
G1 Z-0.5 F30
G1 X1.6437 Y1.7014 F60
G1 X1.6437 Y1.6514
G1 X3.6937 Y1.6514
G1 X3.6937 Y1.7014
G1 X3.7937 Y1.8014 F60
G1 X1.5437 Y1.8014 F60
G1 X1.5437 Y1.5514
G1 X3.7937 Y1.5514
G1 X3.7937 Y1.8014
G1 X3.8937 Y1.9014 F60
G1 X1.4437 Y1.9014 F60
G1 X1.4437 Y1.4514
G1 X3.8937 Y1.4514
G1 X3.8937 Y1.9014
G1 X3.9937 Y2.0014 F60
G1 X1.3437 Y2.0014 F60
G1 X1.3437 Y1.3514
G1 X3.9937 Y1.3514
G1 X3.9937 Y2.0014
G1 X4.0937 Y2.1014 F60
G1 X1.2437 Y2.1014 F60
G1 X1.2437 Y1.2514
G1 X4.0937 Y1.2514
G1 X4.0937 Y2.1014
G1 X4.1937 Y2.2014 F60
G1 X1.1437 Y2.2014 F60
G1 X1.1437 Y1.1514
G1 X4.1937 Y1.1514
G1 X4.1937 Y2.2014
G1 X4.2937 Y2.3014 F60
G1 X1.0437 Y2.3014 F60
G1 X1.0437 Y1.0514
G1 X4.2937 Y1.0514
G1 X4.2937 Y2.3014
G1 X4.3937 Y2.4014 F60
G1 X0.9437 Y2.4014 F60
G1 X0.9437 Y0.9514
G1 X4.3937 Y0.9514
G1 X4.3937 Y2.4014
G1 X4.4937 Y2.5014 F60
G1 X0.8437 Y2.5014 F60
G1 X0.8437 Y0.8514
G1 X4.4937 Y0.8514
G1 X4.4937 Y2.5014
G1 X4.5937 Y2.6014 F60
G1 X0.7437 Y2.6014 F60
G1 X0.7437 Y0.7514
G1 X4.5937 Y0.7514
G1 X4.5937 Y2.6014
G1 X4.6937 Y2.7014 F60
G1 X0.6437 Y2.7014 F60
G1 X0.6437 Y0.6514
G1 X4.6937 Y0.6514
G1 X4.6937 Y2.7014
G1 X4.7937 Y2.7264 F60
G3 X4.788 Y2.7551 I-0.075 J0 F60
G3 X4.7717 Y2.7795 I-0.0693 J-0.0287
G3 X4.7474 Y2.7957 I-0.053 J-0.053
G3 X4.7187 Y2.8014 I-0.0287 J-0.0693
G1 X0.6187 Y2.8014
G3 X0.59 Y2.7957 I0 J-0.075
G3 X0.5657 Y2.7795 I0.0287 J-0.0693
G3 X0.5494 Y2.7551 I0.053 J-0.053
G3 X0.5437 Y2.7264 I0.0693 J-0.0287
G1 X0.5437 Y0.6264
G3 X0.5494 Y0.5977 I0.075 J0
G3 X0.5657 Y0.5734 I0.0693 J0.0287
G3 X0.59 Y0.5571 I0.053 J0.053
G3 X0.6187 Y0.5514 I0.0287 J0.0693
G1 X4.7187 Y0.5514
G3 X4.7474 Y0.5571 I0 J0.075
G3 X4.7717 Y0.5734 I-0.0287 J0.0693
G3 X4.788 Y0.5977 I-0.053 J0.053
G3 X4.7937 Y0.6264 I-0.0693 J0.0287
G1 X4.7937 Y2.7264
G0 Z0.5
M5
M30
