(Generated by PartKam Version 0.05)

G20 G90 G40

(profile 2)
G0 Z0.5
T0 M6
G17
M3
G0 X5.8383 Y4.3875
G1 Z-0.05 F10
G1 X5.5883 Y4.3875 F20
G1 X0.8383 Y4.3875
G1 X0.6383 Y4.3875
G3 X0.5884 Y4.3851 I0 J-0.525
G3 X0.5024 Y4.3696 I0.0499 J-0.5226
G3 X0.3758 Y4.3172 I0.1359 J-0.5071
G3 X0.2671 Y4.2337 I0.2625 J-0.4547
G3 X0.1836 Y4.125 I0.3712 J-0.3712
G3 X0.1312 Y3.9984 I0.4547 J-0.2625
G3 X0.1133 Y3.8625 I0.5071 J-0.1359
G1 X0.1133 Y0.6625
G3 X0.1312 Y0.5266 I0.525 J0
G3 X0.1836 Y0.4 I0.5071 J0.1359
G3 X0.2671 Y0.2913 I0.4547 J0.2625
G3 X0.3758 Y0.2078 I0.3712 J0.3712
G3 X0.5024 Y0.1554 I0.2625 J0.4547
G3 X0.589 Y0.1398 I0.1359 J0.5071
G3 X0.6383 Y0.1375 I0.0493 J0.5227
G1 X0.8389 Y0.1375
G1 X5.5889 Y0.1375
G1 X5.8383 Y0.1375
G1 X5.8389 Y0.1375
G3 X5.9742 Y0.1554 I-0.0007 J0.525
G3 X6.1008 Y0.2078 I-0.1359 J0.5071
G3 X6.2095 Y0.2913 I-0.2625 J0.4547
G3 X6.2929 Y0.4 I-0.3712 J0.3712
G3 X6.3454 Y0.5266 I-0.4547 J0.2625
G3 X6.3633 Y0.6625 I-0.5071 J0.1359
G1 X6.3633 Y3.8625
G3 X6.3454 Y3.9984 I-0.525 J0
G3 X6.2929 Y4.125 I-0.5071 J-0.1359
G3 X6.2095 Y4.2337 I-0.4547 J-0.2625
G3 X6.1008 Y4.3172 I-0.3712 J-0.3712
G3 X5.9742 Y4.3696 I-0.2625 J-0.4547
G3 X5.8383 Y4.3875 I-0.1359 J-0.5071
G1 Z-0.1 F10
G1 X5.5883 Y4.3875 F20
G1 X0.8383 Y4.3875
G1 X0.6383 Y4.3875
G3 X0.5884 Y4.3851 I0 J-0.525
G3 X0.5024 Y4.3696 I0.0499 J-0.5226
G3 X0.3758 Y4.3172 I0.1359 J-0.5071
G3 X0.2671 Y4.2337 I0.2625 J-0.4547
G3 X0.1836 Y4.125 I0.3712 J-0.3712
G3 X0.1312 Y3.9984 I0.4547 J-0.2625
G3 X0.1133 Y3.8625 I0.5071 J-0.1359
G1 X0.1133 Y0.6625
G3 X0.1312 Y0.5266 I0.525 J0
G3 X0.1836 Y0.4 I0.5071 J0.1359
G3 X0.2671 Y0.2913 I0.4547 J0.2625
G3 X0.3758 Y0.2078 I0.3712 J0.3712
G3 X0.5024 Y0.1554 I0.2625 J0.4547
G3 X0.589 Y0.1398 I0.1359 J0.5071
G3 X0.6383 Y0.1375 I0.0493 J0.5227
G1 X0.8389 Y0.1375
G1 X5.5889 Y0.1375
G1 X5.8383 Y0.1375
G1 X5.8389 Y0.1375
G3 X5.9742 Y0.1554 I-0.0007 J0.525
G3 X6.1008 Y0.2078 I-0.1359 J0.5071
G3 X6.2095 Y0.2913 I-0.2625 J0.4547
G3 X6.2929 Y0.4 I-0.3712 J0.3712
G3 X6.3454 Y0.5266 I-0.4547 J0.2625
G3 X6.3633 Y0.6625 I-0.5071 J0.1359
G1 X6.3633 Y3.8625
G3 X6.3454 Y3.9984 I-0.525 J0
G3 X6.2929 Y4.125 I-0.5071 J-0.1359
G3 X6.2095 Y4.2337 I-0.4547 J-0.2625
G3 X6.1008 Y4.3172 I-0.3712 J-0.3712
G3 X5.9742 Y4.3696 I-0.2625 J-0.4547
G3 X5.8383 Y4.3875 I-0.1359 J-0.5071
G1 Z-0.15 F10
G1 X5.5883 Y4.3875 F20
G1 X0.8383 Y4.3875
G1 X0.6383 Y4.3875
G3 X0.5884 Y4.3851 I0 J-0.525
G3 X0.5024 Y4.3696 I0.0499 J-0.5226
G3 X0.3758 Y4.3172 I0.1359 J-0.5071
G3 X0.2671 Y4.2337 I0.2625 J-0.4547
G3 X0.1836 Y4.125 I0.3712 J-0.3712
G3 X0.1312 Y3.9984 I0.4547 J-0.2625
G3 X0.1133 Y3.8625 I0.5071 J-0.1359
G1 X0.1133 Y0.6625
G3 X0.1312 Y0.5266 I0.525 J0
G3 X0.1836 Y0.4 I0.5071 J0.1359
G3 X0.2671 Y0.2913 I0.4547 J0.2625
G3 X0.3758 Y0.2078 I0.3712 J0.3712
G3 X0.5024 Y0.1554 I0.2625 J0.4547
G3 X0.589 Y0.1398 I0.1359 J0.5071
G3 X0.6383 Y0.1375 I0.0493 J0.5227
G1 X0.8389 Y0.1375
G1 X5.5889 Y0.1375
G1 X5.8383 Y0.1375
G1 X5.8389 Y0.1375
G3 X5.9742 Y0.1554 I-0.0007 J0.525
G3 X6.1008 Y0.2078 I-0.1359 J0.5071
G3 X6.2095 Y0.2913 I-0.2625 J0.4547
G3 X6.2929 Y0.4 I-0.3712 J0.3712
G3 X6.3454 Y0.5266 I-0.4547 J0.2625
G3 X6.3633 Y0.6625 I-0.5071 J0.1359
G1 X6.3633 Y3.8625
G3 X6.3454 Y3.9984 I-0.525 J0
G3 X6.2929 Y4.125 I-0.5071 J-0.1359
G3 X6.2095 Y4.2337 I-0.4547 J-0.2625
G3 X6.1008 Y4.3172 I-0.3712 J-0.3712
G3 X5.9742 Y4.3696 I-0.2625 J-0.4547
G3 X5.8383 Y4.3875 I-0.1359 J-0.5071
G1 Z-0.2 F10
G1 X5.5883 Y4.3875 F20
G1 X0.8383 Y4.3875
G1 X0.6383 Y4.3875
G3 X0.5884 Y4.3851 I0 J-0.525
G3 X0.5024 Y4.3696 I0.0499 J-0.5226
G3 X0.3758 Y4.3172 I0.1359 J-0.5071
G3 X0.2671 Y4.2337 I0.2625 J-0.4547
G3 X0.1836 Y4.125 I0.3712 J-0.3712
G3 X0.1312 Y3.9984 I0.4547 J-0.2625
G3 X0.1133 Y3.8625 I0.5071 J-0.1359
G1 X0.1133 Y0.6625
G3 X0.1312 Y0.5266 I0.525 J0
G3 X0.1836 Y0.4 I0.5071 J0.1359
G3 X0.2671 Y0.2913 I0.4547 J0.2625
G3 X0.3758 Y0.2078 I0.3712 J0.3712
G3 X0.5024 Y0.1554 I0.2625 J0.4547
G3 X0.589 Y0.1398 I0.1359 J0.5071
G3 X0.6383 Y0.1375 I0.0493 J0.5227
G1 X0.8389 Y0.1375
G1 X5.5889 Y0.1375
G1 X5.8383 Y0.1375
G1 X5.8389 Y0.1375
G3 X5.9742 Y0.1554 I-0.0007 J0.525
G3 X6.1008 Y0.2078 I-0.1359 J0.5071
G3 X6.2095 Y0.2913 I-0.2625 J0.4547
G3 X6.2929 Y0.4 I-0.3712 J0.3712
G3 X6.3454 Y0.5266 I-0.4547 J0.2625
G3 X6.3633 Y0.6625 I-0.5071 J0.1359
G1 X6.3633 Y3.8625
G3 X6.3454 Y3.9984 I-0.525 J0
G3 X6.2929 Y4.125 I-0.5071 J-0.1359
G3 X6.2095 Y4.2337 I-0.4547 J-0.2625
G3 X6.1008 Y4.3172 I-0.3712 J-0.3712
G3 X5.9742 Y4.3696 I-0.2625 J-0.4547
G3 X5.8383 Y4.3875 I-0.1359 J-0.5071
G1 Z-0.25 F10
G1 X5.5883 Y4.3875 F20
G1 X0.8383 Y4.3875
G1 X0.6383 Y4.3875
G3 X0.5884 Y4.3851 I0 J-0.525
G3 X0.5024 Y4.3696 I0.0499 J-0.5226
G3 X0.3758 Y4.3172 I0.1359 J-0.5071
G3 X0.2671 Y4.2337 I0.2625 J-0.4547
G3 X0.1836 Y4.125 I0.3712 J-0.3712
G3 X0.1312 Y3.9984 I0.4547 J-0.2625
G3 X0.1133 Y3.8625 I0.5071 J-0.1359
G1 X0.1133 Y0.6625
G3 X0.1312 Y0.5266 I0.525 J0
G3 X0.1836 Y0.4 I0.5071 J0.1359
G3 X0.2671 Y0.2913 I0.4547 J0.2625
G3 X0.3758 Y0.2078 I0.3712 J0.3712
G3 X0.5024 Y0.1554 I0.2625 J0.4547
G3 X0.589 Y0.1398 I0.1359 J0.5071
G3 X0.6383 Y0.1375 I0.0493 J0.5227
G1 X0.8389 Y0.1375
G1 X5.5889 Y0.1375
G1 X5.8383 Y0.1375
G1 X5.8389 Y0.1375
G3 X5.9742 Y0.1554 I-0.0007 J0.525
G3 X6.1008 Y0.2078 I-0.1359 J0.5071
G3 X6.2095 Y0.2913 I-0.2625 J0.4547
G3 X6.2929 Y0.4 I-0.3712 J0.3712
G3 X6.3454 Y0.5266 I-0.4547 J0.2625
G3 X6.3633 Y0.6625 I-0.5071 J0.1359
G1 X6.3633 Y3.8625
G3 X6.3454 Y3.9984 I-0.525 J0
G3 X6.2929 Y4.125 I-0.5071 J-0.1359
G3 X6.2095 Y4.2337 I-0.4547 J-0.2625
G3 X6.1008 Y4.3172 I-0.3712 J-0.3712
G3 X5.9742 Y4.3696 I-0.2625 J-0.4547
G3 X5.8383 Y4.3875 I-0.1359 J-0.5071
G1 Z-0.3 F10
G1 X5.5883 Y4.3875 F20
G1 X0.8383 Y4.3875
G1 X0.6383 Y4.3875
G3 X0.5884 Y4.3851 I0 J-0.525
G3 X0.5024 Y4.3696 I0.0499 J-0.5226
G3 X0.3758 Y4.3172 I0.1359 J-0.5071
G3 X0.2671 Y4.2337 I0.2625 J-0.4547
G3 X0.1836 Y4.125 I0.3712 J-0.3712
G3 X0.1312 Y3.9984 I0.4547 J-0.2625
G3 X0.1133 Y3.8625 I0.5071 J-0.1359
G1 X0.1133 Y0.6625
G3 X0.1312 Y0.5266 I0.525 J0
G3 X0.1836 Y0.4 I0.5071 J0.1359
G3 X0.2671 Y0.2913 I0.4547 J0.2625
G3 X0.3758 Y0.2078 I0.3712 J0.3712
G3 X0.5024 Y0.1554 I0.2625 J0.4547
G3 X0.589 Y0.1398 I0.1359 J0.5071
G3 X0.6383 Y0.1375 I0.0493 J0.5227
G1 X0.8389 Y0.1375
G1 X5.5889 Y0.1375
G1 X5.8383 Y0.1375
G1 X5.8389 Y0.1375
G3 X5.9742 Y0.1554 I-0.0007 J0.525
G3 X6.1008 Y0.2078 I-0.1359 J0.5071
G3 X6.2095 Y0.2913 I-0.2625 J0.4547
G3 X6.2929 Y0.4 I-0.3712 J0.3712
G3 X6.3454 Y0.5266 I-0.4547 J0.2625
G3 X6.3633 Y0.6625 I-0.5071 J0.1359
G1 X6.3633 Y3.8625
G3 X6.3454 Y3.9984 I-0.525 J0
G3 X6.2929 Y4.125 I-0.5071 J-0.1359
G3 X6.2095 Y4.2337 I-0.4547 J-0.2625
G3 X6.1008 Y4.3172 I-0.3712 J-0.3712
G3 X5.9742 Y4.3696 I-0.2625 J-0.4547
G3 X5.8383 Y4.3875 I-0.1359 J-0.5071
G1 Z-0.35 F10
G1 X5.5883 Y4.3875 F20
G1 X0.8383 Y4.3875
G1 X0.6383 Y4.3875
G3 X0.5884 Y4.3851 I0 J-0.525
G3 X0.5024 Y4.3696 I0.0499 J-0.5226
G3 X0.3758 Y4.3172 I0.1359 J-0.5071
G3 X0.2671 Y4.2337 I0.2625 J-0.4547
G3 X0.1836 Y4.125 I0.3712 J-0.3712
G3 X0.1312 Y3.9984 I0.4547 J-0.2625
G3 X0.1133 Y3.8625 I0.5071 J-0.1359
G1 X0.1133 Y0.6625
G3 X0.1312 Y0.5266 I0.525 J0
G3 X0.1836 Y0.4 I0.5071 J0.1359
G3 X0.2671 Y0.2913 I0.4547 J0.2625
G3 X0.3758 Y0.2078 I0.3712 J0.3712
G3 X0.5024 Y0.1554 I0.2625 J0.4547
G3 X0.589 Y0.1398 I0.1359 J0.5071
G3 X0.6383 Y0.1375 I0.0493 J0.5227
G1 X0.8389 Y0.1375
G1 X5.5889 Y0.1375
G1 X5.8383 Y0.1375
G1 X5.8389 Y0.1375
G3 X5.9742 Y0.1554 I-0.0007 J0.525
G3 X6.1008 Y0.2078 I-0.1359 J0.5071
G3 X6.2095 Y0.2913 I-0.2625 J0.4547
G3 X6.2929 Y0.4 I-0.3712 J0.3712
G3 X6.3454 Y0.5266 I-0.4547 J0.2625
G3 X6.3633 Y0.6625 I-0.5071 J0.1359
G1 X6.3633 Y3.8625
G3 X6.3454 Y3.9984 I-0.525 J0
G3 X6.2929 Y4.125 I-0.5071 J-0.1359
G3 X6.2095 Y4.2337 I-0.4547 J-0.2625
G3 X6.1008 Y4.3172 I-0.3712 J-0.3712
G3 X5.9742 Y4.3696 I-0.2625 J-0.4547
G3 X5.8383 Y4.3875 I-0.1359 J-0.5071
G1 Z-0.4 F10
G1 X5.5883 Y4.3875 F20
G1 X0.8383 Y4.3875
G1 X0.6383 Y4.3875
G3 X0.5884 Y4.3851 I0 J-0.525
G3 X0.5024 Y4.3696 I0.0499 J-0.5226
G3 X0.3758 Y4.3172 I0.1359 J-0.5071
G3 X0.2671 Y4.2337 I0.2625 J-0.4547
G3 X0.1836 Y4.125 I0.3712 J-0.3712
G3 X0.1312 Y3.9984 I0.4547 J-0.2625
G3 X0.1133 Y3.8625 I0.5071 J-0.1359
G1 X0.1133 Y0.6625
G3 X0.1312 Y0.5266 I0.525 J0
G3 X0.1836 Y0.4 I0.5071 J0.1359
G3 X0.2671 Y0.2913 I0.4547 J0.2625
G3 X0.3758 Y0.2078 I0.3712 J0.3712
G3 X0.5024 Y0.1554 I0.2625 J0.4547
G3 X0.589 Y0.1398 I0.1359 J0.5071
G3 X0.6383 Y0.1375 I0.0493 J0.5227
G1 X0.8389 Y0.1375
G1 X5.5889 Y0.1375
G1 X5.8383 Y0.1375
G1 X5.8389 Y0.1375
G3 X5.9742 Y0.1554 I-0.0007 J0.525
G3 X6.1008 Y0.2078 I-0.1359 J0.5071
G3 X6.2095 Y0.2913 I-0.2625 J0.4547
G3 X6.2929 Y0.4 I-0.3712 J0.3712
G3 X6.3454 Y0.5266 I-0.4547 J0.2625
G3 X6.3633 Y0.6625 I-0.5071 J0.1359
G1 X6.3633 Y3.8625
G3 X6.3454 Y3.9984 I-0.525 J0
G3 X6.2929 Y4.125 I-0.5071 J-0.1359
G3 X6.2095 Y4.2337 I-0.4547 J-0.2625
G3 X6.1008 Y4.3172 I-0.3712 J-0.3712
G3 X5.9742 Y4.3696 I-0.2625 J-0.4547
G3 X5.8383 Y4.3875 I-0.1359 J-0.5071
G1 Z-0.45 F10
G1 X5.5883 Y4.3875 F20
G1 X0.8383 Y4.3875
G1 X0.6383 Y4.3875
G3 X0.5884 Y4.3851 I0 J-0.525
G3 X0.5024 Y4.3696 I0.0499 J-0.5226
G3 X0.3758 Y4.3172 I0.1359 J-0.5071
G3 X0.2671 Y4.2337 I0.2625 J-0.4547
G3 X0.1836 Y4.125 I0.3712 J-0.3712
G3 X0.1312 Y3.9984 I0.4547 J-0.2625
G3 X0.1133 Y3.8625 I0.5071 J-0.1359
G1 X0.1133 Y0.6625
G3 X0.1312 Y0.5266 I0.525 J0
G3 X0.1836 Y0.4 I0.5071 J0.1359
G3 X0.2671 Y0.2913 I0.4547 J0.2625
G3 X0.3758 Y0.2078 I0.3712 J0.3712
G3 X0.5024 Y0.1554 I0.2625 J0.4547
G3 X0.589 Y0.1398 I0.1359 J0.5071
G3 X0.6383 Y0.1375 I0.0493 J0.5227
G1 X0.8389 Y0.1375
G1 X5.5889 Y0.1375
G1 X5.8383 Y0.1375
G1 X5.8389 Y0.1375
G3 X5.9742 Y0.1554 I-0.0007 J0.525
G3 X6.1008 Y0.2078 I-0.1359 J0.5071
G3 X6.2095 Y0.2913 I-0.2625 J0.4547
G3 X6.2929 Y0.4 I-0.3712 J0.3712
G3 X6.3454 Y0.5266 I-0.4547 J0.2625
G3 X6.3633 Y0.6625 I-0.5071 J0.1359
G1 X6.3633 Y3.8625
G3 X6.3454 Y3.9984 I-0.525 J0
G3 X6.2929 Y4.125 I-0.5071 J-0.1359
G3 X6.2095 Y4.2337 I-0.4547 J-0.2625
G3 X6.1008 Y4.3172 I-0.3712 J-0.3712
G3 X5.9742 Y4.3696 I-0.2625 J-0.4547
G3 X5.8383 Y4.3875 I-0.1359 J-0.5071
G1 Z-0.5 F10
G1 X5.5883 Y4.3875 F20
G1 X0.8383 Y4.3875
G1 X0.6383 Y4.3875
G3 X0.5884 Y4.3851 I0 J-0.525
G3 X0.5024 Y4.3696 I0.0499 J-0.5226
G3 X0.3758 Y4.3172 I0.1359 J-0.5071
G3 X0.2671 Y4.2337 I0.2625 J-0.4547
G3 X0.1836 Y4.125 I0.3712 J-0.3712
G3 X0.1312 Y3.9984 I0.4547 J-0.2625
G3 X0.1133 Y3.8625 I0.5071 J-0.1359
G1 X0.1133 Y0.6625
G3 X0.1312 Y0.5266 I0.525 J0
G3 X0.1836 Y0.4 I0.5071 J0.1359
G3 X0.2671 Y0.2913 I0.4547 J0.2625
G3 X0.3758 Y0.2078 I0.3712 J0.3712
G3 X0.5024 Y0.1554 I0.2625 J0.4547
G3 X0.589 Y0.1398 I0.1359 J0.5071
G3 X0.6383 Y0.1375 I0.0493 J0.5227
G1 X0.8389 Y0.1375
G1 X5.5889 Y0.1375
G1 X5.8383 Y0.1375
G1 X5.8389 Y0.1375
G3 X5.9742 Y0.1554 I-0.0007 J0.525
G3 X6.1008 Y0.2078 I-0.1359 J0.5071
G3 X6.2095 Y0.2913 I-0.2625 J0.4547
G3 X6.2929 Y0.4 I-0.3712 J0.3712
G3 X6.3454 Y0.5266 I-0.4547 J0.2625
G3 X6.3633 Y0.6625 I-0.5071 J0.1359
G1 X6.3633 Y3.8625
G3 X6.3454 Y3.9984 I-0.525 J0
G3 X6.2929 Y4.125 I-0.5071 J-0.1359
G3 X6.2095 Y4.2337 I-0.4547 J-0.2625
G3 X6.1008 Y4.3172 I-0.3712 J-0.3712
G3 X5.9742 Y4.3696 I-0.2625 J-0.4547
G3 X5.8383 Y4.3875 I-0.1359 J-0.5071
G1 Z-0.55 F10
G1 Z-0.5 F10
G1 X5.5883 Y4.3875 F20
G1 Z-0.55 F10
G1 X0.8383 Y4.3875 F20
G1 Z-0.5 F10
G1 X0.6383 Y4.3875 F20
G3 X0.5884 Y4.3851 I0 J-0.525
G1 Z-0.55 F10
G3 X0.5024 Y4.3696 I0.0499 J-0.5226 F20
G3 X0.3758 Y4.3172 I0.1359 J-0.5071
G3 X0.2671 Y4.2337 I0.2625 J-0.4547
G3 X0.1836 Y4.125 I0.3712 J-0.3712
G3 X0.1312 Y3.9984 I0.4547 J-0.2625
G3 X0.1133 Y3.8625 I0.5071 J-0.1359
G1 X0.1133 Y0.6625
G3 X0.1312 Y0.5266 I0.525 J0
G3 X0.1836 Y0.4 I0.5071 J0.1359
G3 X0.2671 Y0.2913 I0.4547 J0.2625
G3 X0.3758 Y0.2078 I0.3712 J0.3712
G3 X0.5024 Y0.1554 I0.2625 J0.4547
G3 X0.589 Y0.1398 I0.1359 J0.5071
G1 Z-0.5 F10
G3 X0.6383 Y0.1375 I0.0493 J0.5227 F20
G1 X0.8389 Y0.1375
G1 Z-0.55 F10
G1 X5.5889 Y0.1375 F20
G1 Z-0.5 F10
G1 X5.8383 Y0.1375 F20
G1 X5.8389 Y0.1375
G1 Z-0.55 F10
G3 X5.9742 Y0.1554 I-0.0007 J0.525 F20
G3 X6.1008 Y0.2078 I-0.1359 J0.5071
G3 X6.2095 Y0.2913 I-0.2625 J0.4547
G3 X6.2929 Y0.4 I-0.3712 J0.3712
G3 X6.3454 Y0.5266 I-0.4547 J0.2625
G3 X6.3633 Y0.6625 I-0.5071 J0.1359
G1 X6.3633 Y3.8625
G3 X6.3454 Y3.9984 I-0.525 J0
G3 X6.2929 Y4.125 I-0.5071 J-0.1359
G3 X6.2095 Y4.2337 I-0.4547 J-0.2625
G3 X6.1008 Y4.3172 I-0.3712 J-0.3712
G3 X5.9742 Y4.3696 I-0.2625 J-0.4547
G3 X5.8383 Y4.3875 I-0.1359 J-0.5071
G1 Z-0.6 F10
G1 Z-0.5 F10
G1 X5.5883 Y4.3875 F20
G1 Z-0.6 F10
G1 X0.8383 Y4.3875 F20
G1 Z-0.5 F10
G1 X0.6383 Y4.3875 F20
G3 X0.5884 Y4.3851 I0 J-0.525
G1 Z-0.6 F10
G3 X0.5024 Y4.3696 I0.0499 J-0.5226 F20
G3 X0.3758 Y4.3172 I0.1359 J-0.5071
G3 X0.2671 Y4.2337 I0.2625 J-0.4547
G3 X0.1836 Y4.125 I0.3712 J-0.3712
G3 X0.1312 Y3.9984 I0.4547 J-0.2625
G3 X0.1133 Y3.8625 I0.5071 J-0.1359
G1 X0.1133 Y0.6625
G3 X0.1312 Y0.5266 I0.525 J0
G3 X0.1836 Y0.4 I0.5071 J0.1359
G3 X0.2671 Y0.2913 I0.4547 J0.2625
G3 X0.3758 Y0.2078 I0.3712 J0.3712
G3 X0.5024 Y0.1554 I0.2625 J0.4547
G3 X0.589 Y0.1398 I0.1359 J0.5071
G1 Z-0.5 F10
G3 X0.6383 Y0.1375 I0.0493 J0.5227 F20
G1 X0.8389 Y0.1375
G1 Z-0.6 F10
G1 X5.5889 Y0.1375 F20
G1 Z-0.5 F10
G1 X5.8383 Y0.1375 F20
G1 X5.8389 Y0.1375
G1 Z-0.6 F10
G3 X5.9742 Y0.1554 I-0.0007 J0.525 F20
G3 X6.1008 Y0.2078 I-0.1359 J0.5071
G3 X6.2095 Y0.2913 I-0.2625 J0.4547
G3 X6.2929 Y0.4 I-0.3712 J0.3712
G3 X6.3454 Y0.5266 I-0.4547 J0.2625
G3 X6.3633 Y0.6625 I-0.5071 J0.1359
G1 X6.3633 Y3.8625
G3 X6.3454 Y3.9984 I-0.525 J0
G3 X6.2929 Y4.125 I-0.5071 J-0.1359
G3 X6.2095 Y4.2337 I-0.4547 J-0.2625
G3 X6.1008 Y4.3172 I-0.3712 J-0.3712
G3 X5.9742 Y4.3696 I-0.2625 J-0.4547
G3 X5.8383 Y4.3875 I-0.1359 J-0.5071
G1 Z-0.65 F10
G1 Z-0.5 F10
G1 X5.5883 Y4.3875 F20
G1 Z-0.65 F10
G1 X0.8383 Y4.3875 F20
G1 Z-0.5 F10
G1 X0.6383 Y4.3875 F20
G3 X0.5884 Y4.3851 I0 J-0.525
G1 Z-0.65 F10
G3 X0.5024 Y4.3696 I0.0499 J-0.5226 F20
G3 X0.3758 Y4.3172 I0.1359 J-0.5071
G3 X0.2671 Y4.2337 I0.2625 J-0.4547
G3 X0.1836 Y4.125 I0.3712 J-0.3712
G3 X0.1312 Y3.9984 I0.4547 J-0.2625
G3 X0.1133 Y3.8625 I0.5071 J-0.1359
G1 X0.1133 Y0.6625
G3 X0.1312 Y0.5266 I0.525 J0
G3 X0.1836 Y0.4 I0.5071 J0.1359
G3 X0.2671 Y0.2913 I0.4547 J0.2625
G3 X0.3758 Y0.2078 I0.3712 J0.3712
G3 X0.5024 Y0.1554 I0.2625 J0.4547
G3 X0.589 Y0.1398 I0.1359 J0.5071
G1 Z-0.5 F10
G3 X0.6383 Y0.1375 I0.0493 J0.5227 F20
G1 X0.8389 Y0.1375
G1 Z-0.65 F10
G1 X5.5889 Y0.1375 F20
G1 Z-0.5 F10
G1 X5.8383 Y0.1375 F20
G1 X5.8389 Y0.1375
G1 Z-0.65 F10
G3 X5.9742 Y0.1554 I-0.0007 J0.525 F20
G3 X6.1008 Y0.2078 I-0.1359 J0.5071
G3 X6.2095 Y0.2913 I-0.2625 J0.4547
G3 X6.2929 Y0.4 I-0.3712 J0.3712
G3 X6.3454 Y0.5266 I-0.4547 J0.2625
G3 X6.3633 Y0.6625 I-0.5071 J0.1359
G1 X6.3633 Y3.8625
G3 X6.3454 Y3.9984 I-0.525 J0
G3 X6.2929 Y4.125 I-0.5071 J-0.1359
G3 X6.2095 Y4.2337 I-0.4547 J-0.2625
G3 X6.1008 Y4.3172 I-0.3712 J-0.3712
G3 X5.9742 Y4.3696 I-0.2625 J-0.4547
G3 X5.8383 Y4.3875 I-0.1359 J-0.5071
G1 Z-0.7 F10
G1 Z-0.5 F10
G1 X5.5883 Y4.3875 F20
G1 Z-0.7 F10
G1 X0.8383 Y4.3875 F20
G1 Z-0.5 F10
G1 X0.6383 Y4.3875 F20
G3 X0.5884 Y4.3851 I0 J-0.525
G1 Z-0.7 F10
G3 X0.5024 Y4.3696 I0.0499 J-0.5226 F20
G3 X0.3758 Y4.3172 I0.1359 J-0.5071
G3 X0.2671 Y4.2337 I0.2625 J-0.4547
G3 X0.1836 Y4.125 I0.3712 J-0.3712
G3 X0.1312 Y3.9984 I0.4547 J-0.2625
G3 X0.1133 Y3.8625 I0.5071 J-0.1359
G1 X0.1133 Y0.6625
G3 X0.1312 Y0.5266 I0.525 J0
G3 X0.1836 Y0.4 I0.5071 J0.1359
G3 X0.2671 Y0.2913 I0.4547 J0.2625
G3 X0.3758 Y0.2078 I0.3712 J0.3712
G3 X0.5024 Y0.1554 I0.2625 J0.4547
G3 X0.589 Y0.1398 I0.1359 J0.5071
G1 Z-0.5 F10
G3 X0.6383 Y0.1375 I0.0493 J0.5227 F20
G1 X0.8389 Y0.1375
G1 Z-0.7 F10
G1 X5.5889 Y0.1375 F20
G1 Z-0.5 F10
G1 X5.8383 Y0.1375 F20
G1 X5.8389 Y0.1375
G1 Z-0.7 F10
G3 X5.9742 Y0.1554 I-0.0007 J0.525 F20
G3 X6.1008 Y0.2078 I-0.1359 J0.5071
G3 X6.2095 Y0.2913 I-0.2625 J0.4547
G3 X6.2929 Y0.4 I-0.3712 J0.3712
G3 X6.3454 Y0.5266 I-0.4547 J0.2625
G3 X6.3633 Y0.6625 I-0.5071 J0.1359
G1 X6.3633 Y3.8625
G3 X6.3454 Y3.9984 I-0.525 J0
G3 X6.2929 Y4.125 I-0.5071 J-0.1359
G3 X6.2095 Y4.2337 I-0.4547 J-0.2625
G3 X6.1008 Y4.3172 I-0.3712 J-0.3712
G3 X5.9742 Y4.3696 I-0.2625 J-0.4547
G3 X5.8383 Y4.3875 I-0.1359 J-0.5071
G1 Z-0.75 F10
G1 Z-0.5 F10
G1 X5.5883 Y4.3875 F20
G1 Z-0.75 F10
G1 X0.8383 Y4.3875 F20
G1 Z-0.5 F10
G1 X0.6383 Y4.3875 F20
G3 X0.5884 Y4.3851 I0 J-0.525
G1 Z-0.75 F10
G3 X0.5024 Y4.3696 I0.0499 J-0.5226 F20
G3 X0.3758 Y4.3172 I0.1359 J-0.5071
G3 X0.2671 Y4.2337 I0.2625 J-0.4547
G3 X0.1836 Y4.125 I0.3712 J-0.3712
G3 X0.1312 Y3.9984 I0.4547 J-0.2625
G3 X0.1133 Y3.8625 I0.5071 J-0.1359
G1 X0.1133 Y0.6625
G3 X0.1312 Y0.5266 I0.525 J0
G3 X0.1836 Y0.4 I0.5071 J0.1359
G3 X0.2671 Y0.2913 I0.4547 J0.2625
G3 X0.3758 Y0.2078 I0.3712 J0.3712
G3 X0.5024 Y0.1554 I0.2625 J0.4547
G3 X0.589 Y0.1398 I0.1359 J0.5071
G1 Z-0.5 F10
G3 X0.6383 Y0.1375 I0.0493 J0.5227 F20
G1 X0.8389 Y0.1375
G1 Z-0.75 F10
G1 X5.5889 Y0.1375 F20
G1 Z-0.5 F10
G1 X5.8383 Y0.1375 F20
G1 X5.8389 Y0.1375
G1 Z-0.75 F10
G3 X5.9742 Y0.1554 I-0.0007 J0.525 F20
G3 X6.1008 Y0.2078 I-0.1359 J0.5071
G3 X6.2095 Y0.2913 I-0.2625 J0.4547
G3 X6.2929 Y0.4 I-0.3712 J0.3712
G3 X6.3454 Y0.5266 I-0.4547 J0.2625
G3 X6.3633 Y0.6625 I-0.5071 J0.1359
G1 X6.3633 Y3.8625
G3 X6.3454 Y3.9984 I-0.525 J0
G3 X6.2929 Y4.125 I-0.5071 J-0.1359
G3 X6.2095 Y4.2337 I-0.4547 J-0.2625
G3 X6.1008 Y4.3172 I-0.3712 J-0.3712
G3 X5.9742 Y4.3696 I-0.2625 J-0.4547
G3 X5.8383 Y4.3875 I-0.1359 J-0.5071
G0 Z0.5
M5
M30
