(Generated by PartKam Version 0.05)

G20 G90 G40

(pocket 1)
G0 Z0.5
T0 M6
G17
M3
G0 X4.19 Y2.2338
G1 Z-0.05 F10
G1 X2.14 Y2.2338 F20
G1 X2.14 Y2.1838
G1 X4.19 Y2.1838
G1 X4.19 Y2.2338
G1 X4.29 Y2.3338 F20
G1 X2.04 Y2.3338 F20
G1 X2.04 Y2.0838
G1 X4.29 Y2.0838
G1 X4.29 Y2.3338
G1 X4.39 Y2.4338 F20
G1 X1.94 Y2.4338 F20
G1 X1.94 Y1.9838
G1 X4.39 Y1.9838
G1 X4.39 Y2.4338
G1 X4.49 Y2.5338 F20
G1 X1.84 Y2.5338 F20
G1 X1.84 Y1.8838
G1 X4.49 Y1.8838
G1 X4.49 Y2.5338
G1 X4.59 Y2.6338 F20
G1 X1.74 Y2.6338 F20
G1 X1.74 Y1.7838
G1 X4.59 Y1.7838
G1 X4.59 Y2.6338
G1 X4.69 Y2.7338 F20
G1 X1.64 Y2.7338 F20
G1 X1.64 Y1.6838
G1 X4.69 Y1.6838
G1 X4.69 Y2.7338
G1 X4.79 Y2.8338 F20
G1 X1.54 Y2.8338 F20
G1 X1.54 Y1.5838
G1 X4.79 Y1.5838
G1 X4.79 Y2.8338
G1 X4.89 Y2.9338 F20
G1 X1.44 Y2.9338 F20
G1 X1.44 Y1.4838
G1 X4.89 Y1.4838
G1 X4.89 Y2.9338
G1 X4.99 Y3.0338 F20
G1 X1.34 Y3.0338 F20
G1 X1.34 Y1.3838
G1 X4.99 Y1.3838
G1 X4.99 Y3.0338
G1 X5.09 Y3.1338 F20
G1 X1.24 Y3.1338 F20
G1 X1.24 Y1.2838
G1 X5.09 Y1.2838
G1 X5.09 Y3.1338
G1 X5.19 Y3.2338 F20
G1 X1.14 Y3.2338 F20
G1 X1.14 Y1.1838
G1 X5.19 Y1.1838
G1 X5.19 Y3.2338
G1 X5.29 Y3.3338 F20
G1 X1.04 Y3.3338 F20
G1 X1.04 Y1.0838
G1 X5.29 Y1.0838
G1 X5.29 Y3.3338
G1 X5.39 Y3.4338 F20
G1 X0.94 Y3.4338 F20
G1 X0.94 Y0.9838
G1 X5.39 Y0.9838
G1 X5.39 Y3.4338
G1 X5.49 Y3.5338 F20
G1 X0.84 Y3.5338 F20
G1 X0.84 Y0.8838
G1 X5.49 Y0.8838
G1 X5.49 Y3.5338
G1 X5.59 Y3.5588 F20
G3 X5.5875 Y3.5782 I-0.075 J0 F20
G3 X5.58 Y3.5963 I-0.0724 J-0.0194
G3 X5.5681 Y3.6118 I-0.065 J-0.0375
G3 X5.5525 Y3.6237 I-0.053 J-0.053
G3 X5.5345 Y3.6312 I-0.0375 J-0.065
G3 X5.515 Y3.6338 I-0.0194 J-0.0724
G1 X0.815 Y3.6338
G3 X0.7956 Y3.6312 I0 J-0.075
G3 X0.7775 Y3.6237 I0.0194 J-0.0724
G3 X0.762 Y3.6118 I0.0375 J-0.065
G3 X0.7501 Y3.5963 I0.053 J-0.053
G3 X0.7426 Y3.5782 I0.065 J-0.0375
G3 X0.74 Y3.5588 I0.0724 J-0.0194
G1 X0.74 Y0.8588
G3 X0.7426 Y0.8394 I0.075 J0
G3 X0.7501 Y0.8213 I0.0724 J0.0194
G3 X0.762 Y0.8058 I0.065 J0.0375
G3 X0.7775 Y0.7938 I0.053 J0.053
G3 X0.7956 Y0.7863 I0.0375 J0.065
G3 X0.815 Y0.7838 I0.0194 J0.0724
G1 X5.515 Y0.7838
G3 X5.5345 Y0.7863 I0 J0.075
G3 X5.5525 Y0.7938 I-0.0194 J0.0724
G3 X5.5681 Y0.8058 I-0.0375 J0.065
G3 X5.58 Y0.8213 I-0.053 J0.053
G3 X5.5875 Y0.8394 I-0.065 J0.0375
G3 X5.59 Y0.8588 I-0.0724 J0.0194
G1 X5.59 Y3.5588
G1 X5.69 Y3.5588 F20
G3 X5.6841 Y3.6041 I-0.175 J0 F20
G3 X5.6666 Y3.6463 I-0.169 J-0.0453
G3 X5.6388 Y3.6825 I-0.1516 J-0.0875
G3 X5.6025 Y3.7103 I-0.1237 J-0.1237
G3 X5.5603 Y3.7278 I-0.0875 J-0.1516
G3 X5.515 Y3.7338 I-0.0453 J-0.169
G1 X0.815 Y3.7338
G3 X0.7697 Y3.7278 I0 J-0.175
G3 X0.7275 Y3.7103 I0.0453 J-0.169
G3 X0.6913 Y3.6825 I0.0875 J-0.1516
G3 X0.6635 Y3.6463 I0.1237 J-0.1237
G3 X0.646 Y3.6041 I0.1516 J-0.0875
G3 X0.64 Y3.5588 I0.169 J-0.0453
G1 X0.64 Y0.8588
G3 X0.646 Y0.8135 I0.175 J0
G3 X0.6635 Y0.7713 I0.169 J0.0453
G3 X0.6913 Y0.735 I0.1516 J0.0875
G3 X0.7275 Y0.7072 I0.1237 J0.1237
G3 X0.7697 Y0.6898 I0.0875 J0.1516
G3 X0.815 Y0.6838 I0.0453 J0.169
G1 X5.515 Y0.6838
G3 X5.5603 Y0.6898 I0 J0.175
G3 X5.6025 Y0.7072 I-0.0453 J0.169
G3 X5.6388 Y0.735 I-0.0875 J0.1516
G3 X5.6666 Y0.7713 I-0.1237 J0.1237
G3 X5.6841 Y0.8135 I-0.1516 J0.0875
G3 X5.69 Y0.8588 I-0.169 J0.0453
G1 X5.69 Y3.5588
G1 X5.79 Y3.5588 F20
G3 X5.7807 Y3.63 I-0.275 J0 F20
G3 X5.7532 Y3.6963 I-0.2656 J-0.0712
G3 X5.7095 Y3.7532 I-0.2382 J-0.1375
G3 X5.6525 Y3.7969 I-0.1945 J-0.1945
G3 X5.5862 Y3.8244 I-0.1375 J-0.2382
G3 X5.515 Y3.8338 I-0.0712 J-0.2656
G1 X0.815 Y3.8338
G3 X0.7439 Y3.8244 I0 J-0.275
G3 X0.6775 Y3.7969 I0.0712 J-0.2656
G3 X0.6206 Y3.7532 I0.1375 J-0.2382
G3 X0.5769 Y3.6963 I0.1945 J-0.1945
G3 X0.5494 Y3.63 I0.2382 J-0.1375
G3 X0.54 Y3.5588 I0.2656 J-0.0712
G1 X0.54 Y0.8588
G3 X0.5494 Y0.7876 I0.275 J0
G3 X0.5769 Y0.7213 I0.2656 J0.0712
G3 X0.6206 Y0.6643 I0.2382 J0.1375
G3 X0.6775 Y0.6206 I0.1945 J0.1945
G3 X0.7439 Y0.5932 I0.1375 J0.2382
G3 X0.815 Y0.5838 I0.0712 J0.2656
G1 X5.515 Y0.5838
G3 X5.5862 Y0.5932 I0 J0.275
G3 X5.6525 Y0.6206 I-0.0712 J0.2656
G3 X5.7095 Y0.6643 I-0.1375 J0.2382
G3 X5.7532 Y0.7213 I-0.1945 J0.1945
G3 X5.7807 Y0.7876 I-0.2382 J0.1375
G3 X5.79 Y0.8588 I-0.2656 J0.0712
G1 X5.79 Y3.5588
G0 Z0.5
G0 X4.19 Y2.2338
G1 Z-0.1 F10
G1 X2.14 Y2.2338 F20
G1 X2.14 Y2.1838
G1 X4.19 Y2.1838
G1 X4.19 Y2.2338
G1 X4.29 Y2.3338 F20
G1 X2.04 Y2.3338 F20
G1 X2.04 Y2.0838
G1 X4.29 Y2.0838
G1 X4.29 Y2.3338
G1 X4.39 Y2.4338 F20
G1 X1.94 Y2.4338 F20
G1 X1.94 Y1.9838
G1 X4.39 Y1.9838
G1 X4.39 Y2.4338
G1 X4.49 Y2.5338 F20
G1 X1.84 Y2.5338 F20
G1 X1.84 Y1.8838
G1 X4.49 Y1.8838
G1 X4.49 Y2.5338
G1 X4.59 Y2.6338 F20
G1 X1.74 Y2.6338 F20
G1 X1.74 Y1.7838
G1 X4.59 Y1.7838
G1 X4.59 Y2.6338
G1 X4.69 Y2.7338 F20
G1 X1.64 Y2.7338 F20
G1 X1.64 Y1.6838
G1 X4.69 Y1.6838
G1 X4.69 Y2.7338
G1 X4.79 Y2.8338 F20
G1 X1.54 Y2.8338 F20
G1 X1.54 Y1.5838
G1 X4.79 Y1.5838
G1 X4.79 Y2.8338
G1 X4.89 Y2.9338 F20
G1 X1.44 Y2.9338 F20
G1 X1.44 Y1.4838
G1 X4.89 Y1.4838
G1 X4.89 Y2.9338
G1 X4.99 Y3.0338 F20
G1 X1.34 Y3.0338 F20
G1 X1.34 Y1.3838
G1 X4.99 Y1.3838
G1 X4.99 Y3.0338
G1 X5.09 Y3.1338 F20
G1 X1.24 Y3.1338 F20
G1 X1.24 Y1.2838
G1 X5.09 Y1.2838
G1 X5.09 Y3.1338
G1 X5.19 Y3.2338 F20
G1 X1.14 Y3.2338 F20
G1 X1.14 Y1.1838
G1 X5.19 Y1.1838
G1 X5.19 Y3.2338
G1 X5.29 Y3.3338 F20
G1 X1.04 Y3.3338 F20
G1 X1.04 Y1.0838
G1 X5.29 Y1.0838
G1 X5.29 Y3.3338
G1 X5.39 Y3.4338 F20
G1 X0.94 Y3.4338 F20
G1 X0.94 Y0.9838
G1 X5.39 Y0.9838
G1 X5.39 Y3.4338
G1 X5.49 Y3.5338 F20
G1 X0.84 Y3.5338 F20
G1 X0.84 Y0.8838
G1 X5.49 Y0.8838
G1 X5.49 Y3.5338
G1 X5.59 Y3.5588 F20
G3 X5.5875 Y3.5782 I-0.075 J0 F20
G3 X5.58 Y3.5963 I-0.0724 J-0.0194
G3 X5.5681 Y3.6118 I-0.065 J-0.0375
G3 X5.5525 Y3.6237 I-0.053 J-0.053
G3 X5.5345 Y3.6312 I-0.0375 J-0.065
G3 X5.515 Y3.6338 I-0.0194 J-0.0724
G1 X0.815 Y3.6338
G3 X0.7956 Y3.6312 I0 J-0.075
G3 X0.7775 Y3.6237 I0.0194 J-0.0724
G3 X0.762 Y3.6118 I0.0375 J-0.065
G3 X0.7501 Y3.5963 I0.053 J-0.053
G3 X0.7426 Y3.5782 I0.065 J-0.0375
G3 X0.74 Y3.5588 I0.0724 J-0.0194
G1 X0.74 Y0.8588
G3 X0.7426 Y0.8394 I0.075 J0
G3 X0.7501 Y0.8213 I0.0724 J0.0194
G3 X0.762 Y0.8058 I0.065 J0.0375
G3 X0.7775 Y0.7938 I0.053 J0.053
G3 X0.7956 Y0.7863 I0.0375 J0.065
G3 X0.815 Y0.7838 I0.0194 J0.0724
G1 X5.515 Y0.7838
G3 X5.5345 Y0.7863 I0 J0.075
G3 X5.5525 Y0.7938 I-0.0194 J0.0724
G3 X5.5681 Y0.8058 I-0.0375 J0.065
G3 X5.58 Y0.8213 I-0.053 J0.053
G3 X5.5875 Y0.8394 I-0.065 J0.0375
G3 X5.59 Y0.8588 I-0.0724 J0.0194
G1 X5.59 Y3.5588
G1 X5.69 Y3.5588 F20
G3 X5.6841 Y3.6041 I-0.175 J0 F20
G3 X5.6666 Y3.6463 I-0.169 J-0.0453
G3 X5.6388 Y3.6825 I-0.1516 J-0.0875
G3 X5.6025 Y3.7103 I-0.1237 J-0.1237
G3 X5.5603 Y3.7278 I-0.0875 J-0.1516
G3 X5.515 Y3.7338 I-0.0453 J-0.169
G1 X0.815 Y3.7338
G3 X0.7697 Y3.7278 I0 J-0.175
G3 X0.7275 Y3.7103 I0.0453 J-0.169
G3 X0.6913 Y3.6825 I0.0875 J-0.1516
G3 X0.6635 Y3.6463 I0.1237 J-0.1237
G3 X0.646 Y3.6041 I0.1516 J-0.0875
G3 X0.64 Y3.5588 I0.169 J-0.0453
G1 X0.64 Y0.8588
G3 X0.646 Y0.8135 I0.175 J0
G3 X0.6635 Y0.7713 I0.169 J0.0453
G3 X0.6913 Y0.735 I0.1516 J0.0875
G3 X0.7275 Y0.7072 I0.1237 J0.1237
G3 X0.7697 Y0.6898 I0.0875 J0.1516
G3 X0.815 Y0.6838 I0.0453 J0.169
G1 X5.515 Y0.6838
G3 X5.5603 Y0.6898 I0 J0.175
G3 X5.6025 Y0.7072 I-0.0453 J0.169
G3 X5.6388 Y0.735 I-0.0875 J0.1516
G3 X5.6666 Y0.7713 I-0.1237 J0.1237
G3 X5.6841 Y0.8135 I-0.1516 J0.0875
G3 X5.69 Y0.8588 I-0.169 J0.0453
G1 X5.69 Y3.5588
G1 X5.79 Y3.5588 F20
G3 X5.7807 Y3.63 I-0.275 J0 F20
G3 X5.7532 Y3.6963 I-0.2656 J-0.0712
G3 X5.7095 Y3.7532 I-0.2382 J-0.1375
G3 X5.6525 Y3.7969 I-0.1945 J-0.1945
G3 X5.5862 Y3.8244 I-0.1375 J-0.2382
G3 X5.515 Y3.8338 I-0.0712 J-0.2656
G1 X0.815 Y3.8338
G3 X0.7439 Y3.8244 I0 J-0.275
G3 X0.6775 Y3.7969 I0.0712 J-0.2656
G3 X0.6206 Y3.7532 I0.1375 J-0.2382
G3 X0.5769 Y3.6963 I0.1945 J-0.1945
G3 X0.5494 Y3.63 I0.2382 J-0.1375
G3 X0.54 Y3.5588 I0.2656 J-0.0712
G1 X0.54 Y0.8588
G3 X0.5494 Y0.7876 I0.275 J0
G3 X0.5769 Y0.7213 I0.2656 J0.0712
G3 X0.6206 Y0.6643 I0.2382 J0.1375
G3 X0.6775 Y0.6206 I0.1945 J0.1945
G3 X0.7439 Y0.5932 I0.1375 J0.2382
G3 X0.815 Y0.5838 I0.0712 J0.2656
G1 X5.515 Y0.5838
G3 X5.5862 Y0.5932 I0 J0.275
G3 X5.6525 Y0.6206 I-0.0712 J0.2656
G3 X5.7095 Y0.6643 I-0.1375 J0.2382
G3 X5.7532 Y0.7213 I-0.1945 J0.1945
G3 X5.7807 Y0.7876 I-0.2382 J0.1375
G3 X5.79 Y0.8588 I-0.2656 J0.0712
G1 X5.79 Y3.5588
G0 Z0.5
G0 X4.19 Y2.2338
G1 Z-0.15 F10
G1 X2.14 Y2.2338 F20
G1 X2.14 Y2.1838
G1 X4.19 Y2.1838
G1 X4.19 Y2.2338
G1 X4.29 Y2.3338 F20
G1 X2.04 Y2.3338 F20
G1 X2.04 Y2.0838
G1 X4.29 Y2.0838
G1 X4.29 Y2.3338
G1 X4.39 Y2.4338 F20
G1 X1.94 Y2.4338 F20
G1 X1.94 Y1.9838
G1 X4.39 Y1.9838
G1 X4.39 Y2.4338
G1 X4.49 Y2.5338 F20
G1 X1.84 Y2.5338 F20
G1 X1.84 Y1.8838
G1 X4.49 Y1.8838
G1 X4.49 Y2.5338
G1 X4.59 Y2.6338 F20
G1 X1.74 Y2.6338 F20
G1 X1.74 Y1.7838
G1 X4.59 Y1.7838
G1 X4.59 Y2.6338
G1 X4.69 Y2.7338 F20
G1 X1.64 Y2.7338 F20
G1 X1.64 Y1.6838
G1 X4.69 Y1.6838
G1 X4.69 Y2.7338
G1 X4.79 Y2.8338 F20
G1 X1.54 Y2.8338 F20
G1 X1.54 Y1.5838
G1 X4.79 Y1.5838
G1 X4.79 Y2.8338
G1 X4.89 Y2.9338 F20
G1 X1.44 Y2.9338 F20
G1 X1.44 Y1.4838
G1 X4.89 Y1.4838
G1 X4.89 Y2.9338
G1 X4.99 Y3.0338 F20
G1 X1.34 Y3.0338 F20
G1 X1.34 Y1.3838
G1 X4.99 Y1.3838
G1 X4.99 Y3.0338
G1 X5.09 Y3.1338 F20
G1 X1.24 Y3.1338 F20
G1 X1.24 Y1.2838
G1 X5.09 Y1.2838
G1 X5.09 Y3.1338
G1 X5.19 Y3.2338 F20
G1 X1.14 Y3.2338 F20
G1 X1.14 Y1.1838
G1 X5.19 Y1.1838
G1 X5.19 Y3.2338
G1 X5.29 Y3.3338 F20
G1 X1.04 Y3.3338 F20
G1 X1.04 Y1.0838
G1 X5.29 Y1.0838
G1 X5.29 Y3.3338
G1 X5.39 Y3.4338 F20
G1 X0.94 Y3.4338 F20
G1 X0.94 Y0.9838
G1 X5.39 Y0.9838
G1 X5.39 Y3.4338
G1 X5.49 Y3.5338 F20
G1 X0.84 Y3.5338 F20
G1 X0.84 Y0.8838
G1 X5.49 Y0.8838
G1 X5.49 Y3.5338
G1 X5.59 Y3.5588 F20
G3 X5.5875 Y3.5782 I-0.075 J0 F20
G3 X5.58 Y3.5963 I-0.0724 J-0.0194
G3 X5.5681 Y3.6118 I-0.065 J-0.0375
G3 X5.5525 Y3.6237 I-0.053 J-0.053
G3 X5.5345 Y3.6312 I-0.0375 J-0.065
G3 X5.515 Y3.6338 I-0.0194 J-0.0724
G1 X0.815 Y3.6338
G3 X0.7956 Y3.6312 I0 J-0.075
G3 X0.7775 Y3.6237 I0.0194 J-0.0724
G3 X0.762 Y3.6118 I0.0375 J-0.065
G3 X0.7501 Y3.5963 I0.053 J-0.053
G3 X0.7426 Y3.5782 I0.065 J-0.0375
G3 X0.74 Y3.5588 I0.0724 J-0.0194
G1 X0.74 Y0.8588
G3 X0.7426 Y0.8394 I0.075 J0
G3 X0.7501 Y0.8213 I0.0724 J0.0194
G3 X0.762 Y0.8058 I0.065 J0.0375
G3 X0.7775 Y0.7938 I0.053 J0.053
G3 X0.7956 Y0.7863 I0.0375 J0.065
G3 X0.815 Y0.7838 I0.0194 J0.0724
G1 X5.515 Y0.7838
G3 X5.5345 Y0.7863 I0 J0.075
G3 X5.5525 Y0.7938 I-0.0194 J0.0724
G3 X5.5681 Y0.8058 I-0.0375 J0.065
G3 X5.58 Y0.8213 I-0.053 J0.053
G3 X5.5875 Y0.8394 I-0.065 J0.0375
G3 X5.59 Y0.8588 I-0.0724 J0.0194
G1 X5.59 Y3.5588
G1 X5.69 Y3.5588 F20
G3 X5.6841 Y3.6041 I-0.175 J0 F20
G3 X5.6666 Y3.6463 I-0.169 J-0.0453
G3 X5.6388 Y3.6825 I-0.1516 J-0.0875
G3 X5.6025 Y3.7103 I-0.1237 J-0.1237
G3 X5.5603 Y3.7278 I-0.0875 J-0.1516
G3 X5.515 Y3.7338 I-0.0453 J-0.169
G1 X0.815 Y3.7338
G3 X0.7697 Y3.7278 I0 J-0.175
G3 X0.7275 Y3.7103 I0.0453 J-0.169
G3 X0.6913 Y3.6825 I0.0875 J-0.1516
G3 X0.6635 Y3.6463 I0.1237 J-0.1237
G3 X0.646 Y3.6041 I0.1516 J-0.0875
G3 X0.64 Y3.5588 I0.169 J-0.0453
G1 X0.64 Y0.8588
G3 X0.646 Y0.8135 I0.175 J0
G3 X0.6635 Y0.7713 I0.169 J0.0453
G3 X0.6913 Y0.735 I0.1516 J0.0875
G3 X0.7275 Y0.7072 I0.1237 J0.1237
G3 X0.7697 Y0.6898 I0.0875 J0.1516
G3 X0.815 Y0.6838 I0.0453 J0.169
G1 X5.515 Y0.6838
G3 X5.5603 Y0.6898 I0 J0.175
G3 X5.6025 Y0.7072 I-0.0453 J0.169
G3 X5.6388 Y0.735 I-0.0875 J0.1516
G3 X5.6666 Y0.7713 I-0.1237 J0.1237
G3 X5.6841 Y0.8135 I-0.1516 J0.0875
G3 X5.69 Y0.8588 I-0.169 J0.0453
G1 X5.69 Y3.5588
G1 X5.79 Y3.5588 F20
G3 X5.7807 Y3.63 I-0.275 J0 F20
G3 X5.7532 Y3.6963 I-0.2656 J-0.0712
G3 X5.7095 Y3.7532 I-0.2382 J-0.1375
G3 X5.6525 Y3.7969 I-0.1945 J-0.1945
G3 X5.5862 Y3.8244 I-0.1375 J-0.2382
G3 X5.515 Y3.8338 I-0.0712 J-0.2656
G1 X0.815 Y3.8338
G3 X0.7439 Y3.8244 I0 J-0.275
G3 X0.6775 Y3.7969 I0.0712 J-0.2656
G3 X0.6206 Y3.7532 I0.1375 J-0.2382
G3 X0.5769 Y3.6963 I0.1945 J-0.1945
G3 X0.5494 Y3.63 I0.2382 J-0.1375
G3 X0.54 Y3.5588 I0.2656 J-0.0712
G1 X0.54 Y0.8588
G3 X0.5494 Y0.7876 I0.275 J0
G3 X0.5769 Y0.7213 I0.2656 J0.0712
G3 X0.6206 Y0.6643 I0.2382 J0.1375
G3 X0.6775 Y0.6206 I0.1945 J0.1945
G3 X0.7439 Y0.5932 I0.1375 J0.2382
G3 X0.815 Y0.5838 I0.0712 J0.2656
G1 X5.515 Y0.5838
G3 X5.5862 Y0.5932 I0 J0.275
G3 X5.6525 Y0.6206 I-0.0712 J0.2656
G3 X5.7095 Y0.6643 I-0.1375 J0.2382
G3 X5.7532 Y0.7213 I-0.1945 J0.1945
G3 X5.7807 Y0.7876 I-0.2382 J0.1375
G3 X5.79 Y0.8588 I-0.2656 J0.0712
G1 X5.79 Y3.5588
G0 Z0.5
G0 X4.19 Y2.2338
G1 Z-0.2 F10
G1 X2.14 Y2.2338 F20
G1 X2.14 Y2.1838
G1 X4.19 Y2.1838
G1 X4.19 Y2.2338
G1 X4.29 Y2.3338 F20
G1 X2.04 Y2.3338 F20
G1 X2.04 Y2.0838
G1 X4.29 Y2.0838
G1 X4.29 Y2.3338
G1 X4.39 Y2.4338 F20
G1 X1.94 Y2.4338 F20
G1 X1.94 Y1.9838
G1 X4.39 Y1.9838
G1 X4.39 Y2.4338
G1 X4.49 Y2.5338 F20
G1 X1.84 Y2.5338 F20
G1 X1.84 Y1.8838
G1 X4.49 Y1.8838
G1 X4.49 Y2.5338
G1 X4.59 Y2.6338 F20
G1 X1.74 Y2.6338 F20
G1 X1.74 Y1.7838
G1 X4.59 Y1.7838
G1 X4.59 Y2.6338
G1 X4.69 Y2.7338 F20
G1 X1.64 Y2.7338 F20
G1 X1.64 Y1.6838
G1 X4.69 Y1.6838
G1 X4.69 Y2.7338
G1 X4.79 Y2.8338 F20
G1 X1.54 Y2.8338 F20
G1 X1.54 Y1.5838
G1 X4.79 Y1.5838
G1 X4.79 Y2.8338
G1 X4.89 Y2.9338 F20
G1 X1.44 Y2.9338 F20
G1 X1.44 Y1.4838
G1 X4.89 Y1.4838
G1 X4.89 Y2.9338
G1 X4.99 Y3.0338 F20
G1 X1.34 Y3.0338 F20
G1 X1.34 Y1.3838
G1 X4.99 Y1.3838
G1 X4.99 Y3.0338
G1 X5.09 Y3.1338 F20
G1 X1.24 Y3.1338 F20
G1 X1.24 Y1.2838
G1 X5.09 Y1.2838
G1 X5.09 Y3.1338
G1 X5.19 Y3.2338 F20
G1 X1.14 Y3.2338 F20
G1 X1.14 Y1.1838
G1 X5.19 Y1.1838
G1 X5.19 Y3.2338
G1 X5.29 Y3.3338 F20
G1 X1.04 Y3.3338 F20
G1 X1.04 Y1.0838
G1 X5.29 Y1.0838
G1 X5.29 Y3.3338
G1 X5.39 Y3.4338 F20
G1 X0.94 Y3.4338 F20
G1 X0.94 Y0.9838
G1 X5.39 Y0.9838
G1 X5.39 Y3.4338
G1 X5.49 Y3.5338 F20
G1 X0.84 Y3.5338 F20
G1 X0.84 Y0.8838
G1 X5.49 Y0.8838
G1 X5.49 Y3.5338
G1 X5.59 Y3.5588 F20
G3 X5.5875 Y3.5782 I-0.075 J0 F20
G3 X5.58 Y3.5963 I-0.0724 J-0.0194
G3 X5.5681 Y3.6118 I-0.065 J-0.0375
G3 X5.5525 Y3.6237 I-0.053 J-0.053
G3 X5.5345 Y3.6312 I-0.0375 J-0.065
G3 X5.515 Y3.6338 I-0.0194 J-0.0724
G1 X0.815 Y3.6338
G3 X0.7956 Y3.6312 I0 J-0.075
G3 X0.7775 Y3.6237 I0.0194 J-0.0724
G3 X0.762 Y3.6118 I0.0375 J-0.065
G3 X0.7501 Y3.5963 I0.053 J-0.053
G3 X0.7426 Y3.5782 I0.065 J-0.0375
G3 X0.74 Y3.5588 I0.0724 J-0.0194
G1 X0.74 Y0.8588
G3 X0.7426 Y0.8394 I0.075 J0
G3 X0.7501 Y0.8213 I0.0724 J0.0194
G3 X0.762 Y0.8058 I0.065 J0.0375
G3 X0.7775 Y0.7938 I0.053 J0.053
G3 X0.7956 Y0.7863 I0.0375 J0.065
G3 X0.815 Y0.7838 I0.0194 J0.0724
G1 X5.515 Y0.7838
G3 X5.5345 Y0.7863 I0 J0.075
G3 X5.5525 Y0.7938 I-0.0194 J0.0724
G3 X5.5681 Y0.8058 I-0.0375 J0.065
G3 X5.58 Y0.8213 I-0.053 J0.053
G3 X5.5875 Y0.8394 I-0.065 J0.0375
G3 X5.59 Y0.8588 I-0.0724 J0.0194
G1 X5.59 Y3.5588
G1 X5.69 Y3.5588 F20
G3 X5.6841 Y3.6041 I-0.175 J0 F20
G3 X5.6666 Y3.6463 I-0.169 J-0.0453
G3 X5.6388 Y3.6825 I-0.1516 J-0.0875
G3 X5.6025 Y3.7103 I-0.1237 J-0.1237
G3 X5.5603 Y3.7278 I-0.0875 J-0.1516
G3 X5.515 Y3.7338 I-0.0453 J-0.169
G1 X0.815 Y3.7338
G3 X0.7697 Y3.7278 I0 J-0.175
G3 X0.7275 Y3.7103 I0.0453 J-0.169
G3 X0.6913 Y3.6825 I0.0875 J-0.1516
G3 X0.6635 Y3.6463 I0.1237 J-0.1237
G3 X0.646 Y3.6041 I0.1516 J-0.0875
G3 X0.64 Y3.5588 I0.169 J-0.0453
G1 X0.64 Y0.8588
G3 X0.646 Y0.8135 I0.175 J0
G3 X0.6635 Y0.7713 I0.169 J0.0453
G3 X0.6913 Y0.735 I0.1516 J0.0875
G3 X0.7275 Y0.7072 I0.1237 J0.1237
G3 X0.7697 Y0.6898 I0.0875 J0.1516
G3 X0.815 Y0.6838 I0.0453 J0.169
G1 X5.515 Y0.6838
G3 X5.5603 Y0.6898 I0 J0.175
G3 X5.6025 Y0.7072 I-0.0453 J0.169
G3 X5.6388 Y0.735 I-0.0875 J0.1516
G3 X5.6666 Y0.7713 I-0.1237 J0.1237
G3 X5.6841 Y0.8135 I-0.1516 J0.0875
G3 X5.69 Y0.8588 I-0.169 J0.0453
G1 X5.69 Y3.5588
G1 X5.79 Y3.5588 F20
G3 X5.7807 Y3.63 I-0.275 J0 F20
G3 X5.7532 Y3.6963 I-0.2656 J-0.0712
G3 X5.7095 Y3.7532 I-0.2382 J-0.1375
G3 X5.6525 Y3.7969 I-0.1945 J-0.1945
G3 X5.5862 Y3.8244 I-0.1375 J-0.2382
G3 X5.515 Y3.8338 I-0.0712 J-0.2656
G1 X0.815 Y3.8338
G3 X0.7439 Y3.8244 I0 J-0.275
G3 X0.6775 Y3.7969 I0.0712 J-0.2656
G3 X0.6206 Y3.7532 I0.1375 J-0.2382
G3 X0.5769 Y3.6963 I0.1945 J-0.1945
G3 X0.5494 Y3.63 I0.2382 J-0.1375
G3 X0.54 Y3.5588 I0.2656 J-0.0712
G1 X0.54 Y0.8588
G3 X0.5494 Y0.7876 I0.275 J0
G3 X0.5769 Y0.7213 I0.2656 J0.0712
G3 X0.6206 Y0.6643 I0.2382 J0.1375
G3 X0.6775 Y0.6206 I0.1945 J0.1945
G3 X0.7439 Y0.5932 I0.1375 J0.2382
G3 X0.815 Y0.5838 I0.0712 J0.2656
G1 X5.515 Y0.5838
G3 X5.5862 Y0.5932 I0 J0.275
G3 X5.6525 Y0.6206 I-0.0712 J0.2656
G3 X5.7095 Y0.6643 I-0.1375 J0.2382
G3 X5.7532 Y0.7213 I-0.1945 J0.1945
G3 X5.7807 Y0.7876 I-0.2382 J0.1375
G3 X5.79 Y0.8588 I-0.2656 J0.0712
G1 X5.79 Y3.5588
G0 Z0.5
G0 X4.19 Y2.2338
G1 Z-0.25 F10
G1 X2.14 Y2.2338 F20
G1 X2.14 Y2.1838
G1 X4.19 Y2.1838
G1 X4.19 Y2.2338
G1 X4.29 Y2.3338 F20
G1 X2.04 Y2.3338 F20
G1 X2.04 Y2.0838
G1 X4.29 Y2.0838
G1 X4.29 Y2.3338
G1 X4.39 Y2.4338 F20
G1 X1.94 Y2.4338 F20
G1 X1.94 Y1.9838
G1 X4.39 Y1.9838
G1 X4.39 Y2.4338
G1 X4.49 Y2.5338 F20
G1 X1.84 Y2.5338 F20
G1 X1.84 Y1.8838
G1 X4.49 Y1.8838
G1 X4.49 Y2.5338
G1 X4.59 Y2.6338 F20
G1 X1.74 Y2.6338 F20
G1 X1.74 Y1.7838
G1 X4.59 Y1.7838
G1 X4.59 Y2.6338
G1 X4.69 Y2.7338 F20
G1 X1.64 Y2.7338 F20
G1 X1.64 Y1.6838
G1 X4.69 Y1.6838
G1 X4.69 Y2.7338
G1 X4.79 Y2.8338 F20
G1 X1.54 Y2.8338 F20
G1 X1.54 Y1.5838
G1 X4.79 Y1.5838
G1 X4.79 Y2.8338
G1 X4.89 Y2.9338 F20
G1 X1.44 Y2.9338 F20
G1 X1.44 Y1.4838
G1 X4.89 Y1.4838
G1 X4.89 Y2.9338
G1 X4.99 Y3.0338 F20
G1 X1.34 Y3.0338 F20
G1 X1.34 Y1.3838
G1 X4.99 Y1.3838
G1 X4.99 Y3.0338
G1 X5.09 Y3.1338 F20
G1 X1.24 Y3.1338 F20
G1 X1.24 Y1.2838
G1 X5.09 Y1.2838
G1 X5.09 Y3.1338
G1 X5.19 Y3.2338 F20
G1 X1.14 Y3.2338 F20
G1 X1.14 Y1.1838
G1 X5.19 Y1.1838
G1 X5.19 Y3.2338
G1 X5.29 Y3.3338 F20
G1 X1.04 Y3.3338 F20
G1 X1.04 Y1.0838
G1 X5.29 Y1.0838
G1 X5.29 Y3.3338
G1 X5.39 Y3.4338 F20
G1 X0.94 Y3.4338 F20
G1 X0.94 Y0.9838
G1 X5.39 Y0.9838
G1 X5.39 Y3.4338
G1 X5.49 Y3.5338 F20
G1 X0.84 Y3.5338 F20
G1 X0.84 Y0.8838
G1 X5.49 Y0.8838
G1 X5.49 Y3.5338
G1 X5.59 Y3.5588 F20
G3 X5.5875 Y3.5782 I-0.075 J0 F20
G3 X5.58 Y3.5963 I-0.0724 J-0.0194
G3 X5.5681 Y3.6118 I-0.065 J-0.0375
G3 X5.5525 Y3.6237 I-0.053 J-0.053
G3 X5.5345 Y3.6312 I-0.0375 J-0.065
G3 X5.515 Y3.6338 I-0.0194 J-0.0724
G1 X0.815 Y3.6338
G3 X0.7956 Y3.6312 I0 J-0.075
G3 X0.7775 Y3.6237 I0.0194 J-0.0724
G3 X0.762 Y3.6118 I0.0375 J-0.065
G3 X0.7501 Y3.5963 I0.053 J-0.053
G3 X0.7426 Y3.5782 I0.065 J-0.0375
G3 X0.74 Y3.5588 I0.0724 J-0.0194
G1 X0.74 Y0.8588
G3 X0.7426 Y0.8394 I0.075 J0
G3 X0.7501 Y0.8213 I0.0724 J0.0194
G3 X0.762 Y0.8058 I0.065 J0.0375
G3 X0.7775 Y0.7938 I0.053 J0.053
G3 X0.7956 Y0.7863 I0.0375 J0.065
G3 X0.815 Y0.7838 I0.0194 J0.0724
G1 X5.515 Y0.7838
G3 X5.5345 Y0.7863 I0 J0.075
G3 X5.5525 Y0.7938 I-0.0194 J0.0724
G3 X5.5681 Y0.8058 I-0.0375 J0.065
G3 X5.58 Y0.8213 I-0.053 J0.053
G3 X5.5875 Y0.8394 I-0.065 J0.0375
G3 X5.59 Y0.8588 I-0.0724 J0.0194
G1 X5.59 Y3.5588
G1 X5.69 Y3.5588 F20
G3 X5.6841 Y3.6041 I-0.175 J0 F20
G3 X5.6666 Y3.6463 I-0.169 J-0.0453
G3 X5.6388 Y3.6825 I-0.1516 J-0.0875
G3 X5.6025 Y3.7103 I-0.1237 J-0.1237
G3 X5.5603 Y3.7278 I-0.0875 J-0.1516
G3 X5.515 Y3.7338 I-0.0453 J-0.169
G1 X0.815 Y3.7338
G3 X0.7697 Y3.7278 I0 J-0.175
G3 X0.7275 Y3.7103 I0.0453 J-0.169
G3 X0.6913 Y3.6825 I0.0875 J-0.1516
G3 X0.6635 Y3.6463 I0.1237 J-0.1237
G3 X0.646 Y3.6041 I0.1516 J-0.0875
G3 X0.64 Y3.5588 I0.169 J-0.0453
G1 X0.64 Y0.8588
G3 X0.646 Y0.8135 I0.175 J0
G3 X0.6635 Y0.7713 I0.169 J0.0453
G3 X0.6913 Y0.735 I0.1516 J0.0875
G3 X0.7275 Y0.7072 I0.1237 J0.1237
G3 X0.7697 Y0.6898 I0.0875 J0.1516
G3 X0.815 Y0.6838 I0.0453 J0.169
G1 X5.515 Y0.6838
G3 X5.5603 Y0.6898 I0 J0.175
G3 X5.6025 Y0.7072 I-0.0453 J0.169
G3 X5.6388 Y0.735 I-0.0875 J0.1516
G3 X5.6666 Y0.7713 I-0.1237 J0.1237
G3 X5.6841 Y0.8135 I-0.1516 J0.0875
G3 X5.69 Y0.8588 I-0.169 J0.0453
G1 X5.69 Y3.5588
G1 X5.79 Y3.5588 F20
G3 X5.7807 Y3.63 I-0.275 J0 F20
G3 X5.7532 Y3.6963 I-0.2656 J-0.0712
G3 X5.7095 Y3.7532 I-0.2382 J-0.1375
G3 X5.6525 Y3.7969 I-0.1945 J-0.1945
G3 X5.5862 Y3.8244 I-0.1375 J-0.2382
G3 X5.515 Y3.8338 I-0.0712 J-0.2656
G1 X0.815 Y3.8338
G3 X0.7439 Y3.8244 I0 J-0.275
G3 X0.6775 Y3.7969 I0.0712 J-0.2656
G3 X0.6206 Y3.7532 I0.1375 J-0.2382
G3 X0.5769 Y3.6963 I0.1945 J-0.1945
G3 X0.5494 Y3.63 I0.2382 J-0.1375
G3 X0.54 Y3.5588 I0.2656 J-0.0712
G1 X0.54 Y0.8588
G3 X0.5494 Y0.7876 I0.275 J0
G3 X0.5769 Y0.7213 I0.2656 J0.0712
G3 X0.6206 Y0.6643 I0.2382 J0.1375
G3 X0.6775 Y0.6206 I0.1945 J0.1945
G3 X0.7439 Y0.5932 I0.1375 J0.2382
G3 X0.815 Y0.5838 I0.0712 J0.2656
G1 X5.515 Y0.5838
G3 X5.5862 Y0.5932 I0 J0.275
G3 X5.6525 Y0.6206 I-0.0712 J0.2656
G3 X5.7095 Y0.6643 I-0.1375 J0.2382
G3 X5.7532 Y0.7213 I-0.1945 J0.1945
G3 X5.7807 Y0.7876 I-0.2382 J0.1375
G3 X5.79 Y0.8588 I-0.2656 J0.0712
G1 X5.79 Y3.5588
G0 Z0.5
G0 X4.19 Y2.2338
G1 Z-0.3 F10
G1 X2.14 Y2.2338 F20
G1 X2.14 Y2.1838
G1 X4.19 Y2.1838
G1 X4.19 Y2.2338
G1 X4.29 Y2.3338 F20
G1 X2.04 Y2.3338 F20
G1 X2.04 Y2.0838
G1 X4.29 Y2.0838
G1 X4.29 Y2.3338
G1 X4.39 Y2.4338 F20
G1 X1.94 Y2.4338 F20
G1 X1.94 Y1.9838
G1 X4.39 Y1.9838
G1 X4.39 Y2.4338
G1 X4.49 Y2.5338 F20
G1 X1.84 Y2.5338 F20
G1 X1.84 Y1.8838
G1 X4.49 Y1.8838
G1 X4.49 Y2.5338
G1 X4.59 Y2.6338 F20
G1 X1.74 Y2.6338 F20
G1 X1.74 Y1.7838
G1 X4.59 Y1.7838
G1 X4.59 Y2.6338
G1 X4.69 Y2.7338 F20
G1 X1.64 Y2.7338 F20
G1 X1.64 Y1.6838
G1 X4.69 Y1.6838
G1 X4.69 Y2.7338
G1 X4.79 Y2.8338 F20
G1 X1.54 Y2.8338 F20
G1 X1.54 Y1.5838
G1 X4.79 Y1.5838
G1 X4.79 Y2.8338
G1 X4.89 Y2.9338 F20
G1 X1.44 Y2.9338 F20
G1 X1.44 Y1.4838
G1 X4.89 Y1.4838
G1 X4.89 Y2.9338
G1 X4.99 Y3.0338 F20
G1 X1.34 Y3.0338 F20
G1 X1.34 Y1.3838
G1 X4.99 Y1.3838
G1 X4.99 Y3.0338
G1 X5.09 Y3.1338 F20
G1 X1.24 Y3.1338 F20
G1 X1.24 Y1.2838
G1 X5.09 Y1.2838
G1 X5.09 Y3.1338
G1 X5.19 Y3.2338 F20
G1 X1.14 Y3.2338 F20
G1 X1.14 Y1.1838
G1 X5.19 Y1.1838
G1 X5.19 Y3.2338
G1 X5.29 Y3.3338 F20
G1 X1.04 Y3.3338 F20
G1 X1.04 Y1.0838
G1 X5.29 Y1.0838
G1 X5.29 Y3.3338
G1 X5.39 Y3.4338 F20
G1 X0.94 Y3.4338 F20
G1 X0.94 Y0.9838
G1 X5.39 Y0.9838
G1 X5.39 Y3.4338
G1 X5.49 Y3.5338 F20
G1 X0.84 Y3.5338 F20
G1 X0.84 Y0.8838
G1 X5.49 Y0.8838
G1 X5.49 Y3.5338
G1 X5.59 Y3.5588 F20
G3 X5.5875 Y3.5782 I-0.075 J0 F20
G3 X5.58 Y3.5963 I-0.0724 J-0.0194
G3 X5.5681 Y3.6118 I-0.065 J-0.0375
G3 X5.5525 Y3.6237 I-0.053 J-0.053
G3 X5.5345 Y3.6312 I-0.0375 J-0.065
G3 X5.515 Y3.6338 I-0.0194 J-0.0724
G1 X0.815 Y3.6338
G3 X0.7956 Y3.6312 I0 J-0.075
G3 X0.7775 Y3.6237 I0.0194 J-0.0724
G3 X0.762 Y3.6118 I0.0375 J-0.065
G3 X0.7501 Y3.5963 I0.053 J-0.053
G3 X0.7426 Y3.5782 I0.065 J-0.0375
G3 X0.74 Y3.5588 I0.0724 J-0.0194
G1 X0.74 Y0.8588
G3 X0.7426 Y0.8394 I0.075 J0
G3 X0.7501 Y0.8213 I0.0724 J0.0194
G3 X0.762 Y0.8058 I0.065 J0.0375
G3 X0.7775 Y0.7938 I0.053 J0.053
G3 X0.7956 Y0.7863 I0.0375 J0.065
G3 X0.815 Y0.7838 I0.0194 J0.0724
G1 X5.515 Y0.7838
G3 X5.5345 Y0.7863 I0 J0.075
G3 X5.5525 Y0.7938 I-0.0194 J0.0724
G3 X5.5681 Y0.8058 I-0.0375 J0.065
G3 X5.58 Y0.8213 I-0.053 J0.053
G3 X5.5875 Y0.8394 I-0.065 J0.0375
G3 X5.59 Y0.8588 I-0.0724 J0.0194
G1 X5.59 Y3.5588
G1 X5.69 Y3.5588 F20
G3 X5.6841 Y3.6041 I-0.175 J0 F20
G3 X5.6666 Y3.6463 I-0.169 J-0.0453
G3 X5.6388 Y3.6825 I-0.1516 J-0.0875
G3 X5.6025 Y3.7103 I-0.1237 J-0.1237
G3 X5.5603 Y3.7278 I-0.0875 J-0.1516
G3 X5.515 Y3.7338 I-0.0453 J-0.169
G1 X0.815 Y3.7338
G3 X0.7697 Y3.7278 I0 J-0.175
G3 X0.7275 Y3.7103 I0.0453 J-0.169
G3 X0.6913 Y3.6825 I0.0875 J-0.1516
G3 X0.6635 Y3.6463 I0.1237 J-0.1237
G3 X0.646 Y3.6041 I0.1516 J-0.0875
G3 X0.64 Y3.5588 I0.169 J-0.0453
G1 X0.64 Y0.8588
G3 X0.646 Y0.8135 I0.175 J0
G3 X0.6635 Y0.7713 I0.169 J0.0453
G3 X0.6913 Y0.735 I0.1516 J0.0875
G3 X0.7275 Y0.7072 I0.1237 J0.1237
G3 X0.7697 Y0.6898 I0.0875 J0.1516
G3 X0.815 Y0.6838 I0.0453 J0.169
G1 X5.515 Y0.6838
G3 X5.5603 Y0.6898 I0 J0.175
G3 X5.6025 Y0.7072 I-0.0453 J0.169
G3 X5.6388 Y0.735 I-0.0875 J0.1516
G3 X5.6666 Y0.7713 I-0.1237 J0.1237
G3 X5.6841 Y0.8135 I-0.1516 J0.0875
G3 X5.69 Y0.8588 I-0.169 J0.0453
G1 X5.69 Y3.5588
G1 X5.79 Y3.5588 F20
G3 X5.7807 Y3.63 I-0.275 J0 F20
G3 X5.7532 Y3.6963 I-0.2656 J-0.0712
G3 X5.7095 Y3.7532 I-0.2382 J-0.1375
G3 X5.6525 Y3.7969 I-0.1945 J-0.1945
G3 X5.5862 Y3.8244 I-0.1375 J-0.2382
G3 X5.515 Y3.8338 I-0.0712 J-0.2656
G1 X0.815 Y3.8338
G3 X0.7439 Y3.8244 I0 J-0.275
G3 X0.6775 Y3.7969 I0.0712 J-0.2656
G3 X0.6206 Y3.7532 I0.1375 J-0.2382
G3 X0.5769 Y3.6963 I0.1945 J-0.1945
G3 X0.5494 Y3.63 I0.2382 J-0.1375
G3 X0.54 Y3.5588 I0.2656 J-0.0712
G1 X0.54 Y0.8588
G3 X0.5494 Y0.7876 I0.275 J0
G3 X0.5769 Y0.7213 I0.2656 J0.0712
G3 X0.6206 Y0.6643 I0.2382 J0.1375
G3 X0.6775 Y0.6206 I0.1945 J0.1945
G3 X0.7439 Y0.5932 I0.1375 J0.2382
G3 X0.815 Y0.5838 I0.0712 J0.2656
G1 X5.515 Y0.5838
G3 X5.5862 Y0.5932 I0 J0.275
G3 X5.6525 Y0.6206 I-0.0712 J0.2656
G3 X5.7095 Y0.6643 I-0.1375 J0.2382
G3 X5.7532 Y0.7213 I-0.1945 J0.1945
G3 X5.7807 Y0.7876 I-0.2382 J0.1375
G3 X5.79 Y0.8588 I-0.2656 J0.0712
G1 X5.79 Y3.5588
G0 Z0.5
G0 X4.19 Y2.2338
G1 Z-0.35 F10
G1 X2.14 Y2.2338 F20
G1 X2.14 Y2.1838
G1 X4.19 Y2.1838
G1 X4.19 Y2.2338
G1 X4.29 Y2.3338 F20
G1 X2.04 Y2.3338 F20
G1 X2.04 Y2.0838
G1 X4.29 Y2.0838
G1 X4.29 Y2.3338
G1 X4.39 Y2.4338 F20
G1 X1.94 Y2.4338 F20
G1 X1.94 Y1.9838
G1 X4.39 Y1.9838
G1 X4.39 Y2.4338
G1 X4.49 Y2.5338 F20
G1 X1.84 Y2.5338 F20
G1 X1.84 Y1.8838
G1 X4.49 Y1.8838
G1 X4.49 Y2.5338
G1 X4.59 Y2.6338 F20
G1 X1.74 Y2.6338 F20
G1 X1.74 Y1.7838
G1 X4.59 Y1.7838
G1 X4.59 Y2.6338
G1 X4.69 Y2.7338 F20
G1 X1.64 Y2.7338 F20
G1 X1.64 Y1.6838
G1 X4.69 Y1.6838
G1 X4.69 Y2.7338
G1 X4.79 Y2.8338 F20
G1 X1.54 Y2.8338 F20
G1 X1.54 Y1.5838
G1 X4.79 Y1.5838
G1 X4.79 Y2.8338
G1 X4.89 Y2.9338 F20
G1 X1.44 Y2.9338 F20
G1 X1.44 Y1.4838
G1 X4.89 Y1.4838
G1 X4.89 Y2.9338
G1 X4.99 Y3.0338 F20
G1 X1.34 Y3.0338 F20
G1 X1.34 Y1.3838
G1 X4.99 Y1.3838
G1 X4.99 Y3.0338
G1 X5.09 Y3.1338 F20
G1 X1.24 Y3.1338 F20
G1 X1.24 Y1.2838
G1 X5.09 Y1.2838
G1 X5.09 Y3.1338
G1 X5.19 Y3.2338 F20
G1 X1.14 Y3.2338 F20
G1 X1.14 Y1.1838
G1 X5.19 Y1.1838
G1 X5.19 Y3.2338
G1 X5.29 Y3.3338 F20
G1 X1.04 Y3.3338 F20
G1 X1.04 Y1.0838
G1 X5.29 Y1.0838
G1 X5.29 Y3.3338
G1 X5.39 Y3.4338 F20
G1 X0.94 Y3.4338 F20
G1 X0.94 Y0.9838
G1 X5.39 Y0.9838
G1 X5.39 Y3.4338
G1 X5.49 Y3.5338 F20
G1 X0.84 Y3.5338 F20
G1 X0.84 Y0.8838
G1 X5.49 Y0.8838
G1 X5.49 Y3.5338
G1 X5.59 Y3.5588 F20
G3 X5.5875 Y3.5782 I-0.075 J0 F20
G3 X5.58 Y3.5963 I-0.0724 J-0.0194
G3 X5.5681 Y3.6118 I-0.065 J-0.0375
G3 X5.5525 Y3.6237 I-0.053 J-0.053
G3 X5.5345 Y3.6312 I-0.0375 J-0.065
G3 X5.515 Y3.6338 I-0.0194 J-0.0724
G1 X0.815 Y3.6338
G3 X0.7956 Y3.6312 I0 J-0.075
G3 X0.7775 Y3.6237 I0.0194 J-0.0724
G3 X0.762 Y3.6118 I0.0375 J-0.065
G3 X0.7501 Y3.5963 I0.053 J-0.053
G3 X0.7426 Y3.5782 I0.065 J-0.0375
G3 X0.74 Y3.5588 I0.0724 J-0.0194
G1 X0.74 Y0.8588
G3 X0.7426 Y0.8394 I0.075 J0
G3 X0.7501 Y0.8213 I0.0724 J0.0194
G3 X0.762 Y0.8058 I0.065 J0.0375
G3 X0.7775 Y0.7938 I0.053 J0.053
G3 X0.7956 Y0.7863 I0.0375 J0.065
G3 X0.815 Y0.7838 I0.0194 J0.0724
G1 X5.515 Y0.7838
G3 X5.5345 Y0.7863 I0 J0.075
G3 X5.5525 Y0.7938 I-0.0194 J0.0724
G3 X5.5681 Y0.8058 I-0.0375 J0.065
G3 X5.58 Y0.8213 I-0.053 J0.053
G3 X5.5875 Y0.8394 I-0.065 J0.0375
G3 X5.59 Y0.8588 I-0.0724 J0.0194
G1 X5.59 Y3.5588
G1 X5.69 Y3.5588 F20
G3 X5.6841 Y3.6041 I-0.175 J0 F20
G3 X5.6666 Y3.6463 I-0.169 J-0.0453
G3 X5.6388 Y3.6825 I-0.1516 J-0.0875
G3 X5.6025 Y3.7103 I-0.1237 J-0.1237
G3 X5.5603 Y3.7278 I-0.0875 J-0.1516
G3 X5.515 Y3.7338 I-0.0453 J-0.169
G1 X0.815 Y3.7338
G3 X0.7697 Y3.7278 I0 J-0.175
G3 X0.7275 Y3.7103 I0.0453 J-0.169
G3 X0.6913 Y3.6825 I0.0875 J-0.1516
G3 X0.6635 Y3.6463 I0.1237 J-0.1237
G3 X0.646 Y3.6041 I0.1516 J-0.0875
G3 X0.64 Y3.5588 I0.169 J-0.0453
G1 X0.64 Y0.8588
G3 X0.646 Y0.8135 I0.175 J0
G3 X0.6635 Y0.7713 I0.169 J0.0453
G3 X0.6913 Y0.735 I0.1516 J0.0875
G3 X0.7275 Y0.7072 I0.1237 J0.1237
G3 X0.7697 Y0.6898 I0.0875 J0.1516
G3 X0.815 Y0.6838 I0.0453 J0.169
G1 X5.515 Y0.6838
G3 X5.5603 Y0.6898 I0 J0.175
G3 X5.6025 Y0.7072 I-0.0453 J0.169
G3 X5.6388 Y0.735 I-0.0875 J0.1516
G3 X5.6666 Y0.7713 I-0.1237 J0.1237
G3 X5.6841 Y0.8135 I-0.1516 J0.0875
G3 X5.69 Y0.8588 I-0.169 J0.0453
G1 X5.69 Y3.5588
G1 X5.79 Y3.5588 F20
G3 X5.7807 Y3.63 I-0.275 J0 F20
G3 X5.7532 Y3.6963 I-0.2656 J-0.0712
G3 X5.7095 Y3.7532 I-0.2382 J-0.1375
G3 X5.6525 Y3.7969 I-0.1945 J-0.1945
G3 X5.5862 Y3.8244 I-0.1375 J-0.2382
G3 X5.515 Y3.8338 I-0.0712 J-0.2656
G1 X0.815 Y3.8338
G3 X0.7439 Y3.8244 I0 J-0.275
G3 X0.6775 Y3.7969 I0.0712 J-0.2656
G3 X0.6206 Y3.7532 I0.1375 J-0.2382
G3 X0.5769 Y3.6963 I0.1945 J-0.1945
G3 X0.5494 Y3.63 I0.2382 J-0.1375
G3 X0.54 Y3.5588 I0.2656 J-0.0712
G1 X0.54 Y0.8588
G3 X0.5494 Y0.7876 I0.275 J0
G3 X0.5769 Y0.7213 I0.2656 J0.0712
G3 X0.6206 Y0.6643 I0.2382 J0.1375
G3 X0.6775 Y0.6206 I0.1945 J0.1945
G3 X0.7439 Y0.5932 I0.1375 J0.2382
G3 X0.815 Y0.5838 I0.0712 J0.2656
G1 X5.515 Y0.5838
G3 X5.5862 Y0.5932 I0 J0.275
G3 X5.6525 Y0.6206 I-0.0712 J0.2656
G3 X5.7095 Y0.6643 I-0.1375 J0.2382
G3 X5.7532 Y0.7213 I-0.1945 J0.1945
G3 X5.7807 Y0.7876 I-0.2382 J0.1375
G3 X5.79 Y0.8588 I-0.2656 J0.0712
G1 X5.79 Y3.5588
G0 Z0.5
G0 X4.19 Y2.2338
G1 Z-0.4 F10
G1 X2.14 Y2.2338 F20
G1 X2.14 Y2.1838
G1 X4.19 Y2.1838
G1 X4.19 Y2.2338
G1 X4.29 Y2.3338 F20
G1 X2.04 Y2.3338 F20
G1 X2.04 Y2.0838
G1 X4.29 Y2.0838
G1 X4.29 Y2.3338
G1 X4.39 Y2.4338 F20
G1 X1.94 Y2.4338 F20
G1 X1.94 Y1.9838
G1 X4.39 Y1.9838
G1 X4.39 Y2.4338
G1 X4.49 Y2.5338 F20
G1 X1.84 Y2.5338 F20
G1 X1.84 Y1.8838
G1 X4.49 Y1.8838
G1 X4.49 Y2.5338
G1 X4.59 Y2.6338 F20
G1 X1.74 Y2.6338 F20
G1 X1.74 Y1.7838
G1 X4.59 Y1.7838
G1 X4.59 Y2.6338
G1 X4.69 Y2.7338 F20
G1 X1.64 Y2.7338 F20
G1 X1.64 Y1.6838
G1 X4.69 Y1.6838
G1 X4.69 Y2.7338
G1 X4.79 Y2.8338 F20
G1 X1.54 Y2.8338 F20
G1 X1.54 Y1.5838
G1 X4.79 Y1.5838
G1 X4.79 Y2.8338
G1 X4.89 Y2.9338 F20
G1 X1.44 Y2.9338 F20
G1 X1.44 Y1.4838
G1 X4.89 Y1.4838
G1 X4.89 Y2.9338
G1 X4.99 Y3.0338 F20
G1 X1.34 Y3.0338 F20
G1 X1.34 Y1.3838
G1 X4.99 Y1.3838
G1 X4.99 Y3.0338
G1 X5.09 Y3.1338 F20
G1 X1.24 Y3.1338 F20
G1 X1.24 Y1.2838
G1 X5.09 Y1.2838
G1 X5.09 Y3.1338
G1 X5.19 Y3.2338 F20
G1 X1.14 Y3.2338 F20
G1 X1.14 Y1.1838
G1 X5.19 Y1.1838
G1 X5.19 Y3.2338
G1 X5.29 Y3.3338 F20
G1 X1.04 Y3.3338 F20
G1 X1.04 Y1.0838
G1 X5.29 Y1.0838
G1 X5.29 Y3.3338
G1 X5.39 Y3.4338 F20
G1 X0.94 Y3.4338 F20
G1 X0.94 Y0.9838
G1 X5.39 Y0.9838
G1 X5.39 Y3.4338
G1 X5.49 Y3.5338 F20
G1 X0.84 Y3.5338 F20
G1 X0.84 Y0.8838
G1 X5.49 Y0.8838
G1 X5.49 Y3.5338
G1 X5.59 Y3.5588 F20
G3 X5.5875 Y3.5782 I-0.075 J0 F20
G3 X5.58 Y3.5963 I-0.0724 J-0.0194
G3 X5.5681 Y3.6118 I-0.065 J-0.0375
G3 X5.5525 Y3.6237 I-0.053 J-0.053
G3 X5.5345 Y3.6312 I-0.0375 J-0.065
G3 X5.515 Y3.6338 I-0.0194 J-0.0724
G1 X0.815 Y3.6338
G3 X0.7956 Y3.6312 I0 J-0.075
G3 X0.7775 Y3.6237 I0.0194 J-0.0724
G3 X0.762 Y3.6118 I0.0375 J-0.065
G3 X0.7501 Y3.5963 I0.053 J-0.053
G3 X0.7426 Y3.5782 I0.065 J-0.0375
G3 X0.74 Y3.5588 I0.0724 J-0.0194
G1 X0.74 Y0.8588
G3 X0.7426 Y0.8394 I0.075 J0
G3 X0.7501 Y0.8213 I0.0724 J0.0194
G3 X0.762 Y0.8058 I0.065 J0.0375
G3 X0.7775 Y0.7938 I0.053 J0.053
G3 X0.7956 Y0.7863 I0.0375 J0.065
G3 X0.815 Y0.7838 I0.0194 J0.0724
G1 X5.515 Y0.7838
G3 X5.5345 Y0.7863 I0 J0.075
G3 X5.5525 Y0.7938 I-0.0194 J0.0724
G3 X5.5681 Y0.8058 I-0.0375 J0.065
G3 X5.58 Y0.8213 I-0.053 J0.053
G3 X5.5875 Y0.8394 I-0.065 J0.0375
G3 X5.59 Y0.8588 I-0.0724 J0.0194
G1 X5.59 Y3.5588
G1 X5.69 Y3.5588 F20
G3 X5.6841 Y3.6041 I-0.175 J0 F20
G3 X5.6666 Y3.6463 I-0.169 J-0.0453
G3 X5.6388 Y3.6825 I-0.1516 J-0.0875
G3 X5.6025 Y3.7103 I-0.1237 J-0.1237
G3 X5.5603 Y3.7278 I-0.0875 J-0.1516
G3 X5.515 Y3.7338 I-0.0453 J-0.169
G1 X0.815 Y3.7338
G3 X0.7697 Y3.7278 I0 J-0.175
G3 X0.7275 Y3.7103 I0.0453 J-0.169
G3 X0.6913 Y3.6825 I0.0875 J-0.1516
G3 X0.6635 Y3.6463 I0.1237 J-0.1237
G3 X0.646 Y3.6041 I0.1516 J-0.0875
G3 X0.64 Y3.5588 I0.169 J-0.0453
G1 X0.64 Y0.8588
G3 X0.646 Y0.8135 I0.175 J0
G3 X0.6635 Y0.7713 I0.169 J0.0453
G3 X0.6913 Y0.735 I0.1516 J0.0875
G3 X0.7275 Y0.7072 I0.1237 J0.1237
G3 X0.7697 Y0.6898 I0.0875 J0.1516
G3 X0.815 Y0.6838 I0.0453 J0.169
G1 X5.515 Y0.6838
G3 X5.5603 Y0.6898 I0 J0.175
G3 X5.6025 Y0.7072 I-0.0453 J0.169
G3 X5.6388 Y0.735 I-0.0875 J0.1516
G3 X5.6666 Y0.7713 I-0.1237 J0.1237
G3 X5.6841 Y0.8135 I-0.1516 J0.0875
G3 X5.69 Y0.8588 I-0.169 J0.0453
G1 X5.69 Y3.5588
G1 X5.79 Y3.5588 F20
G3 X5.7807 Y3.63 I-0.275 J0 F20
G3 X5.7532 Y3.6963 I-0.2656 J-0.0712
G3 X5.7095 Y3.7532 I-0.2382 J-0.1375
G3 X5.6525 Y3.7969 I-0.1945 J-0.1945
G3 X5.5862 Y3.8244 I-0.1375 J-0.2382
G3 X5.515 Y3.8338 I-0.0712 J-0.2656
G1 X0.815 Y3.8338
G3 X0.7439 Y3.8244 I0 J-0.275
G3 X0.6775 Y3.7969 I0.0712 J-0.2656
G3 X0.6206 Y3.7532 I0.1375 J-0.2382
G3 X0.5769 Y3.6963 I0.1945 J-0.1945
G3 X0.5494 Y3.63 I0.2382 J-0.1375
G3 X0.54 Y3.5588 I0.2656 J-0.0712
G1 X0.54 Y0.8588
G3 X0.5494 Y0.7876 I0.275 J0
G3 X0.5769 Y0.7213 I0.2656 J0.0712
G3 X0.6206 Y0.6643 I0.2382 J0.1375
G3 X0.6775 Y0.6206 I0.1945 J0.1945
G3 X0.7439 Y0.5932 I0.1375 J0.2382
G3 X0.815 Y0.5838 I0.0712 J0.2656
G1 X5.515 Y0.5838
G3 X5.5862 Y0.5932 I0 J0.275
G3 X5.6525 Y0.6206 I-0.0712 J0.2656
G3 X5.7095 Y0.6643 I-0.1375 J0.2382
G3 X5.7532 Y0.7213 I-0.1945 J0.1945
G3 X5.7807 Y0.7876 I-0.2382 J0.1375
G3 X5.79 Y0.8588 I-0.2656 J0.0712
G1 X5.79 Y3.5588
G0 Z0.5
G0 X4.19 Y2.2338
G1 Z-0.45 F10
G1 X2.14 Y2.2338 F20
G1 X2.14 Y2.1838
G1 X4.19 Y2.1838
G1 X4.19 Y2.2338
G1 X4.29 Y2.3338 F20
G1 X2.04 Y2.3338 F20
G1 X2.04 Y2.0838
G1 X4.29 Y2.0838
G1 X4.29 Y2.3338
G1 X4.39 Y2.4338 F20
G1 X1.94 Y2.4338 F20
G1 X1.94 Y1.9838
G1 X4.39 Y1.9838
G1 X4.39 Y2.4338
G1 X4.49 Y2.5338 F20
G1 X1.84 Y2.5338 F20
G1 X1.84 Y1.8838
G1 X4.49 Y1.8838
G1 X4.49 Y2.5338
G1 X4.59 Y2.6338 F20
G1 X1.74 Y2.6338 F20
G1 X1.74 Y1.7838
G1 X4.59 Y1.7838
G1 X4.59 Y2.6338
G1 X4.69 Y2.7338 F20
G1 X1.64 Y2.7338 F20
G1 X1.64 Y1.6838
G1 X4.69 Y1.6838
G1 X4.69 Y2.7338
G1 X4.79 Y2.8338 F20
G1 X1.54 Y2.8338 F20
G1 X1.54 Y1.5838
G1 X4.79 Y1.5838
G1 X4.79 Y2.8338
G1 X4.89 Y2.9338 F20
G1 X1.44 Y2.9338 F20
G1 X1.44 Y1.4838
G1 X4.89 Y1.4838
G1 X4.89 Y2.9338
G1 X4.99 Y3.0338 F20
G1 X1.34 Y3.0338 F20
G1 X1.34 Y1.3838
G1 X4.99 Y1.3838
G1 X4.99 Y3.0338
G1 X5.09 Y3.1338 F20
G1 X1.24 Y3.1338 F20
G1 X1.24 Y1.2838
G1 X5.09 Y1.2838
G1 X5.09 Y3.1338
G1 X5.19 Y3.2338 F20
G1 X1.14 Y3.2338 F20
G1 X1.14 Y1.1838
G1 X5.19 Y1.1838
G1 X5.19 Y3.2338
G1 X5.29 Y3.3338 F20
G1 X1.04 Y3.3338 F20
G1 X1.04 Y1.0838
G1 X5.29 Y1.0838
G1 X5.29 Y3.3338
G1 X5.39 Y3.4338 F20
G1 X0.94 Y3.4338 F20
G1 X0.94 Y0.9838
G1 X5.39 Y0.9838
G1 X5.39 Y3.4338
G1 X5.49 Y3.5338 F20
G1 X0.84 Y3.5338 F20
G1 X0.84 Y0.8838
G1 X5.49 Y0.8838
G1 X5.49 Y3.5338
G1 X5.59 Y3.5588 F20
G3 X5.5875 Y3.5782 I-0.075 J0 F20
G3 X5.58 Y3.5963 I-0.0724 J-0.0194
G3 X5.5681 Y3.6118 I-0.065 J-0.0375
G3 X5.5525 Y3.6237 I-0.053 J-0.053
G3 X5.5345 Y3.6312 I-0.0375 J-0.065
G3 X5.515 Y3.6338 I-0.0194 J-0.0724
G1 X0.815 Y3.6338
G3 X0.7956 Y3.6312 I0 J-0.075
G3 X0.7775 Y3.6237 I0.0194 J-0.0724
G3 X0.762 Y3.6118 I0.0375 J-0.065
G3 X0.7501 Y3.5963 I0.053 J-0.053
G3 X0.7426 Y3.5782 I0.065 J-0.0375
G3 X0.74 Y3.5588 I0.0724 J-0.0194
G1 X0.74 Y0.8588
G3 X0.7426 Y0.8394 I0.075 J0
G3 X0.7501 Y0.8213 I0.0724 J0.0194
G3 X0.762 Y0.8058 I0.065 J0.0375
G3 X0.7775 Y0.7938 I0.053 J0.053
G3 X0.7956 Y0.7863 I0.0375 J0.065
G3 X0.815 Y0.7838 I0.0194 J0.0724
G1 X5.515 Y0.7838
G3 X5.5345 Y0.7863 I0 J0.075
G3 X5.5525 Y0.7938 I-0.0194 J0.0724
G3 X5.5681 Y0.8058 I-0.0375 J0.065
G3 X5.58 Y0.8213 I-0.053 J0.053
G3 X5.5875 Y0.8394 I-0.065 J0.0375
G3 X5.59 Y0.8588 I-0.0724 J0.0194
G1 X5.59 Y3.5588
G1 X5.69 Y3.5588 F20
G3 X5.6841 Y3.6041 I-0.175 J0 F20
G3 X5.6666 Y3.6463 I-0.169 J-0.0453
G3 X5.6388 Y3.6825 I-0.1516 J-0.0875
G3 X5.6025 Y3.7103 I-0.1237 J-0.1237
G3 X5.5603 Y3.7278 I-0.0875 J-0.1516
G3 X5.515 Y3.7338 I-0.0453 J-0.169
G1 X0.815 Y3.7338
G3 X0.7697 Y3.7278 I0 J-0.175
G3 X0.7275 Y3.7103 I0.0453 J-0.169
G3 X0.6913 Y3.6825 I0.0875 J-0.1516
G3 X0.6635 Y3.6463 I0.1237 J-0.1237
G3 X0.646 Y3.6041 I0.1516 J-0.0875
G3 X0.64 Y3.5588 I0.169 J-0.0453
G1 X0.64 Y0.8588
G3 X0.646 Y0.8135 I0.175 J0
G3 X0.6635 Y0.7713 I0.169 J0.0453
G3 X0.6913 Y0.735 I0.1516 J0.0875
G3 X0.7275 Y0.7072 I0.1237 J0.1237
G3 X0.7697 Y0.6898 I0.0875 J0.1516
G3 X0.815 Y0.6838 I0.0453 J0.169
G1 X5.515 Y0.6838
G3 X5.5603 Y0.6898 I0 J0.175
G3 X5.6025 Y0.7072 I-0.0453 J0.169
G3 X5.6388 Y0.735 I-0.0875 J0.1516
G3 X5.6666 Y0.7713 I-0.1237 J0.1237
G3 X5.6841 Y0.8135 I-0.1516 J0.0875
G3 X5.69 Y0.8588 I-0.169 J0.0453
G1 X5.69 Y3.5588
G1 X5.79 Y3.5588 F20
G3 X5.7807 Y3.63 I-0.275 J0 F20
G3 X5.7532 Y3.6963 I-0.2656 J-0.0712
G3 X5.7095 Y3.7532 I-0.2382 J-0.1375
G3 X5.6525 Y3.7969 I-0.1945 J-0.1945
G3 X5.5862 Y3.8244 I-0.1375 J-0.2382
G3 X5.515 Y3.8338 I-0.0712 J-0.2656
G1 X0.815 Y3.8338
G3 X0.7439 Y3.8244 I0 J-0.275
G3 X0.6775 Y3.7969 I0.0712 J-0.2656
G3 X0.6206 Y3.7532 I0.1375 J-0.2382
G3 X0.5769 Y3.6963 I0.1945 J-0.1945
G3 X0.5494 Y3.63 I0.2382 J-0.1375
G3 X0.54 Y3.5588 I0.2656 J-0.0712
G1 X0.54 Y0.8588
G3 X0.5494 Y0.7876 I0.275 J0
G3 X0.5769 Y0.7213 I0.2656 J0.0712
G3 X0.6206 Y0.6643 I0.2382 J0.1375
G3 X0.6775 Y0.6206 I0.1945 J0.1945
G3 X0.7439 Y0.5932 I0.1375 J0.2382
G3 X0.815 Y0.5838 I0.0712 J0.2656
G1 X5.515 Y0.5838
G3 X5.5862 Y0.5932 I0 J0.275
G3 X5.6525 Y0.6206 I-0.0712 J0.2656
G3 X5.7095 Y0.6643 I-0.1375 J0.2382
G3 X5.7532 Y0.7213 I-0.1945 J0.1945
G3 X5.7807 Y0.7876 I-0.2382 J0.1375
G3 X5.79 Y0.8588 I-0.2656 J0.0712
G1 X5.79 Y3.5588
G0 Z0.5
G0 X4.19 Y2.2338
G1 Z-0.5 F10
G1 X2.14 Y2.2338 F20
G1 X2.14 Y2.1838
G1 X4.19 Y2.1838
G1 X4.19 Y2.2338
G1 X4.29 Y2.3338 F20
G1 X2.04 Y2.3338 F20
G1 X2.04 Y2.0838
G1 X4.29 Y2.0838
G1 X4.29 Y2.3338
G1 X4.39 Y2.4338 F20
G1 X1.94 Y2.4338 F20
G1 X1.94 Y1.9838
G1 X4.39 Y1.9838
G1 X4.39 Y2.4338
G1 X4.49 Y2.5338 F20
G1 X1.84 Y2.5338 F20
G1 X1.84 Y1.8838
G1 X4.49 Y1.8838
G1 X4.49 Y2.5338
G1 X4.59 Y2.6338 F20
G1 X1.74 Y2.6338 F20
G1 X1.74 Y1.7838
G1 X4.59 Y1.7838
G1 X4.59 Y2.6338
G1 X4.69 Y2.7338 F20
G1 X1.64 Y2.7338 F20
G1 X1.64 Y1.6838
G1 X4.69 Y1.6838
G1 X4.69 Y2.7338
G1 X4.79 Y2.8338 F20
G1 X1.54 Y2.8338 F20
G1 X1.54 Y1.5838
G1 X4.79 Y1.5838
G1 X4.79 Y2.8338
G1 X4.89 Y2.9338 F20
G1 X1.44 Y2.9338 F20
G1 X1.44 Y1.4838
G1 X4.89 Y1.4838
G1 X4.89 Y2.9338
G1 X4.99 Y3.0338 F20
G1 X1.34 Y3.0338 F20
G1 X1.34 Y1.3838
G1 X4.99 Y1.3838
G1 X4.99 Y3.0338
G1 X5.09 Y3.1338 F20
G1 X1.24 Y3.1338 F20
G1 X1.24 Y1.2838
G1 X5.09 Y1.2838
G1 X5.09 Y3.1338
G1 X5.19 Y3.2338 F20
G1 X1.14 Y3.2338 F20
G1 X1.14 Y1.1838
G1 X5.19 Y1.1838
G1 X5.19 Y3.2338
G1 X5.29 Y3.3338 F20
G1 X1.04 Y3.3338 F20
G1 X1.04 Y1.0838
G1 X5.29 Y1.0838
G1 X5.29 Y3.3338
G1 X5.39 Y3.4338 F20
G1 X0.94 Y3.4338 F20
G1 X0.94 Y0.9838
G1 X5.39 Y0.9838
G1 X5.39 Y3.4338
G1 X5.49 Y3.5338 F20
G1 X0.84 Y3.5338 F20
G1 X0.84 Y0.8838
G1 X5.49 Y0.8838
G1 X5.49 Y3.5338
G1 X5.59 Y3.5588 F20
G3 X5.5875 Y3.5782 I-0.075 J0 F20
G3 X5.58 Y3.5963 I-0.0724 J-0.0194
G3 X5.5681 Y3.6118 I-0.065 J-0.0375
G3 X5.5525 Y3.6237 I-0.053 J-0.053
G3 X5.5345 Y3.6312 I-0.0375 J-0.065
G3 X5.515 Y3.6338 I-0.0194 J-0.0724
G1 X0.815 Y3.6338
G3 X0.7956 Y3.6312 I0 J-0.075
G3 X0.7775 Y3.6237 I0.0194 J-0.0724
G3 X0.762 Y3.6118 I0.0375 J-0.065
G3 X0.7501 Y3.5963 I0.053 J-0.053
G3 X0.7426 Y3.5782 I0.065 J-0.0375
G3 X0.74 Y3.5588 I0.0724 J-0.0194
G1 X0.74 Y0.8588
G3 X0.7426 Y0.8394 I0.075 J0
G3 X0.7501 Y0.8213 I0.0724 J0.0194
G3 X0.762 Y0.8058 I0.065 J0.0375
G3 X0.7775 Y0.7938 I0.053 J0.053
G3 X0.7956 Y0.7863 I0.0375 J0.065
G3 X0.815 Y0.7838 I0.0194 J0.0724
G1 X5.515 Y0.7838
G3 X5.5345 Y0.7863 I0 J0.075
G3 X5.5525 Y0.7938 I-0.0194 J0.0724
G3 X5.5681 Y0.8058 I-0.0375 J0.065
G3 X5.58 Y0.8213 I-0.053 J0.053
G3 X5.5875 Y0.8394 I-0.065 J0.0375
G3 X5.59 Y0.8588 I-0.0724 J0.0194
G1 X5.59 Y3.5588
G1 X5.69 Y3.5588 F20
G3 X5.6841 Y3.6041 I-0.175 J0 F20
G3 X5.6666 Y3.6463 I-0.169 J-0.0453
G3 X5.6388 Y3.6825 I-0.1516 J-0.0875
G3 X5.6025 Y3.7103 I-0.1237 J-0.1237
G3 X5.5603 Y3.7278 I-0.0875 J-0.1516
G3 X5.515 Y3.7338 I-0.0453 J-0.169
G1 X0.815 Y3.7338
G3 X0.7697 Y3.7278 I0 J-0.175
G3 X0.7275 Y3.7103 I0.0453 J-0.169
G3 X0.6913 Y3.6825 I0.0875 J-0.1516
G3 X0.6635 Y3.6463 I0.1237 J-0.1237
G3 X0.646 Y3.6041 I0.1516 J-0.0875
G3 X0.64 Y3.5588 I0.169 J-0.0453
G1 X0.64 Y0.8588
G3 X0.646 Y0.8135 I0.175 J0
G3 X0.6635 Y0.7713 I0.169 J0.0453
G3 X0.6913 Y0.735 I0.1516 J0.0875
G3 X0.7275 Y0.7072 I0.1237 J0.1237
G3 X0.7697 Y0.6898 I0.0875 J0.1516
G3 X0.815 Y0.6838 I0.0453 J0.169
G1 X5.515 Y0.6838
G3 X5.5603 Y0.6898 I0 J0.175
G3 X5.6025 Y0.7072 I-0.0453 J0.169
G3 X5.6388 Y0.735 I-0.0875 J0.1516
G3 X5.6666 Y0.7713 I-0.1237 J0.1237
G3 X5.6841 Y0.8135 I-0.1516 J0.0875
G3 X5.69 Y0.8588 I-0.169 J0.0453
G1 X5.69 Y3.5588
G1 X5.79 Y3.5588 F20
G3 X5.7807 Y3.63 I-0.275 J0 F20
G3 X5.7532 Y3.6963 I-0.2656 J-0.0712
G3 X5.7095 Y3.7532 I-0.2382 J-0.1375
G3 X5.6525 Y3.7969 I-0.1945 J-0.1945
G3 X5.5862 Y3.8244 I-0.1375 J-0.2382
G3 X5.515 Y3.8338 I-0.0712 J-0.2656
G1 X0.815 Y3.8338
G3 X0.7439 Y3.8244 I0 J-0.275
G3 X0.6775 Y3.7969 I0.0712 J-0.2656
G3 X0.6206 Y3.7532 I0.1375 J-0.2382
G3 X0.5769 Y3.6963 I0.1945 J-0.1945
G3 X0.5494 Y3.63 I0.2382 J-0.1375
G3 X0.54 Y3.5588 I0.2656 J-0.0712
G1 X0.54 Y0.8588
G3 X0.5494 Y0.7876 I0.275 J0
G3 X0.5769 Y0.7213 I0.2656 J0.0712
G3 X0.6206 Y0.6643 I0.2382 J0.1375
G3 X0.6775 Y0.6206 I0.1945 J0.1945
G3 X0.7439 Y0.5932 I0.1375 J0.2382
G3 X0.815 Y0.5838 I0.0712 J0.2656
G1 X5.515 Y0.5838
G3 X5.5862 Y0.5932 I0 J0.275
G3 X5.6525 Y0.6206 I-0.0712 J0.2656
G3 X5.7095 Y0.6643 I-0.1375 J0.2382
G3 X5.7532 Y0.7213 I-0.1945 J0.1945
G3 X5.7807 Y0.7876 I-0.2382 J0.1375
G3 X5.79 Y0.8588 I-0.2656 J0.0712
G1 X5.79 Y3.5588

(profile 2)
G0 Z0.5
G0 X5.765 Y4.3338
G1 Z-0.05 F10
G1 X5.515 Y4.3338 F20
G1 X0.765 Y4.3338
G1 X0.565 Y4.3338
G3 X0.5151 Y4.3314 I0 J-0.525
G3 X0.4292 Y4.3159 I0.0499 J-0.5226
G3 X0.3025 Y4.2635 I0.1359 J-0.5071
G3 X0.1938 Y4.18 I0.2625 J-0.4547
G3 X0.1104 Y4.0713 I0.3712 J-0.3712
G3 X0.0579 Y3.9447 I0.4547 J-0.2625
G3 X0.04 Y3.8088 I0.5071 J-0.1359
G1 X0.04 Y0.6088
G3 X0.0579 Y0.4729 I0.525 J0
G3 X0.1104 Y0.3463 I0.5071 J0.1359
G3 X0.1938 Y0.2376 I0.4547 J0.2625
G3 X0.3025 Y0.1541 I0.3712 J0.3712
G3 X0.4292 Y0.1017 I0.2625 J0.4547
G3 X0.5158 Y0.0861 I0.1359 J0.5071
G3 X0.565 Y0.0838 I0.0493 J0.5227
G1 X0.7657 Y0.0838
G1 X5.5157 Y0.0838
G1 X5.765 Y0.0838
G1 X5.7657 Y0.0838
G3 X5.9009 Y0.1017 I-0.0007 J0.525
G3 X6.0275 Y0.1541 I-0.1359 J0.5071
G3 X6.1363 Y0.2376 I-0.2625 J0.4547
G3 X6.2197 Y0.3463 I-0.3712 J0.3712
G3 X6.2722 Y0.4729 I-0.4547 J0.2625
G3 X6.29 Y0.6088 I-0.5071 J0.1359
G1 X6.29 Y3.8088
G3 X6.2722 Y3.9447 I-0.525 J0
G3 X6.2197 Y4.0713 I-0.5071 J-0.1359
G3 X6.1363 Y4.18 I-0.4547 J-0.2625
G3 X6.0275 Y4.2635 I-0.3712 J-0.3712
G3 X5.9009 Y4.3159 I-0.2625 J-0.4547
G3 X5.765 Y4.3338 I-0.1359 J-0.5071
G1 Z-0.1 F10
G1 X5.515 Y4.3338 F20
G1 X0.765 Y4.3338
G1 X0.565 Y4.3338
G3 X0.5151 Y4.3314 I0 J-0.525
G3 X0.4292 Y4.3159 I0.0499 J-0.5226
G3 X0.3025 Y4.2635 I0.1359 J-0.5071
G3 X0.1938 Y4.18 I0.2625 J-0.4547
G3 X0.1104 Y4.0713 I0.3712 J-0.3712
G3 X0.0579 Y3.9447 I0.4547 J-0.2625
G3 X0.04 Y3.8088 I0.5071 J-0.1359
G1 X0.04 Y0.6088
G3 X0.0579 Y0.4729 I0.525 J0
G3 X0.1104 Y0.3463 I0.5071 J0.1359
G3 X0.1938 Y0.2376 I0.4547 J0.2625
G3 X0.3025 Y0.1541 I0.3712 J0.3712
G3 X0.4292 Y0.1017 I0.2625 J0.4547
G3 X0.5158 Y0.0861 I0.1359 J0.5071
G3 X0.565 Y0.0838 I0.0493 J0.5227
G1 X0.7657 Y0.0838
G1 X5.5157 Y0.0838
G1 X5.765 Y0.0838
G1 X5.7657 Y0.0838
G3 X5.9009 Y0.1017 I-0.0007 J0.525
G3 X6.0275 Y0.1541 I-0.1359 J0.5071
G3 X6.1363 Y0.2376 I-0.2625 J0.4547
G3 X6.2197 Y0.3463 I-0.3712 J0.3712
G3 X6.2722 Y0.4729 I-0.4547 J0.2625
G3 X6.29 Y0.6088 I-0.5071 J0.1359
G1 X6.29 Y3.8088
G3 X6.2722 Y3.9447 I-0.525 J0
G3 X6.2197 Y4.0713 I-0.5071 J-0.1359
G3 X6.1363 Y4.18 I-0.4547 J-0.2625
G3 X6.0275 Y4.2635 I-0.3712 J-0.3712
G3 X5.9009 Y4.3159 I-0.2625 J-0.4547
G3 X5.765 Y4.3338 I-0.1359 J-0.5071
G1 Z-0.15 F10
G1 X5.515 Y4.3338 F20
G1 X0.765 Y4.3338
G1 X0.565 Y4.3338
G3 X0.5151 Y4.3314 I0 J-0.525
G3 X0.4292 Y4.3159 I0.0499 J-0.5226
G3 X0.3025 Y4.2635 I0.1359 J-0.5071
G3 X0.1938 Y4.18 I0.2625 J-0.4547
G3 X0.1104 Y4.0713 I0.3712 J-0.3712
G3 X0.0579 Y3.9447 I0.4547 J-0.2625
G3 X0.04 Y3.8088 I0.5071 J-0.1359
G1 X0.04 Y0.6088
G3 X0.0579 Y0.4729 I0.525 J0
G3 X0.1104 Y0.3463 I0.5071 J0.1359
G3 X0.1938 Y0.2376 I0.4547 J0.2625
G3 X0.3025 Y0.1541 I0.3712 J0.3712
G3 X0.4292 Y0.1017 I0.2625 J0.4547
G3 X0.5158 Y0.0861 I0.1359 J0.5071
G3 X0.565 Y0.0838 I0.0493 J0.5227
G1 X0.7657 Y0.0838
G1 X5.5157 Y0.0838
G1 X5.765 Y0.0838
G1 X5.7657 Y0.0838
G3 X5.9009 Y0.1017 I-0.0007 J0.525
G3 X6.0275 Y0.1541 I-0.1359 J0.5071
G3 X6.1363 Y0.2376 I-0.2625 J0.4547
G3 X6.2197 Y0.3463 I-0.3712 J0.3712
G3 X6.2722 Y0.4729 I-0.4547 J0.2625
G3 X6.29 Y0.6088 I-0.5071 J0.1359
G1 X6.29 Y3.8088
G3 X6.2722 Y3.9447 I-0.525 J0
G3 X6.2197 Y4.0713 I-0.5071 J-0.1359
G3 X6.1363 Y4.18 I-0.4547 J-0.2625
G3 X6.0275 Y4.2635 I-0.3712 J-0.3712
G3 X5.9009 Y4.3159 I-0.2625 J-0.4547
G3 X5.765 Y4.3338 I-0.1359 J-0.5071
G1 Z-0.2 F10
G1 X5.515 Y4.3338 F20
G1 X0.765 Y4.3338
G1 X0.565 Y4.3338
G3 X0.5151 Y4.3314 I0 J-0.525
G3 X0.4292 Y4.3159 I0.0499 J-0.5226
G3 X0.3025 Y4.2635 I0.1359 J-0.5071
G3 X0.1938 Y4.18 I0.2625 J-0.4547
G3 X0.1104 Y4.0713 I0.3712 J-0.3712
G3 X0.0579 Y3.9447 I0.4547 J-0.2625
G3 X0.04 Y3.8088 I0.5071 J-0.1359
G1 X0.04 Y0.6088
G3 X0.0579 Y0.4729 I0.525 J0
G3 X0.1104 Y0.3463 I0.5071 J0.1359
G3 X0.1938 Y0.2376 I0.4547 J0.2625
G3 X0.3025 Y0.1541 I0.3712 J0.3712
G3 X0.4292 Y0.1017 I0.2625 J0.4547
G3 X0.5158 Y0.0861 I0.1359 J0.5071
G3 X0.565 Y0.0838 I0.0493 J0.5227
G1 X0.7657 Y0.0838
G1 X5.5157 Y0.0838
G1 X5.765 Y0.0838
G1 X5.7657 Y0.0838
G3 X5.9009 Y0.1017 I-0.0007 J0.525
G3 X6.0275 Y0.1541 I-0.1359 J0.5071
G3 X6.1363 Y0.2376 I-0.2625 J0.4547
G3 X6.2197 Y0.3463 I-0.3712 J0.3712
G3 X6.2722 Y0.4729 I-0.4547 J0.2625
G3 X6.29 Y0.6088 I-0.5071 J0.1359
G1 X6.29 Y3.8088
G3 X6.2722 Y3.9447 I-0.525 J0
G3 X6.2197 Y4.0713 I-0.5071 J-0.1359
G3 X6.1363 Y4.18 I-0.4547 J-0.2625
G3 X6.0275 Y4.2635 I-0.3712 J-0.3712
G3 X5.9009 Y4.3159 I-0.2625 J-0.4547
G3 X5.765 Y4.3338 I-0.1359 J-0.5071
G1 Z-0.25 F10
G1 X5.515 Y4.3338 F20
G1 X0.765 Y4.3338
G1 X0.565 Y4.3338
G3 X0.5151 Y4.3314 I0 J-0.525
G3 X0.4292 Y4.3159 I0.0499 J-0.5226
G3 X0.3025 Y4.2635 I0.1359 J-0.5071
G3 X0.1938 Y4.18 I0.2625 J-0.4547
G3 X0.1104 Y4.0713 I0.3712 J-0.3712
G3 X0.0579 Y3.9447 I0.4547 J-0.2625
G3 X0.04 Y3.8088 I0.5071 J-0.1359
G1 X0.04 Y0.6088
G3 X0.0579 Y0.4729 I0.525 J0
G3 X0.1104 Y0.3463 I0.5071 J0.1359
G3 X0.1938 Y0.2376 I0.4547 J0.2625
G3 X0.3025 Y0.1541 I0.3712 J0.3712
G3 X0.4292 Y0.1017 I0.2625 J0.4547
G3 X0.5158 Y0.0861 I0.1359 J0.5071
G3 X0.565 Y0.0838 I0.0493 J0.5227
G1 X0.7657 Y0.0838
G1 X5.5157 Y0.0838
G1 X5.765 Y0.0838
G1 X5.7657 Y0.0838
G3 X5.9009 Y0.1017 I-0.0007 J0.525
G3 X6.0275 Y0.1541 I-0.1359 J0.5071
G3 X6.1363 Y0.2376 I-0.2625 J0.4547
G3 X6.2197 Y0.3463 I-0.3712 J0.3712
G3 X6.2722 Y0.4729 I-0.4547 J0.2625
G3 X6.29 Y0.6088 I-0.5071 J0.1359
G1 X6.29 Y3.8088
G3 X6.2722 Y3.9447 I-0.525 J0
G3 X6.2197 Y4.0713 I-0.5071 J-0.1359
G3 X6.1363 Y4.18 I-0.4547 J-0.2625
G3 X6.0275 Y4.2635 I-0.3712 J-0.3712
G3 X5.9009 Y4.3159 I-0.2625 J-0.4547
G3 X5.765 Y4.3338 I-0.1359 J-0.5071
G1 Z-0.3 F10
G1 X5.515 Y4.3338 F20
G1 X0.765 Y4.3338
G1 X0.565 Y4.3338
G3 X0.5151 Y4.3314 I0 J-0.525
G3 X0.4292 Y4.3159 I0.0499 J-0.5226
G3 X0.3025 Y4.2635 I0.1359 J-0.5071
G3 X0.1938 Y4.18 I0.2625 J-0.4547
G3 X0.1104 Y4.0713 I0.3712 J-0.3712
G3 X0.0579 Y3.9447 I0.4547 J-0.2625
G3 X0.04 Y3.8088 I0.5071 J-0.1359
G1 X0.04 Y0.6088
G3 X0.0579 Y0.4729 I0.525 J0
G3 X0.1104 Y0.3463 I0.5071 J0.1359
G3 X0.1938 Y0.2376 I0.4547 J0.2625
G3 X0.3025 Y0.1541 I0.3712 J0.3712
G3 X0.4292 Y0.1017 I0.2625 J0.4547
G3 X0.5158 Y0.0861 I0.1359 J0.5071
G3 X0.565 Y0.0838 I0.0493 J0.5227
G1 X0.7657 Y0.0838
G1 X5.5157 Y0.0838
G1 X5.765 Y0.0838
G1 X5.7657 Y0.0838
G3 X5.9009 Y0.1017 I-0.0007 J0.525
G3 X6.0275 Y0.1541 I-0.1359 J0.5071
G3 X6.1363 Y0.2376 I-0.2625 J0.4547
G3 X6.2197 Y0.3463 I-0.3712 J0.3712
G3 X6.2722 Y0.4729 I-0.4547 J0.2625
G3 X6.29 Y0.6088 I-0.5071 J0.1359
G1 X6.29 Y3.8088
G3 X6.2722 Y3.9447 I-0.525 J0
G3 X6.2197 Y4.0713 I-0.5071 J-0.1359
G3 X6.1363 Y4.18 I-0.4547 J-0.2625
G3 X6.0275 Y4.2635 I-0.3712 J-0.3712
G3 X5.9009 Y4.3159 I-0.2625 J-0.4547
G3 X5.765 Y4.3338 I-0.1359 J-0.5071
G1 Z-0.35 F10
G1 X5.515 Y4.3338 F20
G1 X0.765 Y4.3338
G1 X0.565 Y4.3338
G3 X0.5151 Y4.3314 I0 J-0.525
G3 X0.4292 Y4.3159 I0.0499 J-0.5226
G3 X0.3025 Y4.2635 I0.1359 J-0.5071
G3 X0.1938 Y4.18 I0.2625 J-0.4547
G3 X0.1104 Y4.0713 I0.3712 J-0.3712
G3 X0.0579 Y3.9447 I0.4547 J-0.2625
G3 X0.04 Y3.8088 I0.5071 J-0.1359
G1 X0.04 Y0.6088
G3 X0.0579 Y0.4729 I0.525 J0
G3 X0.1104 Y0.3463 I0.5071 J0.1359
G3 X0.1938 Y0.2376 I0.4547 J0.2625
G3 X0.3025 Y0.1541 I0.3712 J0.3712
G3 X0.4292 Y0.1017 I0.2625 J0.4547
G3 X0.5158 Y0.0861 I0.1359 J0.5071
G3 X0.565 Y0.0838 I0.0493 J0.5227
G1 X0.7657 Y0.0838
G1 X5.5157 Y0.0838
G1 X5.765 Y0.0838
G1 X5.7657 Y0.0838
G3 X5.9009 Y0.1017 I-0.0007 J0.525
G3 X6.0275 Y0.1541 I-0.1359 J0.5071
G3 X6.1363 Y0.2376 I-0.2625 J0.4547
G3 X6.2197 Y0.3463 I-0.3712 J0.3712
G3 X6.2722 Y0.4729 I-0.4547 J0.2625
G3 X6.29 Y0.6088 I-0.5071 J0.1359
G1 X6.29 Y3.8088
G3 X6.2722 Y3.9447 I-0.525 J0
G3 X6.2197 Y4.0713 I-0.5071 J-0.1359
G3 X6.1363 Y4.18 I-0.4547 J-0.2625
G3 X6.0275 Y4.2635 I-0.3712 J-0.3712
G3 X5.9009 Y4.3159 I-0.2625 J-0.4547
G3 X5.765 Y4.3338 I-0.1359 J-0.5071
G1 Z-0.4 F10
G1 X5.515 Y4.3338 F20
G1 X0.765 Y4.3338
G1 X0.565 Y4.3338
G3 X0.5151 Y4.3314 I0 J-0.525
G3 X0.4292 Y4.3159 I0.0499 J-0.5226
G3 X0.3025 Y4.2635 I0.1359 J-0.5071
G3 X0.1938 Y4.18 I0.2625 J-0.4547
G3 X0.1104 Y4.0713 I0.3712 J-0.3712
G3 X0.0579 Y3.9447 I0.4547 J-0.2625
G3 X0.04 Y3.8088 I0.5071 J-0.1359
G1 X0.04 Y0.6088
G3 X0.0579 Y0.4729 I0.525 J0
G3 X0.1104 Y0.3463 I0.5071 J0.1359
G3 X0.1938 Y0.2376 I0.4547 J0.2625
G3 X0.3025 Y0.1541 I0.3712 J0.3712
G3 X0.4292 Y0.1017 I0.2625 J0.4547
G3 X0.5158 Y0.0861 I0.1359 J0.5071
G3 X0.565 Y0.0838 I0.0493 J0.5227
G1 X0.7657 Y0.0838
G1 X5.5157 Y0.0838
G1 X5.765 Y0.0838
G1 X5.7657 Y0.0838
G3 X5.9009 Y0.1017 I-0.0007 J0.525
G3 X6.0275 Y0.1541 I-0.1359 J0.5071
G3 X6.1363 Y0.2376 I-0.2625 J0.4547
G3 X6.2197 Y0.3463 I-0.3712 J0.3712
G3 X6.2722 Y0.4729 I-0.4547 J0.2625
G3 X6.29 Y0.6088 I-0.5071 J0.1359
G1 X6.29 Y3.8088
G3 X6.2722 Y3.9447 I-0.525 J0
G3 X6.2197 Y4.0713 I-0.5071 J-0.1359
G3 X6.1363 Y4.18 I-0.4547 J-0.2625
G3 X6.0275 Y4.2635 I-0.3712 J-0.3712
G3 X5.9009 Y4.3159 I-0.2625 J-0.4547
G3 X5.765 Y4.3338 I-0.1359 J-0.5071
G1 Z-0.45 F10
G1 X5.515 Y4.3338 F20
G1 X0.765 Y4.3338
G1 X0.565 Y4.3338
G3 X0.5151 Y4.3314 I0 J-0.525
G3 X0.4292 Y4.3159 I0.0499 J-0.5226
G3 X0.3025 Y4.2635 I0.1359 J-0.5071
G3 X0.1938 Y4.18 I0.2625 J-0.4547
G3 X0.1104 Y4.0713 I0.3712 J-0.3712
G3 X0.0579 Y3.9447 I0.4547 J-0.2625
G3 X0.04 Y3.8088 I0.5071 J-0.1359
G1 X0.04 Y0.6088
G3 X0.0579 Y0.4729 I0.525 J0
G3 X0.1104 Y0.3463 I0.5071 J0.1359
G3 X0.1938 Y0.2376 I0.4547 J0.2625
G3 X0.3025 Y0.1541 I0.3712 J0.3712
G3 X0.4292 Y0.1017 I0.2625 J0.4547
G3 X0.5158 Y0.0861 I0.1359 J0.5071
G3 X0.565 Y0.0838 I0.0493 J0.5227
G1 X0.7657 Y0.0838
G1 X5.5157 Y0.0838
G1 X5.765 Y0.0838
G1 X5.7657 Y0.0838
G3 X5.9009 Y0.1017 I-0.0007 J0.525
G3 X6.0275 Y0.1541 I-0.1359 J0.5071
G3 X6.1363 Y0.2376 I-0.2625 J0.4547
G3 X6.2197 Y0.3463 I-0.3712 J0.3712
G3 X6.2722 Y0.4729 I-0.4547 J0.2625
G3 X6.29 Y0.6088 I-0.5071 J0.1359
G1 X6.29 Y3.8088
G3 X6.2722 Y3.9447 I-0.525 J0
G3 X6.2197 Y4.0713 I-0.5071 J-0.1359
G3 X6.1363 Y4.18 I-0.4547 J-0.2625
G3 X6.0275 Y4.2635 I-0.3712 J-0.3712
G3 X5.9009 Y4.3159 I-0.2625 J-0.4547
G3 X5.765 Y4.3338 I-0.1359 J-0.5071
G1 Z-0.5 F10
G1 X5.515 Y4.3338 F20
G1 X0.765 Y4.3338
G1 X0.565 Y4.3338
G3 X0.5151 Y4.3314 I0 J-0.525
G3 X0.4292 Y4.3159 I0.0499 J-0.5226
G3 X0.3025 Y4.2635 I0.1359 J-0.5071
G3 X0.1938 Y4.18 I0.2625 J-0.4547
G3 X0.1104 Y4.0713 I0.3712 J-0.3712
G3 X0.0579 Y3.9447 I0.4547 J-0.2625
G3 X0.04 Y3.8088 I0.5071 J-0.1359
G1 X0.04 Y0.6088
G3 X0.0579 Y0.4729 I0.525 J0
G3 X0.1104 Y0.3463 I0.5071 J0.1359
G3 X0.1938 Y0.2376 I0.4547 J0.2625
G3 X0.3025 Y0.1541 I0.3712 J0.3712
G3 X0.4292 Y0.1017 I0.2625 J0.4547
G3 X0.5158 Y0.0861 I0.1359 J0.5071
G3 X0.565 Y0.0838 I0.0493 J0.5227
G1 X0.7657 Y0.0838
G1 X5.5157 Y0.0838
G1 X5.765 Y0.0838
G1 X5.7657 Y0.0838
G3 X5.9009 Y0.1017 I-0.0007 J0.525
G3 X6.0275 Y0.1541 I-0.1359 J0.5071
G3 X6.1363 Y0.2376 I-0.2625 J0.4547
G3 X6.2197 Y0.3463 I-0.3712 J0.3712
G3 X6.2722 Y0.4729 I-0.4547 J0.2625
G3 X6.29 Y0.6088 I-0.5071 J0.1359
G1 X6.29 Y3.8088
G3 X6.2722 Y3.9447 I-0.525 J0
G3 X6.2197 Y4.0713 I-0.5071 J-0.1359
G3 X6.1363 Y4.18 I-0.4547 J-0.2625
G3 X6.0275 Y4.2635 I-0.3712 J-0.3712
G3 X5.9009 Y4.3159 I-0.2625 J-0.4547
G3 X5.765 Y4.3338 I-0.1359 J-0.5071
G1 Z-0.55 F10
G1 Z-0.5 F10
G1 X5.515 Y4.3338 F20
G1 Z-0.55 F10
G1 X0.765 Y4.3338 F20
G1 Z-0.5 F10
G1 X0.565 Y4.3338 F20
G3 X0.5151 Y4.3314 I0 J-0.525
G1 Z-0.55 F10
G3 X0.4292 Y4.3159 I0.0499 J-0.5226 F20
G3 X0.3025 Y4.2635 I0.1359 J-0.5071
G3 X0.1938 Y4.18 I0.2625 J-0.4547
G3 X0.1104 Y4.0713 I0.3712 J-0.3712
G3 X0.0579 Y3.9447 I0.4547 J-0.2625
G3 X0.04 Y3.8088 I0.5071 J-0.1359
G1 X0.04 Y0.6088
G3 X0.0579 Y0.4729 I0.525 J0
G3 X0.1104 Y0.3463 I0.5071 J0.1359
G3 X0.1938 Y0.2376 I0.4547 J0.2625
G3 X0.3025 Y0.1541 I0.3712 J0.3712
G3 X0.4292 Y0.1017 I0.2625 J0.4547
G3 X0.5158 Y0.0861 I0.1359 J0.5071
G1 Z-0.5 F10
G3 X0.565 Y0.0838 I0.0493 J0.5227 F20
G1 X0.7657 Y0.0838
G1 Z-0.55 F10
G1 X5.5157 Y0.0838 F20
G1 Z-0.5 F10
G1 X5.765 Y0.0838 F20
G1 X5.7657 Y0.0838
G1 Z-0.55 F10
G3 X5.9009 Y0.1017 I-0.0007 J0.525 F20
G3 X6.0275 Y0.1541 I-0.1359 J0.5071
G3 X6.1363 Y0.2376 I-0.2625 J0.4547
G3 X6.2197 Y0.3463 I-0.3712 J0.3712
G3 X6.2722 Y0.4729 I-0.4547 J0.2625
G3 X6.29 Y0.6088 I-0.5071 J0.1359
G1 X6.29 Y3.8088
G3 X6.2722 Y3.9447 I-0.525 J0
G3 X6.2197 Y4.0713 I-0.5071 J-0.1359
G3 X6.1363 Y4.18 I-0.4547 J-0.2625
G3 X6.0275 Y4.2635 I-0.3712 J-0.3712
G3 X5.9009 Y4.3159 I-0.2625 J-0.4547
G3 X5.765 Y4.3338 I-0.1359 J-0.5071
G1 Z-0.6 F10
G1 Z-0.5 F10
G1 X5.515 Y4.3338 F20
G1 Z-0.6 F10
G1 X0.765 Y4.3338 F20
G1 Z-0.5 F10
G1 X0.565 Y4.3338 F20
G3 X0.5151 Y4.3314 I0 J-0.525
G1 Z-0.6 F10
G3 X0.4292 Y4.3159 I0.0499 J-0.5226 F20
G3 X0.3025 Y4.2635 I0.1359 J-0.5071
G3 X0.1938 Y4.18 I0.2625 J-0.4547
G3 X0.1104 Y4.0713 I0.3712 J-0.3712
G3 X0.0579 Y3.9447 I0.4547 J-0.2625
G3 X0.04 Y3.8088 I0.5071 J-0.1359
G1 X0.04 Y0.6088
G3 X0.0579 Y0.4729 I0.525 J0
G3 X0.1104 Y0.3463 I0.5071 J0.1359
G3 X0.1938 Y0.2376 I0.4547 J0.2625
G3 X0.3025 Y0.1541 I0.3712 J0.3712
G3 X0.4292 Y0.1017 I0.2625 J0.4547
G3 X0.5158 Y0.0861 I0.1359 J0.5071
G1 Z-0.5 F10
G3 X0.565 Y0.0838 I0.0493 J0.5227 F20
G1 X0.7657 Y0.0838
G1 Z-0.6 F10
G1 X5.5157 Y0.0838 F20
G1 Z-0.5 F10
G1 X5.765 Y0.0838 F20
G1 X5.7657 Y0.0838
G1 Z-0.6 F10
G3 X5.9009 Y0.1017 I-0.0007 J0.525 F20
G3 X6.0275 Y0.1541 I-0.1359 J0.5071
G3 X6.1363 Y0.2376 I-0.2625 J0.4547
G3 X6.2197 Y0.3463 I-0.3712 J0.3712
G3 X6.2722 Y0.4729 I-0.4547 J0.2625
G3 X6.29 Y0.6088 I-0.5071 J0.1359
G1 X6.29 Y3.8088
G3 X6.2722 Y3.9447 I-0.525 J0
G3 X6.2197 Y4.0713 I-0.5071 J-0.1359
G3 X6.1363 Y4.18 I-0.4547 J-0.2625
G3 X6.0275 Y4.2635 I-0.3712 J-0.3712
G3 X5.9009 Y4.3159 I-0.2625 J-0.4547
G3 X5.765 Y4.3338 I-0.1359 J-0.5071
G1 Z-0.65 F10
G1 Z-0.5 F10
G1 X5.515 Y4.3338 F20
G1 Z-0.65 F10
G1 X0.765 Y4.3338 F20
G1 Z-0.5 F10
G1 X0.565 Y4.3338 F20
G3 X0.5151 Y4.3314 I0 J-0.525
G1 Z-0.65 F10
G3 X0.4292 Y4.3159 I0.0499 J-0.5226 F20
G3 X0.3025 Y4.2635 I0.1359 J-0.5071
G3 X0.1938 Y4.18 I0.2625 J-0.4547
G3 X0.1104 Y4.0713 I0.3712 J-0.3712
G3 X0.0579 Y3.9447 I0.4547 J-0.2625
G3 X0.04 Y3.8088 I0.5071 J-0.1359
G1 X0.04 Y0.6088
G3 X0.0579 Y0.4729 I0.525 J0
G3 X0.1104 Y0.3463 I0.5071 J0.1359
G3 X0.1938 Y0.2376 I0.4547 J0.2625
G3 X0.3025 Y0.1541 I0.3712 J0.3712
G3 X0.4292 Y0.1017 I0.2625 J0.4547
G3 X0.5158 Y0.0861 I0.1359 J0.5071
G1 Z-0.5 F10
G3 X0.565 Y0.0838 I0.0493 J0.5227 F20
G1 X0.7657 Y0.0838
G1 Z-0.65 F10
G1 X5.5157 Y0.0838 F20
G1 Z-0.5 F10
G1 X5.765 Y0.0838 F20
G1 X5.7657 Y0.0838
G1 Z-0.65 F10
G3 X5.9009 Y0.1017 I-0.0007 J0.525 F20
G3 X6.0275 Y0.1541 I-0.1359 J0.5071
G3 X6.1363 Y0.2376 I-0.2625 J0.4547
G3 X6.2197 Y0.3463 I-0.3712 J0.3712
G3 X6.2722 Y0.4729 I-0.4547 J0.2625
G3 X6.29 Y0.6088 I-0.5071 J0.1359
G1 X6.29 Y3.8088
G3 X6.2722 Y3.9447 I-0.525 J0
G3 X6.2197 Y4.0713 I-0.5071 J-0.1359
G3 X6.1363 Y4.18 I-0.4547 J-0.2625
G3 X6.0275 Y4.2635 I-0.3712 J-0.3712
G3 X5.9009 Y4.3159 I-0.2625 J-0.4547
G3 X5.765 Y4.3338 I-0.1359 J-0.5071
G1 Z-0.7 F10
G1 Z-0.5 F10
G1 X5.515 Y4.3338 F20
G1 Z-0.7 F10
G1 X0.765 Y4.3338 F20
G1 Z-0.5 F10
G1 X0.565 Y4.3338 F20
G3 X0.5151 Y4.3314 I0 J-0.525
G1 Z-0.7 F10
G3 X0.4292 Y4.3159 I0.0499 J-0.5226 F20
G3 X0.3025 Y4.2635 I0.1359 J-0.5071
G3 X0.1938 Y4.18 I0.2625 J-0.4547
G3 X0.1104 Y4.0713 I0.3712 J-0.3712
G3 X0.0579 Y3.9447 I0.4547 J-0.2625
G3 X0.04 Y3.8088 I0.5071 J-0.1359
G1 X0.04 Y0.6088
G3 X0.0579 Y0.4729 I0.525 J0
G3 X0.1104 Y0.3463 I0.5071 J0.1359
G3 X0.1938 Y0.2376 I0.4547 J0.2625
G3 X0.3025 Y0.1541 I0.3712 J0.3712
G3 X0.4292 Y0.1017 I0.2625 J0.4547
G3 X0.5158 Y0.0861 I0.1359 J0.5071
G1 Z-0.5 F10
G3 X0.565 Y0.0838 I0.0493 J0.5227 F20
G1 X0.7657 Y0.0838
G1 Z-0.7 F10
G1 X5.5157 Y0.0838 F20
G1 Z-0.5 F10
G1 X5.765 Y0.0838 F20
G1 X5.7657 Y0.0838
G1 Z-0.7 F10
G3 X5.9009 Y0.1017 I-0.0007 J0.525 F20
G3 X6.0275 Y0.1541 I-0.1359 J0.5071
G3 X6.1363 Y0.2376 I-0.2625 J0.4547
G3 X6.2197 Y0.3463 I-0.3712 J0.3712
G3 X6.2722 Y0.4729 I-0.4547 J0.2625
G3 X6.29 Y0.6088 I-0.5071 J0.1359
G1 X6.29 Y3.8088
G3 X6.2722 Y3.9447 I-0.525 J0
G3 X6.2197 Y4.0713 I-0.5071 J-0.1359
G3 X6.1363 Y4.18 I-0.4547 J-0.2625
G3 X6.0275 Y4.2635 I-0.3712 J-0.3712
G3 X5.9009 Y4.3159 I-0.2625 J-0.4547
G3 X5.765 Y4.3338 I-0.1359 J-0.5071
G1 Z-0.75 F10
G1 Z-0.5 F10
G1 X5.515 Y4.3338 F20
G1 Z-0.75 F10
G1 X0.765 Y4.3338 F20
G1 Z-0.5 F10
G1 X0.565 Y4.3338 F20
G3 X0.5151 Y4.3314 I0 J-0.525
G1 Z-0.75 F10
G3 X0.4292 Y4.3159 I0.0499 J-0.5226 F20
G3 X0.3025 Y4.2635 I0.1359 J-0.5071
G3 X0.1938 Y4.18 I0.2625 J-0.4547
G3 X0.1104 Y4.0713 I0.3712 J-0.3712
G3 X0.0579 Y3.9447 I0.4547 J-0.2625
G3 X0.04 Y3.8088 I0.5071 J-0.1359
G1 X0.04 Y0.6088
G3 X0.0579 Y0.4729 I0.525 J0
G3 X0.1104 Y0.3463 I0.5071 J0.1359
G3 X0.1938 Y0.2376 I0.4547 J0.2625
G3 X0.3025 Y0.1541 I0.3712 J0.3712
G3 X0.4292 Y0.1017 I0.2625 J0.4547
G3 X0.5158 Y0.0861 I0.1359 J0.5071
G1 Z-0.5 F10
G3 X0.565 Y0.0838 I0.0493 J0.5227 F20
G1 X0.7657 Y0.0838
G1 Z-0.75 F10
G1 X5.5157 Y0.0838 F20
G1 Z-0.5 F10
G1 X5.765 Y0.0838 F20
G1 X5.7657 Y0.0838
G1 Z-0.75 F10
G3 X5.9009 Y0.1017 I-0.0007 J0.525 F20
G3 X6.0275 Y0.1541 I-0.1359 J0.5071
G3 X6.1363 Y0.2376 I-0.2625 J0.4547
G3 X6.2197 Y0.3463 I-0.3712 J0.3712
G3 X6.2722 Y0.4729 I-0.4547 J0.2625
G3 X6.29 Y0.6088 I-0.5071 J0.1359
G1 X6.29 Y3.8088
G3 X6.2722 Y3.9447 I-0.525 J0
G3 X6.2197 Y4.0713 I-0.5071 J-0.1359
G3 X6.1363 Y4.18 I-0.4547 J-0.2625
G3 X6.0275 Y4.2635 I-0.3712 J-0.3712
G3 X5.9009 Y4.3159 I-0.2625 J-0.4547
G3 X5.765 Y4.3338 I-0.1359 J-0.5071
G0 Z0.5
M5
M30
