(Generated by PartKam Version 0.05)

G20 G90 G40

(follow path 1)
G0 Z0.125
T0 M6
G17
M3
G0 X0.1059 Y0.4646
G1 Z-0.0312 F10
G3 X0.1174 Y0.3707 I0.3902 J0 F10
G3 X0.1492 Y0.2899 I0.3187 J0.0791
G3 X0.1947 Y0.2271 I0.2885 J0.1608
G3 X0.2561 Y0.1738 I0.267 J0.2456
G3 X0.314 Y0.142 I0.2079 J0.3099
G3 X0.381 Y0.1189 I0.1726 J0.3932
G3 X0.4446 Y0.1072 I0.1193 J0.4701
G3 X0.5194 Y0.1029 I0.0748 J0.6473
G3 X0.565 Y0.105 I0 J0.5107
G3 X0.6196 Y0.1119 I-0.0662 J0.7374
G3 X0.6646 Y0.1208 I-0.1211 J0.7327
G3 X0.6865 Y0.1273 I-0.0414 J0.1805
G2 X0.6971 Y0.131 I0.158 J-0.4365
G2 X0.7046 Y0.1333 I0.0749 J-0.2235
G2 X0.715 Y0.1361 I0.055 J-0.1845
G2 X0.7235 Y0.1379 I0.0299 J-0.1255
G3 X0.7344 Y0.1552 I-0.0732 J0.0578
G3 X0.7521 Y0.1972 I-0.4151 J0.1997
G3 X0.7667 Y0.2443 I-0.4849 J0.1768
G3 X0.7743 Y0.2827 I-0.3155 J0.0819
G3 X0.7702 Y0.2868 I-0.0092 J-0.0053
G3 X0.7617 Y0.2896 I-0.0121 J-0.0221
G3 X0.7528 Y0.2895 I-0.0041 J-0.0278
G3 X0.7468 Y0.287 I0.0025 J-0.0145
G2 X0.7168 Y0.2306 I-0.2555 J0.0996
G2 X0.6783 Y0.188 I-0.1829 J0.1265
G2 X0.6118 Y0.1501 I-0.1327 J0.1554
G2 X0.5258 Y0.1357 I-0.0861 J0.2515
G2 X0.4006 Y0.1599 I0 J0.3363
G2 X0.3037 Y0.2248 I0.1048 J0.2611
G2 X0.2379 Y0.3301 I0.2103 J0.2046
G2 X0.2116 Y0.4805 I0.418 J0.1504
G2 X0.2182 Y0.559 I0.4725 J0
G2 X0.2357 Y0.6231 I0.332 J-0.0559
G2 X0.2638 Y0.6785 I0.2764 J-0.1055
G2 X0.3006 Y0.7234 I0.2168 J-0.1405
G2 X0.3905 Y0.7802 I0.1807 J-0.1862
G2 X0.5109 Y0.802 I0.1205 J-0.3221
G2 X0.6091 Y0.787 I0 J-0.3276
G2 X0.6709 Y0.7518 I-0.0504 J-0.1604
G2 X0.7048 Y0.7091 I-0.1072 J-0.1197
G2 X0.7278 Y0.6476 I-0.2046 J-0.1116
G3 X0.7338 Y0.6444 I0.0102 J0.0119
G3 X0.7428 Y0.6435 I0.0071 J0.0261
G3 X0.7515 Y0.6458 I-0.0018 J0.0249
G3 X0.7563 Y0.6497 I-0.0051 J0.011
G2 X0.751 Y0.6936 I2.0734 J0.2718
G2 X0.7461 Y0.7425 I2.5723 J0.282
G2 X0.7428 Y0.783 I2.4528 J0.2218
G2 X0.7415 Y0.8052 I0.7334 J0.0541
G2 X0.7327 Y0.8053 I-0.004 J0.0361
G2 X0.7146 Y0.8088 I0.0213 J0.1612
G3 X0.7128 Y0.8092 I-0.8382 J-3.3451
G1 X0.7119 Y0.8094
G3 X0.6734 Y0.8185 I-0.1393 J-0.5036
G3 X0.6211 Y0.8273 I-0.1808 J-0.9202
G3 X0.5665 Y0.8332 I-0.1266 J-0.9152
G3 X0.5247 Y0.8348 I-0.0418 J-0.5346
G3 X0.4423 Y0.8289 I0 J-0.5779
G3 X0.3696 Y0.8125 I0.067 J-0.4653
G3 X0.2996 Y0.7837 I0.128 J-0.4112
G3 X0.2391 Y0.7449 I0.1787 J-0.3453
G3 X0.1844 Y0.6913 I0.2049 J-0.2639
G3 X0.1424 Y0.6254 I0.2692 J-0.2179
G3 X0.1153 Y0.5486 I0.3168 J-0.1549
G3 X0.1059 Y0.4646 I0.37 J-0.084
G0 Z0.125
G0 X0.1059 Y0.4646
G1 Z-0.0624 F10
G3 X0.1174 Y0.3707 I0.3902 J0 F10
G3 X0.1492 Y0.2899 I0.3187 J0.0791
G3 X0.1947 Y0.2271 I0.2885 J0.1608
G3 X0.2561 Y0.1738 I0.267 J0.2456
G3 X0.314 Y0.142 I0.2079 J0.3099
G3 X0.381 Y0.1189 I0.1726 J0.3932
G3 X0.4446 Y0.1072 I0.1193 J0.4701
G3 X0.5194 Y0.1029 I0.0748 J0.6473
G3 X0.565 Y0.105 I0 J0.5107
G3 X0.6196 Y0.1119 I-0.0662 J0.7374
G3 X0.6646 Y0.1208 I-0.1211 J0.7327
G3 X0.6865 Y0.1273 I-0.0414 J0.1805
G2 X0.6971 Y0.131 I0.158 J-0.4365
G2 X0.7046 Y0.1333 I0.0749 J-0.2235
G2 X0.715 Y0.1361 I0.055 J-0.1845
G2 X0.7235 Y0.1379 I0.0299 J-0.1255
G3 X0.7344 Y0.1552 I-0.0732 J0.0578
G3 X0.7521 Y0.1972 I-0.4151 J0.1997
G3 X0.7667 Y0.2443 I-0.4849 J0.1768
G3 X0.7743 Y0.2827 I-0.3155 J0.0819
G3 X0.7702 Y0.2868 I-0.0092 J-0.0053
G3 X0.7617 Y0.2896 I-0.0121 J-0.0221
G3 X0.7528 Y0.2895 I-0.0041 J-0.0278
G3 X0.7468 Y0.287 I0.0025 J-0.0145
G2 X0.7168 Y0.2306 I-0.2555 J0.0996
G2 X0.6783 Y0.188 I-0.1829 J0.1265
G2 X0.6118 Y0.1501 I-0.1327 J0.1554
G2 X0.5258 Y0.1357 I-0.0861 J0.2515
G2 X0.4006 Y0.1599 I0 J0.3363
G2 X0.3037 Y0.2248 I0.1048 J0.2611
G2 X0.2379 Y0.3301 I0.2103 J0.2046
G2 X0.2116 Y0.4805 I0.418 J0.1504
G2 X0.2182 Y0.559 I0.4725 J0
G2 X0.2357 Y0.6231 I0.332 J-0.0559
G2 X0.2638 Y0.6785 I0.2764 J-0.1055
G2 X0.3006 Y0.7234 I0.2168 J-0.1405
G2 X0.3905 Y0.7802 I0.1807 J-0.1862
G2 X0.5109 Y0.802 I0.1205 J-0.3221
G2 X0.6091 Y0.787 I0 J-0.3276
G2 X0.6709 Y0.7518 I-0.0504 J-0.1604
G2 X0.7048 Y0.7091 I-0.1072 J-0.1197
G2 X0.7278 Y0.6476 I-0.2046 J-0.1116
G3 X0.7338 Y0.6444 I0.0102 J0.0119
G3 X0.7428 Y0.6435 I0.0071 J0.0261
G3 X0.7515 Y0.6458 I-0.0018 J0.0249
G3 X0.7563 Y0.6497 I-0.0051 J0.011
G2 X0.751 Y0.6936 I2.0734 J0.2718
G2 X0.7461 Y0.7425 I2.5723 J0.282
G2 X0.7428 Y0.783 I2.4528 J0.2218
G2 X0.7415 Y0.8052 I0.7334 J0.0541
G2 X0.7327 Y0.8053 I-0.004 J0.0361
G2 X0.7146 Y0.8088 I0.0213 J0.1612
G3 X0.7128 Y0.8092 I-0.8382 J-3.3451
G1 X0.7119 Y0.8094
G3 X0.6734 Y0.8185 I-0.1393 J-0.5036
G3 X0.6211 Y0.8273 I-0.1808 J-0.9202
G3 X0.5665 Y0.8332 I-0.1266 J-0.9152
G3 X0.5247 Y0.8348 I-0.0418 J-0.5346
G3 X0.4423 Y0.8289 I0 J-0.5779
G3 X0.3696 Y0.8125 I0.067 J-0.4653
G3 X0.2996 Y0.7837 I0.128 J-0.4112
G3 X0.2391 Y0.7449 I0.1787 J-0.3453
G3 X0.1844 Y0.6913 I0.2049 J-0.2639
G3 X0.1424 Y0.6254 I0.2692 J-0.2179
G3 X0.1153 Y0.5486 I0.3168 J-0.1549
G3 X0.1059 Y0.4646 I0.37 J-0.084
G0 Z0.125
G0 X0.1059 Y0.4646
G1 Z-0.0936 F10
G3 X0.1174 Y0.3707 I0.3902 J0 F10
G3 X0.1492 Y0.2899 I0.3187 J0.0791
G3 X0.1947 Y0.2271 I0.2885 J0.1608
G3 X0.2561 Y0.1738 I0.267 J0.2456
G3 X0.314 Y0.142 I0.2079 J0.3099
G3 X0.381 Y0.1189 I0.1726 J0.3932
G3 X0.4446 Y0.1072 I0.1193 J0.4701
G3 X0.5194 Y0.1029 I0.0748 J0.6473
G3 X0.565 Y0.105 I0 J0.5107
G3 X0.6196 Y0.1119 I-0.0662 J0.7374
G3 X0.6646 Y0.1208 I-0.1211 J0.7327
G3 X0.6865 Y0.1273 I-0.0414 J0.1805
G2 X0.6971 Y0.131 I0.158 J-0.4365
G2 X0.7046 Y0.1333 I0.0749 J-0.2235
G2 X0.715 Y0.1361 I0.055 J-0.1845
G2 X0.7235 Y0.1379 I0.0299 J-0.1255
G3 X0.7344 Y0.1552 I-0.0732 J0.0578
G3 X0.7521 Y0.1972 I-0.4151 J0.1997
G3 X0.7667 Y0.2443 I-0.4849 J0.1768
G3 X0.7743 Y0.2827 I-0.3155 J0.0819
G3 X0.7702 Y0.2868 I-0.0092 J-0.0053
G3 X0.7617 Y0.2896 I-0.0121 J-0.0221
G3 X0.7528 Y0.2895 I-0.0041 J-0.0278
G3 X0.7468 Y0.287 I0.0025 J-0.0145
G2 X0.7168 Y0.2306 I-0.2555 J0.0996
G2 X0.6783 Y0.188 I-0.1829 J0.1265
G2 X0.6118 Y0.1501 I-0.1327 J0.1554
G2 X0.5258 Y0.1357 I-0.0861 J0.2515
G2 X0.4006 Y0.1599 I0 J0.3363
G2 X0.3037 Y0.2248 I0.1048 J0.2611
G2 X0.2379 Y0.3301 I0.2103 J0.2046
G2 X0.2116 Y0.4805 I0.418 J0.1504
G2 X0.2182 Y0.559 I0.4725 J0
G2 X0.2357 Y0.6231 I0.332 J-0.0559
G2 X0.2638 Y0.6785 I0.2764 J-0.1055
G2 X0.3006 Y0.7234 I0.2168 J-0.1405
G2 X0.3905 Y0.7802 I0.1807 J-0.1862
G2 X0.5109 Y0.802 I0.1205 J-0.3221
G2 X0.6091 Y0.787 I0 J-0.3276
G2 X0.6709 Y0.7518 I-0.0504 J-0.1604
G2 X0.7048 Y0.7091 I-0.1072 J-0.1197
G2 X0.7278 Y0.6476 I-0.2046 J-0.1116
G3 X0.7338 Y0.6444 I0.0102 J0.0119
G3 X0.7428 Y0.6435 I0.0071 J0.0261
G3 X0.7515 Y0.6458 I-0.0018 J0.0249
G3 X0.7563 Y0.6497 I-0.0051 J0.011
G2 X0.751 Y0.6936 I2.0734 J0.2718
G2 X0.7461 Y0.7425 I2.5723 J0.282
G2 X0.7428 Y0.783 I2.4528 J0.2218
G2 X0.7415 Y0.8052 I0.7334 J0.0541
G2 X0.7327 Y0.8053 I-0.004 J0.0361
G2 X0.7146 Y0.8088 I0.0213 J0.1612
G3 X0.7128 Y0.8092 I-0.8382 J-3.3451
G1 X0.7119 Y0.8094
G3 X0.6734 Y0.8185 I-0.1393 J-0.5036
G3 X0.6211 Y0.8273 I-0.1808 J-0.9202
G3 X0.5665 Y0.8332 I-0.1266 J-0.9152
G3 X0.5247 Y0.8348 I-0.0418 J-0.5346
G3 X0.4423 Y0.8289 I0 J-0.5779
G3 X0.3696 Y0.8125 I0.067 J-0.4653
G3 X0.2996 Y0.7837 I0.128 J-0.4112
G3 X0.2391 Y0.7449 I0.1787 J-0.3453
G3 X0.1844 Y0.6913 I0.2049 J-0.2639
G3 X0.1424 Y0.6254 I0.2692 J-0.2179
G3 X0.1153 Y0.5486 I0.3168 J-0.1549
G3 X0.1059 Y0.4646 I0.37 J-0.084
G0 Z0.125
G0 X0.1059 Y0.4646
G1 Z-0.1248 F10
G3 X0.1174 Y0.3707 I0.3902 J0 F10
G3 X0.1492 Y0.2899 I0.3187 J0.0791
G3 X0.1947 Y0.2271 I0.2885 J0.1608
G3 X0.2561 Y0.1738 I0.267 J0.2456
G3 X0.314 Y0.142 I0.2079 J0.3099
G3 X0.381 Y0.1189 I0.1726 J0.3932
G3 X0.4446 Y0.1072 I0.1193 J0.4701
G3 X0.5194 Y0.1029 I0.0748 J0.6473
G3 X0.565 Y0.105 I0 J0.5107
G3 X0.6196 Y0.1119 I-0.0662 J0.7374
G3 X0.6646 Y0.1208 I-0.1211 J0.7327
G3 X0.6865 Y0.1273 I-0.0414 J0.1805
G2 X0.6971 Y0.131 I0.158 J-0.4365
G2 X0.7046 Y0.1333 I0.0749 J-0.2235
G2 X0.715 Y0.1361 I0.055 J-0.1845
G2 X0.7235 Y0.1379 I0.0299 J-0.1255
G3 X0.7344 Y0.1552 I-0.0732 J0.0578
G3 X0.7521 Y0.1972 I-0.4151 J0.1997
G3 X0.7667 Y0.2443 I-0.4849 J0.1768
G3 X0.7743 Y0.2827 I-0.3155 J0.0819
G3 X0.7702 Y0.2868 I-0.0092 J-0.0053
G3 X0.7617 Y0.2896 I-0.0121 J-0.0221
G3 X0.7528 Y0.2895 I-0.0041 J-0.0278
G3 X0.7468 Y0.287 I0.0025 J-0.0145
G2 X0.7168 Y0.2306 I-0.2555 J0.0996
G2 X0.6783 Y0.188 I-0.1829 J0.1265
G2 X0.6118 Y0.1501 I-0.1327 J0.1554
G2 X0.5258 Y0.1357 I-0.0861 J0.2515
G2 X0.4006 Y0.1599 I0 J0.3363
G2 X0.3037 Y0.2248 I0.1048 J0.2611
G2 X0.2379 Y0.3301 I0.2103 J0.2046
G2 X0.2116 Y0.4805 I0.418 J0.1504
G2 X0.2182 Y0.559 I0.4725 J0
G2 X0.2357 Y0.6231 I0.332 J-0.0559
G2 X0.2638 Y0.6785 I0.2764 J-0.1055
G2 X0.3006 Y0.7234 I0.2168 J-0.1405
G2 X0.3905 Y0.7802 I0.1807 J-0.1862
G2 X0.5109 Y0.802 I0.1205 J-0.3221
G2 X0.6091 Y0.787 I0 J-0.3276
G2 X0.6709 Y0.7518 I-0.0504 J-0.1604
G2 X0.7048 Y0.7091 I-0.1072 J-0.1197
G2 X0.7278 Y0.6476 I-0.2046 J-0.1116
G3 X0.7338 Y0.6444 I0.0102 J0.0119
G3 X0.7428 Y0.6435 I0.0071 J0.0261
G3 X0.7515 Y0.6458 I-0.0018 J0.0249
G3 X0.7563 Y0.6497 I-0.0051 J0.011
G2 X0.751 Y0.6936 I2.0734 J0.2718
G2 X0.7461 Y0.7425 I2.5723 J0.282
G2 X0.7428 Y0.783 I2.4528 J0.2218
G2 X0.7415 Y0.8052 I0.7334 J0.0541
G2 X0.7327 Y0.8053 I-0.004 J0.0361
G2 X0.7146 Y0.8088 I0.0213 J0.1612
G3 X0.7128 Y0.8092 I-0.8382 J-3.3451
G1 X0.7119 Y0.8094
G3 X0.6734 Y0.8185 I-0.1393 J-0.5036
G3 X0.6211 Y0.8273 I-0.1808 J-0.9202
G3 X0.5665 Y0.8332 I-0.1266 J-0.9152
G3 X0.5247 Y0.8348 I-0.0418 J-0.5346
G3 X0.4423 Y0.8289 I0 J-0.5779
G3 X0.3696 Y0.8125 I0.067 J-0.4653
G3 X0.2996 Y0.7837 I0.128 J-0.4112
G3 X0.2391 Y0.7449 I0.1787 J-0.3453
G3 X0.1844 Y0.6913 I0.2049 J-0.2639
G3 X0.1424 Y0.6254 I0.2692 J-0.2179
G3 X0.1153 Y0.5486 I0.3168 J-0.1549
G3 X0.1059 Y0.4646 I0.37 J-0.084
G0 Z0.125
G0 X0.1059 Y0.4646
G1 Z-0.156 F10
G3 X0.1174 Y0.3707 I0.3902 J0 F10
G3 X0.1492 Y0.2899 I0.3187 J0.0791
G3 X0.1947 Y0.2271 I0.2885 J0.1608
G3 X0.2561 Y0.1738 I0.267 J0.2456
G3 X0.314 Y0.142 I0.2079 J0.3099
G3 X0.381 Y0.1189 I0.1726 J0.3932
G3 X0.4446 Y0.1072 I0.1193 J0.4701
G3 X0.5194 Y0.1029 I0.0748 J0.6473
G3 X0.565 Y0.105 I0 J0.5107
G3 X0.6196 Y0.1119 I-0.0662 J0.7374
G3 X0.6646 Y0.1208 I-0.1211 J0.7327
G3 X0.6865 Y0.1273 I-0.0414 J0.1805
G2 X0.6971 Y0.131 I0.158 J-0.4365
G2 X0.7046 Y0.1333 I0.0749 J-0.2235
G2 X0.715 Y0.1361 I0.055 J-0.1845
G2 X0.7235 Y0.1379 I0.0299 J-0.1255
G3 X0.7344 Y0.1552 I-0.0732 J0.0578
G3 X0.7521 Y0.1972 I-0.4151 J0.1997
G3 X0.7667 Y0.2443 I-0.4849 J0.1768
G3 X0.7743 Y0.2827 I-0.3155 J0.0819
G3 X0.7702 Y0.2868 I-0.0092 J-0.0053
G3 X0.7617 Y0.2896 I-0.0121 J-0.0221
G3 X0.7528 Y0.2895 I-0.0041 J-0.0278
G3 X0.7468 Y0.287 I0.0025 J-0.0145
G2 X0.7168 Y0.2306 I-0.2555 J0.0996
G2 X0.6783 Y0.188 I-0.1829 J0.1265
G2 X0.6118 Y0.1501 I-0.1327 J0.1554
G2 X0.5258 Y0.1357 I-0.0861 J0.2515
G2 X0.4006 Y0.1599 I0 J0.3363
G2 X0.3037 Y0.2248 I0.1048 J0.2611
G2 X0.2379 Y0.3301 I0.2103 J0.2046
G2 X0.2116 Y0.4805 I0.418 J0.1504
G2 X0.2182 Y0.559 I0.4725 J0
G2 X0.2357 Y0.6231 I0.332 J-0.0559
G2 X0.2638 Y0.6785 I0.2764 J-0.1055
G2 X0.3006 Y0.7234 I0.2168 J-0.1405
G2 X0.3905 Y0.7802 I0.1807 J-0.1862
G2 X0.5109 Y0.802 I0.1205 J-0.3221
G2 X0.6091 Y0.787 I0 J-0.3276
G2 X0.6709 Y0.7518 I-0.0504 J-0.1604
G2 X0.7048 Y0.7091 I-0.1072 J-0.1197
G2 X0.7278 Y0.6476 I-0.2046 J-0.1116
G3 X0.7338 Y0.6444 I0.0102 J0.0119
G3 X0.7428 Y0.6435 I0.0071 J0.0261
G3 X0.7515 Y0.6458 I-0.0018 J0.0249
G3 X0.7563 Y0.6497 I-0.0051 J0.011
G2 X0.751 Y0.6936 I2.0734 J0.2718
G2 X0.7461 Y0.7425 I2.5723 J0.282
G2 X0.7428 Y0.783 I2.4528 J0.2218
G2 X0.7415 Y0.8052 I0.7334 J0.0541
G2 X0.7327 Y0.8053 I-0.004 J0.0361
G2 X0.7146 Y0.8088 I0.0213 J0.1612
G3 X0.7128 Y0.8092 I-0.8382 J-3.3451
G1 X0.7119 Y0.8094
G3 X0.6734 Y0.8185 I-0.1393 J-0.5036
G3 X0.6211 Y0.8273 I-0.1808 J-0.9202
G3 X0.5665 Y0.8332 I-0.1266 J-0.9152
G3 X0.5247 Y0.8348 I-0.0418 J-0.5346
G3 X0.4423 Y0.8289 I0 J-0.5779
G3 X0.3696 Y0.8125 I0.067 J-0.4653
G3 X0.2996 Y0.7837 I0.128 J-0.4112
G3 X0.2391 Y0.7449 I0.1787 J-0.3453
G3 X0.1844 Y0.6913 I0.2049 J-0.2639
G3 X0.1424 Y0.6254 I0.2692 J-0.2179
G3 X0.1153 Y0.5486 I0.3168 J-0.1549
G3 X0.1059 Y0.4646 I0.37 J-0.084
G0 Z0.125
G0 X0.1059 Y0.4646
G1 Z-0.1872 F10
G3 X0.1174 Y0.3707 I0.3902 J0 F10
G3 X0.1492 Y0.2899 I0.3187 J0.0791
G3 X0.1947 Y0.2271 I0.2885 J0.1608
G3 X0.2561 Y0.1738 I0.267 J0.2456
G3 X0.314 Y0.142 I0.2079 J0.3099
G3 X0.381 Y0.1189 I0.1726 J0.3932
G3 X0.4446 Y0.1072 I0.1193 J0.4701
G3 X0.5194 Y0.1029 I0.0748 J0.6473
G3 X0.565 Y0.105 I0 J0.5107
G3 X0.6196 Y0.1119 I-0.0662 J0.7374
G3 X0.6646 Y0.1208 I-0.1211 J0.7327
G3 X0.6865 Y0.1273 I-0.0414 J0.1805
G2 X0.6971 Y0.131 I0.158 J-0.4365
G2 X0.7046 Y0.1333 I0.0749 J-0.2235
G2 X0.715 Y0.1361 I0.055 J-0.1845
G2 X0.7235 Y0.1379 I0.0299 J-0.1255
G3 X0.7344 Y0.1552 I-0.0732 J0.0578
G3 X0.7521 Y0.1972 I-0.4151 J0.1997
G3 X0.7667 Y0.2443 I-0.4849 J0.1768
G3 X0.7743 Y0.2827 I-0.3155 J0.0819
G3 X0.7702 Y0.2868 I-0.0092 J-0.0053
G3 X0.7617 Y0.2896 I-0.0121 J-0.0221
G3 X0.7528 Y0.2895 I-0.0041 J-0.0278
G3 X0.7468 Y0.287 I0.0025 J-0.0145
G2 X0.7168 Y0.2306 I-0.2555 J0.0996
G2 X0.6783 Y0.188 I-0.1829 J0.1265
G2 X0.6118 Y0.1501 I-0.1327 J0.1554
G2 X0.5258 Y0.1357 I-0.0861 J0.2515
G2 X0.4006 Y0.1599 I0 J0.3363
G2 X0.3037 Y0.2248 I0.1048 J0.2611
G2 X0.2379 Y0.3301 I0.2103 J0.2046
G2 X0.2116 Y0.4805 I0.418 J0.1504
G2 X0.2182 Y0.559 I0.4725 J0
G2 X0.2357 Y0.6231 I0.332 J-0.0559
G2 X0.2638 Y0.6785 I0.2764 J-0.1055
G2 X0.3006 Y0.7234 I0.2168 J-0.1405
G2 X0.3905 Y0.7802 I0.1807 J-0.1862
G2 X0.5109 Y0.802 I0.1205 J-0.3221
G2 X0.6091 Y0.787 I0 J-0.3276
G2 X0.6709 Y0.7518 I-0.0504 J-0.1604
G2 X0.7048 Y0.7091 I-0.1072 J-0.1197
G2 X0.7278 Y0.6476 I-0.2046 J-0.1116
G3 X0.7338 Y0.6444 I0.0102 J0.0119
G3 X0.7428 Y0.6435 I0.0071 J0.0261
G3 X0.7515 Y0.6458 I-0.0018 J0.0249
G3 X0.7563 Y0.6497 I-0.0051 J0.011
G2 X0.751 Y0.6936 I2.0734 J0.2718
G2 X0.7461 Y0.7425 I2.5723 J0.282
G2 X0.7428 Y0.783 I2.4528 J0.2218
G2 X0.7415 Y0.8052 I0.7334 J0.0541
G2 X0.7327 Y0.8053 I-0.004 J0.0361
G2 X0.7146 Y0.8088 I0.0213 J0.1612
G3 X0.7128 Y0.8092 I-0.8382 J-3.3451
G1 X0.7119 Y0.8094
G3 X0.6734 Y0.8185 I-0.1393 J-0.5036
G3 X0.6211 Y0.8273 I-0.1808 J-0.9202
G3 X0.5665 Y0.8332 I-0.1266 J-0.9152
G3 X0.5247 Y0.8348 I-0.0418 J-0.5346
G3 X0.4423 Y0.8289 I0 J-0.5779
G3 X0.3696 Y0.8125 I0.067 J-0.4653
G3 X0.2996 Y0.7837 I0.128 J-0.4112
G3 X0.2391 Y0.7449 I0.1787 J-0.3453
G3 X0.1844 Y0.6913 I0.2049 J-0.2639
G3 X0.1424 Y0.6254 I0.2692 J-0.2179
G3 X0.1153 Y0.5486 I0.3168 J-0.1549
G3 X0.1059 Y0.4646 I0.37 J-0.084
G0 Z0.125
G0 X0.1059 Y0.4646
G1 Z-0.2 F10
G3 X0.1174 Y0.3707 I0.3902 J0 F10
G3 X0.1492 Y0.2899 I0.3187 J0.0791
G3 X0.1947 Y0.2271 I0.2885 J0.1608
G3 X0.2561 Y0.1738 I0.267 J0.2456
G3 X0.314 Y0.142 I0.2079 J0.3099
G3 X0.381 Y0.1189 I0.1726 J0.3932
G3 X0.4446 Y0.1072 I0.1193 J0.4701
G3 X0.5194 Y0.1029 I0.0748 J0.6473
G3 X0.565 Y0.105 I0 J0.5107
G3 X0.6196 Y0.1119 I-0.0662 J0.7374
G3 X0.6646 Y0.1208 I-0.1211 J0.7327
G3 X0.6865 Y0.1273 I-0.0414 J0.1805
G2 X0.6971 Y0.131 I0.158 J-0.4365
G2 X0.7046 Y0.1333 I0.0749 J-0.2235
G2 X0.715 Y0.1361 I0.055 J-0.1845
G2 X0.7235 Y0.1379 I0.0299 J-0.1255
G3 X0.7344 Y0.1552 I-0.0732 J0.0578
G3 X0.7521 Y0.1972 I-0.4151 J0.1997
G3 X0.7667 Y0.2443 I-0.4849 J0.1768
G3 X0.7743 Y0.2827 I-0.3155 J0.0819
G3 X0.7702 Y0.2868 I-0.0092 J-0.0053
G3 X0.7617 Y0.2896 I-0.0121 J-0.0221
G3 X0.7528 Y0.2895 I-0.0041 J-0.0278
G3 X0.7468 Y0.287 I0.0025 J-0.0145
G2 X0.7168 Y0.2306 I-0.2555 J0.0996
G2 X0.6783 Y0.188 I-0.1829 J0.1265
G2 X0.6118 Y0.1501 I-0.1327 J0.1554
G2 X0.5258 Y0.1357 I-0.0861 J0.2515
G2 X0.4006 Y0.1599 I0 J0.3363
G2 X0.3037 Y0.2248 I0.1048 J0.2611
G2 X0.2379 Y0.3301 I0.2103 J0.2046
G2 X0.2116 Y0.4805 I0.418 J0.1504
G2 X0.2182 Y0.559 I0.4725 J0
G2 X0.2357 Y0.6231 I0.332 J-0.0559
G2 X0.2638 Y0.6785 I0.2764 J-0.1055
G2 X0.3006 Y0.7234 I0.2168 J-0.1405
G2 X0.3905 Y0.7802 I0.1807 J-0.1862
G2 X0.5109 Y0.802 I0.1205 J-0.3221
G2 X0.6091 Y0.787 I0 J-0.3276
G2 X0.6709 Y0.7518 I-0.0504 J-0.1604
G2 X0.7048 Y0.7091 I-0.1072 J-0.1197
G2 X0.7278 Y0.6476 I-0.2046 J-0.1116
G3 X0.7338 Y0.6444 I0.0102 J0.0119
G3 X0.7428 Y0.6435 I0.0071 J0.0261
G3 X0.7515 Y0.6458 I-0.0018 J0.0249
G3 X0.7563 Y0.6497 I-0.0051 J0.011
G2 X0.751 Y0.6936 I2.0734 J0.2718
G2 X0.7461 Y0.7425 I2.5723 J0.282
G2 X0.7428 Y0.783 I2.4528 J0.2218
G2 X0.7415 Y0.8052 I0.7334 J0.0541
G2 X0.7327 Y0.8053 I-0.004 J0.0361
G2 X0.7146 Y0.8088 I0.0213 J0.1612
G3 X0.7128 Y0.8092 I-0.8382 J-3.3451
G1 X0.7119 Y0.8094
G3 X0.6734 Y0.8185 I-0.1393 J-0.5036
G3 X0.6211 Y0.8273 I-0.1808 J-0.9202
G3 X0.5665 Y0.8332 I-0.1266 J-0.9152
G3 X0.5247 Y0.8348 I-0.0418 J-0.5346
G3 X0.4423 Y0.8289 I0 J-0.5779
G3 X0.3696 Y0.8125 I0.067 J-0.4653
G3 X0.2996 Y0.7837 I0.128 J-0.4112
G3 X0.2391 Y0.7449 I0.1787 J-0.3453
G3 X0.1844 Y0.6913 I0.2049 J-0.2639
G3 X0.1424 Y0.6254 I0.2692 J-0.2179
G3 X0.1153 Y0.5486 I0.3168 J-0.1549
G3 X0.1059 Y0.4646 I0.37 J-0.084
G0 Z0.125
G0 X0.4061 Y1.3807
G1 Z-0.0312 F10
G1 X0.4064 Y1.3819 F10
G1 X0.4058 Y1.3831
G3 X0.4044 Y1.3848 I-0.0044 J-0.0022
G3 X0.4017 Y1.3861 I-0.0051 J-0.0069
G3 X0.3998 Y1.3865 I-0.0036 J-0.0121
G3 X0.3977 Y1.3867 I-0.0021 J-0.0149
G1 X0.3936 Y1.386
G1 X0.3925 Y1.3855
G1 X0.3919 Y1.3845
G2 X0.3869 Y1.3781 I-0.0267 J0.0154
G2 X0.3828 Y1.3755 I-0.0075 J0.0075
G2 X0.3779 Y1.3745 I-0.0064 J0.0188
G2 X0.3605 Y1.3739 I-0.0175 J0.2399
G1 X0.1783 Y1.3739
G2 X0.1622 Y1.3745 I0 J0.2019
G2 X0.1564 Y1.3757 I0.0022 J0.0277
G2 X0.1507 Y1.3792 I0.0037 J0.0123
G2 X0.1479 Y1.3848 I0.0083 J0.0077
G1 X0.1477 Y1.3858
G1 X0.1469 Y1.3866
G3 X0.1459 Y1.3873 I-0.0033 J-0.0033
G3 X0.1445 Y1.3879 I-0.0034 J-0.006
G3 X0.143 Y1.3883 I-0.0027 J-0.0089
G3 X0.1408 Y1.3884 I-0.0021 J-0.0174
G3 X0.1393 Y1.3883 I0 J-0.0214
G3 X0.1379 Y1.3882 I0.0014 J-0.0192
G3 X0.1356 Y1.3876 I0.002 J-0.0136
G3 X0.1343 Y1.387 I0.0017 J-0.0051
G1 X0.1331 Y1.3862
G1 X0.1328 Y1.3848
G2 X0.13 Y1.3702 I-0.3851 J0.0678
G2 X0.126 Y1.353 I-0.5474 J0.1179
G2 X0.1207 Y1.3336 I-0.4774 J0.1187
G2 X0.1162 Y1.3196 I-0.2503 J0.0732
G1 X0.1157 Y1.3183
G1 X0.1164 Y1.317
G3 X0.1191 Y1.3138 I0.008 J0.004
G3 X0.1238 Y1.3115 I0.0084 J0.0114
G3 X0.1291 Y1.3112 I0.0035 J0.013
G3 X0.1329 Y1.3127 I-0.0011 J0.0081
G1 X0.134 Y1.3141
G2 X0.1386 Y1.324 I0.2357 J-0.1036
G2 X0.1413 Y1.329 I0.0619 J-0.0304
G2 X0.1466 Y1.3366 I0.0554 J-0.0331
G2 X0.153 Y1.3433 I0.0502 J-0.0408
G2 X0.1603 Y1.3479 I0.0154 J-0.0168
G2 X0.175 Y1.3518 I0.0256 J-0.067
G2 X0.1863 Y1.3529 I0.0181 J-0.1181
G2 X0.2049 Y1.3535 I0.0187 J-0.3251
G1 X0.2291 Y1.3535
G2 X0.2363 Y1.3529 I0 J-0.0466
G2 X0.2378 Y1.3521 I-0.0004 J-0.0025
G2 X0.2385 Y1.3506 I-0.0021 J-0.0019
G2 X0.239 Y1.3428 I-0.0595 J-0.0078
G1 X0.239 Y1.1457
G2 X0.2387 Y1.1267 I-0.694 J0
G2 X0.2382 Y1.1178 I-0.1548 J0.0042
G2 X0.2367 Y1.1077 I-0.0786 J0.0067
G2 X0.2349 Y1.1027 I-0.0208 J0.0045
G2 X0.2297 Y1.0978 I-0.0093 J0.0047
G2 X0.2148 Y1.094 I-0.0192 J0.0448
G1 X0.1989 Y1.0927
G1 X0.1974 Y1.0922
G3 X0.1957 Y1.0908 I0.0037 J-0.0061
G3 X0.1944 Y1.0887 I0.0066 J-0.0056
G3 X0.1937 Y1.0863 I0.0092 J-0.0041
G3 X0.1935 Y1.0834 I0.0132 J-0.0023
G3 X0.1938 Y1.081 I0.0139 J0.0006
G3 X0.1945 Y1.0788 I0.011 J0.0025
G3 X0.196 Y1.0766 I0.0078 J0.0035
G3 X0.1977 Y1.0753 I0.0042 J0.0038
G1 X0.1993 Y1.075
G1 X0.1994 Y1.075
G1 X0.1996 Y1.075
G2 X0.2426 Y1.0761 I0.1472 J-4.8696
G2 X0.2604 Y1.0763 I0.0178 J-0.8312
G2 X0.2726 Y1.0762 I0 J-0.9647
G2 X0.2859 Y1.076 I-0.0146 J-1.1627
G2 X0.2966 Y1.0757 I-0.0382 J-1.5872
G2 X0.3181 Y1.075 I-0.1976 J-6.4219
G1 X0.3197 Y1.0753
G3 X0.3214 Y1.0766 I-0.0025 J0.0049
G3 X0.3229 Y1.079 I-0.007 J0.0061
G3 X0.3236 Y1.0812 I-0.0115 J0.0051
G3 X0.324 Y1.0839 I-0.0157 J0.0036
G3 X0.3239 Y1.0867 I-0.0151 J0.0009
G3 X0.3234 Y1.0889 I-0.0098 J-0.0012
G3 X0.3223 Y1.0909 I-0.0073 J-0.0027
G3 X0.3209 Y1.0922 I-0.0045 J-0.0034
G1 X0.3052 Y1.094
G2 X0.2904 Y1.0979 I0.0039 J0.0455
G2 X0.2853 Y1.103 I0.0042 J0.0093
G2 X0.2837 Y1.1079 I0.0199 J0.009
G2 X0.2824 Y1.1181 I0.0848 J0.016
G2 X0.2821 Y1.1262 I0.1698 J0.0115
G2 X0.2819 Y1.1457 I0.982 J0.0195
G1 X0.2819 Y1.3432
G2 X0.2819 Y1.3476 I0.2913 J0.0004
G2 X0.282 Y1.3494 I0.0459 J-0.0006
G2 X0.2823 Y1.3522 I0.0206 J-0.0011
G1 X0.2826 Y1.3527
G1 X0.2832 Y1.353
G2 X0.286 Y1.3534 I0.0041 J-0.0215
G2 X0.2877 Y1.3534 I0.0025 J-0.0448
G2 X0.2913 Y1.3535 I0.0036 J-0.2005
G1 X0.3226 Y1.3535
G2 X0.3402 Y1.3527 I0 J-0.2061
G2 X0.3524 Y1.3509 I-0.0087 J-0.1009
G2 X0.3641 Y1.3473 I-0.0143 J-0.0677
G2 X0.3717 Y1.3431 I-0.0129 J-0.0319
G2 X0.3741 Y1.3403 I-0.0051 J-0.007
G2 X0.3774 Y1.3329 I-0.0361 J-0.0202
G2 X0.3795 Y1.3249 I-0.0693 J-0.0224
G2 X0.3814 Y1.3133 I-0.1442 J-0.0292
G1 X0.3821 Y1.3115
G3 X0.3835 Y1.3103 I0.0052 J0.0043
G3 X0.3854 Y1.3092 I0.0055 J0.0079
G3 X0.3876 Y1.3086 I0.0042 J0.0106
G3 X0.3901 Y1.3084 I0.0025 J0.014
G3 X0.3931 Y1.3087 I0 J0.0139
G3 X0.3957 Y1.3096 I-0.0023 J0.0104
G3 X0.3978 Y1.3112 I-0.0041 J0.008
G3 X0.3992 Y1.3131 I-0.0048 J0.0049
G1 X0.3995 Y1.3149
G2 X0.3992 Y1.3248 I0.0753 J0.0074
G2 X0.4005 Y1.3459 I0.3446 J-0.0114
G2 X0.4033 Y1.3678 I0.3481 J-0.033
G2 X0.4061 Y1.3807 I0.1233 J-0.0196
G0 Z0.125
G0 X0.4061 Y1.3807
G1 Z-0.0624 F10
G1 X0.4064 Y1.3819 F10
G1 X0.4058 Y1.3831
G3 X0.4044 Y1.3848 I-0.0044 J-0.0022
G3 X0.4017 Y1.3861 I-0.0051 J-0.0069
G3 X0.3998 Y1.3865 I-0.0036 J-0.0121
G3 X0.3977 Y1.3867 I-0.0021 J-0.0149
G1 X0.3936 Y1.386
G1 X0.3925 Y1.3855
G1 X0.3919 Y1.3845
G2 X0.3869 Y1.3781 I-0.0267 J0.0154
G2 X0.3828 Y1.3755 I-0.0075 J0.0075
G2 X0.3779 Y1.3745 I-0.0064 J0.0188
G2 X0.3605 Y1.3739 I-0.0175 J0.2399
G1 X0.1783 Y1.3739
G2 X0.1622 Y1.3745 I0 J0.2019
G2 X0.1564 Y1.3757 I0.0022 J0.0277
G2 X0.1507 Y1.3792 I0.0037 J0.0123
G2 X0.1479 Y1.3848 I0.0083 J0.0077
G1 X0.1477 Y1.3858
G1 X0.1469 Y1.3866
G3 X0.1459 Y1.3873 I-0.0033 J-0.0033
G3 X0.1445 Y1.3879 I-0.0034 J-0.006
G3 X0.143 Y1.3883 I-0.0027 J-0.0089
G3 X0.1408 Y1.3884 I-0.0021 J-0.0174
G3 X0.1393 Y1.3883 I0 J-0.0214
G3 X0.1379 Y1.3882 I0.0014 J-0.0192
G3 X0.1356 Y1.3876 I0.002 J-0.0136
G3 X0.1343 Y1.387 I0.0017 J-0.0051
G1 X0.1331 Y1.3862
G1 X0.1328 Y1.3848
G2 X0.13 Y1.3702 I-0.3851 J0.0678
G2 X0.126 Y1.353 I-0.5474 J0.1179
G2 X0.1207 Y1.3336 I-0.4774 J0.1187
G2 X0.1162 Y1.3196 I-0.2503 J0.0732
G1 X0.1157 Y1.3183
G1 X0.1164 Y1.317
G3 X0.1191 Y1.3138 I0.008 J0.004
G3 X0.1238 Y1.3115 I0.0084 J0.0114
G3 X0.1291 Y1.3112 I0.0035 J0.013
G3 X0.1329 Y1.3127 I-0.0011 J0.0081
G1 X0.134 Y1.3141
G2 X0.1386 Y1.324 I0.2357 J-0.1036
G2 X0.1413 Y1.329 I0.0619 J-0.0304
G2 X0.1466 Y1.3366 I0.0554 J-0.0331
G2 X0.153 Y1.3433 I0.0502 J-0.0408
G2 X0.1603 Y1.3479 I0.0154 J-0.0168
G2 X0.175 Y1.3518 I0.0256 J-0.067
G2 X0.1863 Y1.3529 I0.0181 J-0.1181
G2 X0.2049 Y1.3535 I0.0187 J-0.3251
G1 X0.2291 Y1.3535
G2 X0.2363 Y1.3529 I0 J-0.0466
G2 X0.2378 Y1.3521 I-0.0004 J-0.0025
G2 X0.2385 Y1.3506 I-0.0021 J-0.0019
G2 X0.239 Y1.3428 I-0.0595 J-0.0078
G1 X0.239 Y1.1457
G2 X0.2387 Y1.1267 I-0.694 J0
G2 X0.2382 Y1.1178 I-0.1548 J0.0042
G2 X0.2367 Y1.1077 I-0.0786 J0.0067
G2 X0.2349 Y1.1027 I-0.0208 J0.0045
G2 X0.2297 Y1.0978 I-0.0093 J0.0047
G2 X0.2148 Y1.094 I-0.0192 J0.0448
G1 X0.1989 Y1.0927
G1 X0.1974 Y1.0922
G3 X0.1957 Y1.0908 I0.0037 J-0.0061
G3 X0.1944 Y1.0887 I0.0066 J-0.0056
G3 X0.1937 Y1.0863 I0.0092 J-0.0041
G3 X0.1935 Y1.0834 I0.0132 J-0.0023
G3 X0.1938 Y1.081 I0.0139 J0.0006
G3 X0.1945 Y1.0788 I0.011 J0.0025
G3 X0.196 Y1.0766 I0.0078 J0.0035
G3 X0.1977 Y1.0753 I0.0042 J0.0038
G1 X0.1993 Y1.075
G1 X0.1994 Y1.075
G1 X0.1996 Y1.075
G2 X0.2426 Y1.0761 I0.1472 J-4.8696
G2 X0.2604 Y1.0763 I0.0178 J-0.8312
G2 X0.2726 Y1.0762 I0 J-0.9647
G2 X0.2859 Y1.076 I-0.0146 J-1.1627
G2 X0.2966 Y1.0757 I-0.0382 J-1.5872
G2 X0.3181 Y1.075 I-0.1976 J-6.4219
G1 X0.3197 Y1.0753
G3 X0.3214 Y1.0766 I-0.0025 J0.0049
G3 X0.3229 Y1.079 I-0.007 J0.0061
G3 X0.3236 Y1.0812 I-0.0115 J0.0051
G3 X0.324 Y1.0839 I-0.0157 J0.0036
G3 X0.3239 Y1.0867 I-0.0151 J0.0009
G3 X0.3234 Y1.0889 I-0.0098 J-0.0012
G3 X0.3223 Y1.0909 I-0.0073 J-0.0027
G3 X0.3209 Y1.0922 I-0.0045 J-0.0034
G1 X0.3052 Y1.094
G2 X0.2904 Y1.0979 I0.0039 J0.0455
G2 X0.2853 Y1.103 I0.0042 J0.0093
G2 X0.2837 Y1.1079 I0.0199 J0.009
G2 X0.2824 Y1.1181 I0.0848 J0.016
G2 X0.2821 Y1.1262 I0.1698 J0.0115
G2 X0.2819 Y1.1457 I0.982 J0.0195
G1 X0.2819 Y1.3432
G2 X0.2819 Y1.3476 I0.2913 J0.0004
G2 X0.282 Y1.3494 I0.0459 J-0.0006
G2 X0.2823 Y1.3522 I0.0206 J-0.0011
G1 X0.2826 Y1.3527
G1 X0.2832 Y1.353
G2 X0.286 Y1.3534 I0.0041 J-0.0215
G2 X0.2877 Y1.3534 I0.0025 J-0.0448
G2 X0.2913 Y1.3535 I0.0036 J-0.2005
G1 X0.3226 Y1.3535
G2 X0.3402 Y1.3527 I0 J-0.2061
G2 X0.3524 Y1.3509 I-0.0087 J-0.1009
G2 X0.3641 Y1.3473 I-0.0143 J-0.0677
G2 X0.3717 Y1.3431 I-0.0129 J-0.0319
G2 X0.3741 Y1.3403 I-0.0051 J-0.007
G2 X0.3774 Y1.3329 I-0.0361 J-0.0202
G2 X0.3795 Y1.3249 I-0.0693 J-0.0224
G2 X0.3814 Y1.3133 I-0.1442 J-0.0292
G1 X0.3821 Y1.3115
G3 X0.3835 Y1.3103 I0.0052 J0.0043
G3 X0.3854 Y1.3092 I0.0055 J0.0079
G3 X0.3876 Y1.3086 I0.0042 J0.0106
G3 X0.3901 Y1.3084 I0.0025 J0.014
G3 X0.3931 Y1.3087 I0 J0.0139
G3 X0.3957 Y1.3096 I-0.0023 J0.0104
G3 X0.3978 Y1.3112 I-0.0041 J0.008
G3 X0.3992 Y1.3131 I-0.0048 J0.0049
G1 X0.3995 Y1.3149
G2 X0.3992 Y1.3248 I0.0753 J0.0074
G2 X0.4005 Y1.3459 I0.3446 J-0.0114
G2 X0.4033 Y1.3678 I0.3481 J-0.033
G2 X0.4061 Y1.3807 I0.1233 J-0.0196
G0 Z0.125
G0 X0.4061 Y1.3807
G1 Z-0.0936 F10
G1 X0.4064 Y1.3819 F10
G1 X0.4058 Y1.3831
G3 X0.4044 Y1.3848 I-0.0044 J-0.0022
G3 X0.4017 Y1.3861 I-0.0051 J-0.0069
G3 X0.3998 Y1.3865 I-0.0036 J-0.0121
G3 X0.3977 Y1.3867 I-0.0021 J-0.0149
G1 X0.3936 Y1.386
G1 X0.3925 Y1.3855
G1 X0.3919 Y1.3845
G2 X0.3869 Y1.3781 I-0.0267 J0.0154
G2 X0.3828 Y1.3755 I-0.0075 J0.0075
G2 X0.3779 Y1.3745 I-0.0064 J0.0188
G2 X0.3605 Y1.3739 I-0.0175 J0.2399
G1 X0.1783 Y1.3739
G2 X0.1622 Y1.3745 I0 J0.2019
G2 X0.1564 Y1.3757 I0.0022 J0.0277
G2 X0.1507 Y1.3792 I0.0037 J0.0123
G2 X0.1479 Y1.3848 I0.0083 J0.0077
G1 X0.1477 Y1.3858
G1 X0.1469 Y1.3866
G3 X0.1459 Y1.3873 I-0.0033 J-0.0033
G3 X0.1445 Y1.3879 I-0.0034 J-0.006
G3 X0.143 Y1.3883 I-0.0027 J-0.0089
G3 X0.1408 Y1.3884 I-0.0021 J-0.0174
G3 X0.1393 Y1.3883 I0 J-0.0214
G3 X0.1379 Y1.3882 I0.0014 J-0.0192
G3 X0.1356 Y1.3876 I0.002 J-0.0136
G3 X0.1343 Y1.387 I0.0017 J-0.0051
G1 X0.1331 Y1.3862
G1 X0.1328 Y1.3848
G2 X0.13 Y1.3702 I-0.3851 J0.0678
G2 X0.126 Y1.353 I-0.5474 J0.1179
G2 X0.1207 Y1.3336 I-0.4774 J0.1187
G2 X0.1162 Y1.3196 I-0.2503 J0.0732
G1 X0.1157 Y1.3183
G1 X0.1164 Y1.317
G3 X0.1191 Y1.3138 I0.008 J0.004
G3 X0.1238 Y1.3115 I0.0084 J0.0114
G3 X0.1291 Y1.3112 I0.0035 J0.013
G3 X0.1329 Y1.3127 I-0.0011 J0.0081
G1 X0.134 Y1.3141
G2 X0.1386 Y1.324 I0.2357 J-0.1036
G2 X0.1413 Y1.329 I0.0619 J-0.0304
G2 X0.1466 Y1.3366 I0.0554 J-0.0331
G2 X0.153 Y1.3433 I0.0502 J-0.0408
G2 X0.1603 Y1.3479 I0.0154 J-0.0168
G2 X0.175 Y1.3518 I0.0256 J-0.067
G2 X0.1863 Y1.3529 I0.0181 J-0.1181
G2 X0.2049 Y1.3535 I0.0187 J-0.3251
G1 X0.2291 Y1.3535
G2 X0.2363 Y1.3529 I0 J-0.0466
G2 X0.2378 Y1.3521 I-0.0004 J-0.0025
G2 X0.2385 Y1.3506 I-0.0021 J-0.0019
G2 X0.239 Y1.3428 I-0.0595 J-0.0078
G1 X0.239 Y1.1457
G2 X0.2387 Y1.1267 I-0.694 J0
G2 X0.2382 Y1.1178 I-0.1548 J0.0042
G2 X0.2367 Y1.1077 I-0.0786 J0.0067
G2 X0.2349 Y1.1027 I-0.0208 J0.0045
G2 X0.2297 Y1.0978 I-0.0093 J0.0047
G2 X0.2148 Y1.094 I-0.0192 J0.0448
G1 X0.1989 Y1.0927
G1 X0.1974 Y1.0922
G3 X0.1957 Y1.0908 I0.0037 J-0.0061
G3 X0.1944 Y1.0887 I0.0066 J-0.0056
G3 X0.1937 Y1.0863 I0.0092 J-0.0041
G3 X0.1935 Y1.0834 I0.0132 J-0.0023
G3 X0.1938 Y1.081 I0.0139 J0.0006
G3 X0.1945 Y1.0788 I0.011 J0.0025
G3 X0.196 Y1.0766 I0.0078 J0.0035
G3 X0.1977 Y1.0753 I0.0042 J0.0038
G1 X0.1993 Y1.075
G1 X0.1994 Y1.075
G1 X0.1996 Y1.075
G2 X0.2426 Y1.0761 I0.1472 J-4.8696
G2 X0.2604 Y1.0763 I0.0178 J-0.8312
G2 X0.2726 Y1.0762 I0 J-0.9647
G2 X0.2859 Y1.076 I-0.0146 J-1.1627
G2 X0.2966 Y1.0757 I-0.0382 J-1.5872
G2 X0.3181 Y1.075 I-0.1976 J-6.4219
G1 X0.3197 Y1.0753
G3 X0.3214 Y1.0766 I-0.0025 J0.0049
G3 X0.3229 Y1.079 I-0.007 J0.0061
G3 X0.3236 Y1.0812 I-0.0115 J0.0051
G3 X0.324 Y1.0839 I-0.0157 J0.0036
G3 X0.3239 Y1.0867 I-0.0151 J0.0009
G3 X0.3234 Y1.0889 I-0.0098 J-0.0012
G3 X0.3223 Y1.0909 I-0.0073 J-0.0027
G3 X0.3209 Y1.0922 I-0.0045 J-0.0034
G1 X0.3052 Y1.094
G2 X0.2904 Y1.0979 I0.0039 J0.0455
G2 X0.2853 Y1.103 I0.0042 J0.0093
G2 X0.2837 Y1.1079 I0.0199 J0.009
G2 X0.2824 Y1.1181 I0.0848 J0.016
G2 X0.2821 Y1.1262 I0.1698 J0.0115
G2 X0.2819 Y1.1457 I0.982 J0.0195
G1 X0.2819 Y1.3432
G2 X0.2819 Y1.3476 I0.2913 J0.0004
G2 X0.282 Y1.3494 I0.0459 J-0.0006
G2 X0.2823 Y1.3522 I0.0206 J-0.0011
G1 X0.2826 Y1.3527
G1 X0.2832 Y1.353
G2 X0.286 Y1.3534 I0.0041 J-0.0215
G2 X0.2877 Y1.3534 I0.0025 J-0.0448
G2 X0.2913 Y1.3535 I0.0036 J-0.2005
G1 X0.3226 Y1.3535
G2 X0.3402 Y1.3527 I0 J-0.2061
G2 X0.3524 Y1.3509 I-0.0087 J-0.1009
G2 X0.3641 Y1.3473 I-0.0143 J-0.0677
G2 X0.3717 Y1.3431 I-0.0129 J-0.0319
G2 X0.3741 Y1.3403 I-0.0051 J-0.007
G2 X0.3774 Y1.3329 I-0.0361 J-0.0202
G2 X0.3795 Y1.3249 I-0.0693 J-0.0224
G2 X0.3814 Y1.3133 I-0.1442 J-0.0292
G1 X0.3821 Y1.3115
G3 X0.3835 Y1.3103 I0.0052 J0.0043
G3 X0.3854 Y1.3092 I0.0055 J0.0079
G3 X0.3876 Y1.3086 I0.0042 J0.0106
G3 X0.3901 Y1.3084 I0.0025 J0.014
G3 X0.3931 Y1.3087 I0 J0.0139
G3 X0.3957 Y1.3096 I-0.0023 J0.0104
G3 X0.3978 Y1.3112 I-0.0041 J0.008
G3 X0.3992 Y1.3131 I-0.0048 J0.0049
G1 X0.3995 Y1.3149
G2 X0.3992 Y1.3248 I0.0753 J0.0074
G2 X0.4005 Y1.3459 I0.3446 J-0.0114
G2 X0.4033 Y1.3678 I0.3481 J-0.033
G2 X0.4061 Y1.3807 I0.1233 J-0.0196
G0 Z0.125
G0 X0.4061 Y1.3807
G1 Z-0.1248 F10
G1 X0.4064 Y1.3819 F10
G1 X0.4058 Y1.3831
G3 X0.4044 Y1.3848 I-0.0044 J-0.0022
G3 X0.4017 Y1.3861 I-0.0051 J-0.0069
G3 X0.3998 Y1.3865 I-0.0036 J-0.0121
G3 X0.3977 Y1.3867 I-0.0021 J-0.0149
G1 X0.3936 Y1.386
G1 X0.3925 Y1.3855
G1 X0.3919 Y1.3845
G2 X0.3869 Y1.3781 I-0.0267 J0.0154
G2 X0.3828 Y1.3755 I-0.0075 J0.0075
G2 X0.3779 Y1.3745 I-0.0064 J0.0188
G2 X0.3605 Y1.3739 I-0.0175 J0.2399
G1 X0.1783 Y1.3739
G2 X0.1622 Y1.3745 I0 J0.2019
G2 X0.1564 Y1.3757 I0.0022 J0.0277
G2 X0.1507 Y1.3792 I0.0037 J0.0123
G2 X0.1479 Y1.3848 I0.0083 J0.0077
G1 X0.1477 Y1.3858
G1 X0.1469 Y1.3866
G3 X0.1459 Y1.3873 I-0.0033 J-0.0033
G3 X0.1445 Y1.3879 I-0.0034 J-0.006
G3 X0.143 Y1.3883 I-0.0027 J-0.0089
G3 X0.1408 Y1.3884 I-0.0021 J-0.0174
G3 X0.1393 Y1.3883 I0 J-0.0214
G3 X0.1379 Y1.3882 I0.0014 J-0.0192
G3 X0.1356 Y1.3876 I0.002 J-0.0136
G3 X0.1343 Y1.387 I0.0017 J-0.0051
G1 X0.1331 Y1.3862
G1 X0.1328 Y1.3848
G2 X0.13 Y1.3702 I-0.3851 J0.0678
G2 X0.126 Y1.353 I-0.5474 J0.1179
G2 X0.1207 Y1.3336 I-0.4774 J0.1187
G2 X0.1162 Y1.3196 I-0.2503 J0.0732
G1 X0.1157 Y1.3183
G1 X0.1164 Y1.317
G3 X0.1191 Y1.3138 I0.008 J0.004
G3 X0.1238 Y1.3115 I0.0084 J0.0114
G3 X0.1291 Y1.3112 I0.0035 J0.013
G3 X0.1329 Y1.3127 I-0.0011 J0.0081
G1 X0.134 Y1.3141
G2 X0.1386 Y1.324 I0.2357 J-0.1036
G2 X0.1413 Y1.329 I0.0619 J-0.0304
G2 X0.1466 Y1.3366 I0.0554 J-0.0331
G2 X0.153 Y1.3433 I0.0502 J-0.0408
G2 X0.1603 Y1.3479 I0.0154 J-0.0168
G2 X0.175 Y1.3518 I0.0256 J-0.067
G2 X0.1863 Y1.3529 I0.0181 J-0.1181
G2 X0.2049 Y1.3535 I0.0187 J-0.3251
G1 X0.2291 Y1.3535
G2 X0.2363 Y1.3529 I0 J-0.0466
G2 X0.2378 Y1.3521 I-0.0004 J-0.0025
G2 X0.2385 Y1.3506 I-0.0021 J-0.0019
G2 X0.239 Y1.3428 I-0.0595 J-0.0078
G1 X0.239 Y1.1457
G2 X0.2387 Y1.1267 I-0.694 J0
G2 X0.2382 Y1.1178 I-0.1548 J0.0042
G2 X0.2367 Y1.1077 I-0.0786 J0.0067
G2 X0.2349 Y1.1027 I-0.0208 J0.0045
G2 X0.2297 Y1.0978 I-0.0093 J0.0047
G2 X0.2148 Y1.094 I-0.0192 J0.0448
G1 X0.1989 Y1.0927
G1 X0.1974 Y1.0922
G3 X0.1957 Y1.0908 I0.0037 J-0.0061
G3 X0.1944 Y1.0887 I0.0066 J-0.0056
G3 X0.1937 Y1.0863 I0.0092 J-0.0041
G3 X0.1935 Y1.0834 I0.0132 J-0.0023
G3 X0.1938 Y1.081 I0.0139 J0.0006
G3 X0.1945 Y1.0788 I0.011 J0.0025
G3 X0.196 Y1.0766 I0.0078 J0.0035
G3 X0.1977 Y1.0753 I0.0042 J0.0038
G1 X0.1993 Y1.075
G1 X0.1994 Y1.075
G1 X0.1996 Y1.075
G2 X0.2426 Y1.0761 I0.1472 J-4.8696
G2 X0.2604 Y1.0763 I0.0178 J-0.8312
G2 X0.2726 Y1.0762 I0 J-0.9647
G2 X0.2859 Y1.076 I-0.0146 J-1.1627
G2 X0.2966 Y1.0757 I-0.0382 J-1.5872
G2 X0.3181 Y1.075 I-0.1976 J-6.4219
G1 X0.3197 Y1.0753
G3 X0.3214 Y1.0766 I-0.0025 J0.0049
G3 X0.3229 Y1.079 I-0.007 J0.0061
G3 X0.3236 Y1.0812 I-0.0115 J0.0051
G3 X0.324 Y1.0839 I-0.0157 J0.0036
G3 X0.3239 Y1.0867 I-0.0151 J0.0009
G3 X0.3234 Y1.0889 I-0.0098 J-0.0012
G3 X0.3223 Y1.0909 I-0.0073 J-0.0027
G3 X0.3209 Y1.0922 I-0.0045 J-0.0034
G1 X0.3052 Y1.094
G2 X0.2904 Y1.0979 I0.0039 J0.0455
G2 X0.2853 Y1.103 I0.0042 J0.0093
G2 X0.2837 Y1.1079 I0.0199 J0.009
G2 X0.2824 Y1.1181 I0.0848 J0.016
G2 X0.2821 Y1.1262 I0.1698 J0.0115
G2 X0.2819 Y1.1457 I0.982 J0.0195
G1 X0.2819 Y1.3432
G2 X0.2819 Y1.3476 I0.2913 J0.0004
G2 X0.282 Y1.3494 I0.0459 J-0.0006
G2 X0.2823 Y1.3522 I0.0206 J-0.0011
G1 X0.2826 Y1.3527
G1 X0.2832 Y1.353
G2 X0.286 Y1.3534 I0.0041 J-0.0215
G2 X0.2877 Y1.3534 I0.0025 J-0.0448
G2 X0.2913 Y1.3535 I0.0036 J-0.2005
G1 X0.3226 Y1.3535
G2 X0.3402 Y1.3527 I0 J-0.2061
G2 X0.3524 Y1.3509 I-0.0087 J-0.1009
G2 X0.3641 Y1.3473 I-0.0143 J-0.0677
G2 X0.3717 Y1.3431 I-0.0129 J-0.0319
G2 X0.3741 Y1.3403 I-0.0051 J-0.007
G2 X0.3774 Y1.3329 I-0.0361 J-0.0202
G2 X0.3795 Y1.3249 I-0.0693 J-0.0224
G2 X0.3814 Y1.3133 I-0.1442 J-0.0292
G1 X0.3821 Y1.3115
G3 X0.3835 Y1.3103 I0.0052 J0.0043
G3 X0.3854 Y1.3092 I0.0055 J0.0079
G3 X0.3876 Y1.3086 I0.0042 J0.0106
G3 X0.3901 Y1.3084 I0.0025 J0.014
G3 X0.3931 Y1.3087 I0 J0.0139
G3 X0.3957 Y1.3096 I-0.0023 J0.0104
G3 X0.3978 Y1.3112 I-0.0041 J0.008
G3 X0.3992 Y1.3131 I-0.0048 J0.0049
G1 X0.3995 Y1.3149
G2 X0.3992 Y1.3248 I0.0753 J0.0074
G2 X0.4005 Y1.3459 I0.3446 J-0.0114
G2 X0.4033 Y1.3678 I0.3481 J-0.033
G2 X0.4061 Y1.3807 I0.1233 J-0.0196
G0 Z0.125
G0 X0.4061 Y1.3807
G1 Z-0.156 F10
G1 X0.4064 Y1.3819 F10
G1 X0.4058 Y1.3831
G3 X0.4044 Y1.3848 I-0.0044 J-0.0022
G3 X0.4017 Y1.3861 I-0.0051 J-0.0069
G3 X0.3998 Y1.3865 I-0.0036 J-0.0121
G3 X0.3977 Y1.3867 I-0.0021 J-0.0149
G1 X0.3936 Y1.386
G1 X0.3925 Y1.3855
G1 X0.3919 Y1.3845
G2 X0.3869 Y1.3781 I-0.0267 J0.0154
G2 X0.3828 Y1.3755 I-0.0075 J0.0075
G2 X0.3779 Y1.3745 I-0.0064 J0.0188
G2 X0.3605 Y1.3739 I-0.0175 J0.2399
G1 X0.1783 Y1.3739
G2 X0.1622 Y1.3745 I0 J0.2019
G2 X0.1564 Y1.3757 I0.0022 J0.0277
G2 X0.1507 Y1.3792 I0.0037 J0.0123
G2 X0.1479 Y1.3848 I0.0083 J0.0077
G1 X0.1477 Y1.3858
G1 X0.1469 Y1.3866
G3 X0.1459 Y1.3873 I-0.0033 J-0.0033
G3 X0.1445 Y1.3879 I-0.0034 J-0.006
G3 X0.143 Y1.3883 I-0.0027 J-0.0089
G3 X0.1408 Y1.3884 I-0.0021 J-0.0174
G3 X0.1393 Y1.3883 I0 J-0.0214
G3 X0.1379 Y1.3882 I0.0014 J-0.0192
G3 X0.1356 Y1.3876 I0.002 J-0.0136
G3 X0.1343 Y1.387 I0.0017 J-0.0051
G1 X0.1331 Y1.3862
G1 X0.1328 Y1.3848
G2 X0.13 Y1.3702 I-0.3851 J0.0678
G2 X0.126 Y1.353 I-0.5474 J0.1179
G2 X0.1207 Y1.3336 I-0.4774 J0.1187
G2 X0.1162 Y1.3196 I-0.2503 J0.0732
G1 X0.1157 Y1.3183
G1 X0.1164 Y1.317
G3 X0.1191 Y1.3138 I0.008 J0.004
G3 X0.1238 Y1.3115 I0.0084 J0.0114
G3 X0.1291 Y1.3112 I0.0035 J0.013
G3 X0.1329 Y1.3127 I-0.0011 J0.0081
G1 X0.134 Y1.3141
G2 X0.1386 Y1.324 I0.2357 J-0.1036
G2 X0.1413 Y1.329 I0.0619 J-0.0304
G2 X0.1466 Y1.3366 I0.0554 J-0.0331
G2 X0.153 Y1.3433 I0.0502 J-0.0408
G2 X0.1603 Y1.3479 I0.0154 J-0.0168
G2 X0.175 Y1.3518 I0.0256 J-0.067
G2 X0.1863 Y1.3529 I0.0181 J-0.1181
G2 X0.2049 Y1.3535 I0.0187 J-0.3251
G1 X0.2291 Y1.3535
G2 X0.2363 Y1.3529 I0 J-0.0466
G2 X0.2378 Y1.3521 I-0.0004 J-0.0025
G2 X0.2385 Y1.3506 I-0.0021 J-0.0019
G2 X0.239 Y1.3428 I-0.0595 J-0.0078
G1 X0.239 Y1.1457
G2 X0.2387 Y1.1267 I-0.694 J0
G2 X0.2382 Y1.1178 I-0.1548 J0.0042
G2 X0.2367 Y1.1077 I-0.0786 J0.0067
G2 X0.2349 Y1.1027 I-0.0208 J0.0045
G2 X0.2297 Y1.0978 I-0.0093 J0.0047
G2 X0.2148 Y1.094 I-0.0192 J0.0448
G1 X0.1989 Y1.0927
G1 X0.1974 Y1.0922
G3 X0.1957 Y1.0908 I0.0037 J-0.0061
G3 X0.1944 Y1.0887 I0.0066 J-0.0056
G3 X0.1937 Y1.0863 I0.0092 J-0.0041
G3 X0.1935 Y1.0834 I0.0132 J-0.0023
G3 X0.1938 Y1.081 I0.0139 J0.0006
G3 X0.1945 Y1.0788 I0.011 J0.0025
G3 X0.196 Y1.0766 I0.0078 J0.0035
G3 X0.1977 Y1.0753 I0.0042 J0.0038
G1 X0.1993 Y1.075
G1 X0.1994 Y1.075
G1 X0.1996 Y1.075
G2 X0.2426 Y1.0761 I0.1472 J-4.8696
G2 X0.2604 Y1.0763 I0.0178 J-0.8312
G2 X0.2726 Y1.0762 I0 J-0.9647
G2 X0.2859 Y1.076 I-0.0146 J-1.1627
G2 X0.2966 Y1.0757 I-0.0382 J-1.5872
G2 X0.3181 Y1.075 I-0.1976 J-6.4219
G1 X0.3197 Y1.0753
G3 X0.3214 Y1.0766 I-0.0025 J0.0049
G3 X0.3229 Y1.079 I-0.007 J0.0061
G3 X0.3236 Y1.0812 I-0.0115 J0.0051
G3 X0.324 Y1.0839 I-0.0157 J0.0036
G3 X0.3239 Y1.0867 I-0.0151 J0.0009
G3 X0.3234 Y1.0889 I-0.0098 J-0.0012
G3 X0.3223 Y1.0909 I-0.0073 J-0.0027
G3 X0.3209 Y1.0922 I-0.0045 J-0.0034
G1 X0.3052 Y1.094
G2 X0.2904 Y1.0979 I0.0039 J0.0455
G2 X0.2853 Y1.103 I0.0042 J0.0093
G2 X0.2837 Y1.1079 I0.0199 J0.009
G2 X0.2824 Y1.1181 I0.0848 J0.016
G2 X0.2821 Y1.1262 I0.1698 J0.0115
G2 X0.2819 Y1.1457 I0.982 J0.0195
G1 X0.2819 Y1.3432
G2 X0.2819 Y1.3476 I0.2913 J0.0004
G2 X0.282 Y1.3494 I0.0459 J-0.0006
G2 X0.2823 Y1.3522 I0.0206 J-0.0011
G1 X0.2826 Y1.3527
G1 X0.2832 Y1.353
G2 X0.286 Y1.3534 I0.0041 J-0.0215
G2 X0.2877 Y1.3534 I0.0025 J-0.0448
G2 X0.2913 Y1.3535 I0.0036 J-0.2005
G1 X0.3226 Y1.3535
G2 X0.3402 Y1.3527 I0 J-0.2061
G2 X0.3524 Y1.3509 I-0.0087 J-0.1009
G2 X0.3641 Y1.3473 I-0.0143 J-0.0677
G2 X0.3717 Y1.3431 I-0.0129 J-0.0319
G2 X0.3741 Y1.3403 I-0.0051 J-0.007
G2 X0.3774 Y1.3329 I-0.0361 J-0.0202
G2 X0.3795 Y1.3249 I-0.0693 J-0.0224
G2 X0.3814 Y1.3133 I-0.1442 J-0.0292
G1 X0.3821 Y1.3115
G3 X0.3835 Y1.3103 I0.0052 J0.0043
G3 X0.3854 Y1.3092 I0.0055 J0.0079
G3 X0.3876 Y1.3086 I0.0042 J0.0106
G3 X0.3901 Y1.3084 I0.0025 J0.014
G3 X0.3931 Y1.3087 I0 J0.0139
G3 X0.3957 Y1.3096 I-0.0023 J0.0104
G3 X0.3978 Y1.3112 I-0.0041 J0.008
G3 X0.3992 Y1.3131 I-0.0048 J0.0049
G1 X0.3995 Y1.3149
G2 X0.3992 Y1.3248 I0.0753 J0.0074
G2 X0.4005 Y1.3459 I0.3446 J-0.0114
G2 X0.4033 Y1.3678 I0.3481 J-0.033
G2 X0.4061 Y1.3807 I0.1233 J-0.0196
G0 Z0.125
G0 X0.4061 Y1.3807
G1 Z-0.1872 F10
G1 X0.4064 Y1.3819 F10
G1 X0.4058 Y1.3831
G3 X0.4044 Y1.3848 I-0.0044 J-0.0022
G3 X0.4017 Y1.3861 I-0.0051 J-0.0069
G3 X0.3998 Y1.3865 I-0.0036 J-0.0121
G3 X0.3977 Y1.3867 I-0.0021 J-0.0149
G1 X0.3936 Y1.386
G1 X0.3925 Y1.3855
G1 X0.3919 Y1.3845
G2 X0.3869 Y1.3781 I-0.0267 J0.0154
G2 X0.3828 Y1.3755 I-0.0075 J0.0075
G2 X0.3779 Y1.3745 I-0.0064 J0.0188
G2 X0.3605 Y1.3739 I-0.0175 J0.2399
G1 X0.1783 Y1.3739
G2 X0.1622 Y1.3745 I0 J0.2019
G2 X0.1564 Y1.3757 I0.0022 J0.0277
G2 X0.1507 Y1.3792 I0.0037 J0.0123
G2 X0.1479 Y1.3848 I0.0083 J0.0077
G1 X0.1477 Y1.3858
G1 X0.1469 Y1.3866
G3 X0.1459 Y1.3873 I-0.0033 J-0.0033
G3 X0.1445 Y1.3879 I-0.0034 J-0.006
G3 X0.143 Y1.3883 I-0.0027 J-0.0089
G3 X0.1408 Y1.3884 I-0.0021 J-0.0174
G3 X0.1393 Y1.3883 I0 J-0.0214
G3 X0.1379 Y1.3882 I0.0014 J-0.0192
G3 X0.1356 Y1.3876 I0.002 J-0.0136
G3 X0.1343 Y1.387 I0.0017 J-0.0051
G1 X0.1331 Y1.3862
G1 X0.1328 Y1.3848
G2 X0.13 Y1.3702 I-0.3851 J0.0678
G2 X0.126 Y1.353 I-0.5474 J0.1179
G2 X0.1207 Y1.3336 I-0.4774 J0.1187
G2 X0.1162 Y1.3196 I-0.2503 J0.0732
G1 X0.1157 Y1.3183
G1 X0.1164 Y1.317
G3 X0.1191 Y1.3138 I0.008 J0.004
G3 X0.1238 Y1.3115 I0.0084 J0.0114
G3 X0.1291 Y1.3112 I0.0035 J0.013
G3 X0.1329 Y1.3127 I-0.0011 J0.0081
G1 X0.134 Y1.3141
G2 X0.1386 Y1.324 I0.2357 J-0.1036
G2 X0.1413 Y1.329 I0.0619 J-0.0304
G2 X0.1466 Y1.3366 I0.0554 J-0.0331
G2 X0.153 Y1.3433 I0.0502 J-0.0408
G2 X0.1603 Y1.3479 I0.0154 J-0.0168
G2 X0.175 Y1.3518 I0.0256 J-0.067
G2 X0.1863 Y1.3529 I0.0181 J-0.1181
G2 X0.2049 Y1.3535 I0.0187 J-0.3251
G1 X0.2291 Y1.3535
G2 X0.2363 Y1.3529 I0 J-0.0466
G2 X0.2378 Y1.3521 I-0.0004 J-0.0025
G2 X0.2385 Y1.3506 I-0.0021 J-0.0019
G2 X0.239 Y1.3428 I-0.0595 J-0.0078
G1 X0.239 Y1.1457
G2 X0.2387 Y1.1267 I-0.694 J0
G2 X0.2382 Y1.1178 I-0.1548 J0.0042
G2 X0.2367 Y1.1077 I-0.0786 J0.0067
G2 X0.2349 Y1.1027 I-0.0208 J0.0045
G2 X0.2297 Y1.0978 I-0.0093 J0.0047
G2 X0.2148 Y1.094 I-0.0192 J0.0448
G1 X0.1989 Y1.0927
G1 X0.1974 Y1.0922
G3 X0.1957 Y1.0908 I0.0037 J-0.0061
G3 X0.1944 Y1.0887 I0.0066 J-0.0056
G3 X0.1937 Y1.0863 I0.0092 J-0.0041
G3 X0.1935 Y1.0834 I0.0132 J-0.0023
G3 X0.1938 Y1.081 I0.0139 J0.0006
G3 X0.1945 Y1.0788 I0.011 J0.0025
G3 X0.196 Y1.0766 I0.0078 J0.0035
G3 X0.1977 Y1.0753 I0.0042 J0.0038
G1 X0.1993 Y1.075
G1 X0.1994 Y1.075
G1 X0.1996 Y1.075
G2 X0.2426 Y1.0761 I0.1472 J-4.8696
G2 X0.2604 Y1.0763 I0.0178 J-0.8312
G2 X0.2726 Y1.0762 I0 J-0.9647
G2 X0.2859 Y1.076 I-0.0146 J-1.1627
G2 X0.2966 Y1.0757 I-0.0382 J-1.5872
G2 X0.3181 Y1.075 I-0.1976 J-6.4219
G1 X0.3197 Y1.0753
G3 X0.3214 Y1.0766 I-0.0025 J0.0049
G3 X0.3229 Y1.079 I-0.007 J0.0061
G3 X0.3236 Y1.0812 I-0.0115 J0.0051
G3 X0.324 Y1.0839 I-0.0157 J0.0036
G3 X0.3239 Y1.0867 I-0.0151 J0.0009
G3 X0.3234 Y1.0889 I-0.0098 J-0.0012
G3 X0.3223 Y1.0909 I-0.0073 J-0.0027
G3 X0.3209 Y1.0922 I-0.0045 J-0.0034
G1 X0.3052 Y1.094
G2 X0.2904 Y1.0979 I0.0039 J0.0455
G2 X0.2853 Y1.103 I0.0042 J0.0093
G2 X0.2837 Y1.1079 I0.0199 J0.009
G2 X0.2824 Y1.1181 I0.0848 J0.016
G2 X0.2821 Y1.1262 I0.1698 J0.0115
G2 X0.2819 Y1.1457 I0.982 J0.0195
G1 X0.2819 Y1.3432
G2 X0.2819 Y1.3476 I0.2913 J0.0004
G2 X0.282 Y1.3494 I0.0459 J-0.0006
G2 X0.2823 Y1.3522 I0.0206 J-0.0011
G1 X0.2826 Y1.3527
G1 X0.2832 Y1.353
G2 X0.286 Y1.3534 I0.0041 J-0.0215
G2 X0.2877 Y1.3534 I0.0025 J-0.0448
G2 X0.2913 Y1.3535 I0.0036 J-0.2005
G1 X0.3226 Y1.3535
G2 X0.3402 Y1.3527 I0 J-0.2061
G2 X0.3524 Y1.3509 I-0.0087 J-0.1009
G2 X0.3641 Y1.3473 I-0.0143 J-0.0677
G2 X0.3717 Y1.3431 I-0.0129 J-0.0319
G2 X0.3741 Y1.3403 I-0.0051 J-0.007
G2 X0.3774 Y1.3329 I-0.0361 J-0.0202
G2 X0.3795 Y1.3249 I-0.0693 J-0.0224
G2 X0.3814 Y1.3133 I-0.1442 J-0.0292
G1 X0.3821 Y1.3115
G3 X0.3835 Y1.3103 I0.0052 J0.0043
G3 X0.3854 Y1.3092 I0.0055 J0.0079
G3 X0.3876 Y1.3086 I0.0042 J0.0106
G3 X0.3901 Y1.3084 I0.0025 J0.014
G3 X0.3931 Y1.3087 I0 J0.0139
G3 X0.3957 Y1.3096 I-0.0023 J0.0104
G3 X0.3978 Y1.3112 I-0.0041 J0.008
G3 X0.3992 Y1.3131 I-0.0048 J0.0049
G1 X0.3995 Y1.3149
G2 X0.3992 Y1.3248 I0.0753 J0.0074
G2 X0.4005 Y1.3459 I0.3446 J-0.0114
G2 X0.4033 Y1.3678 I0.3481 J-0.033
G2 X0.4061 Y1.3807 I0.1233 J-0.0196
G0 Z0.125
G0 X0.4061 Y1.3807
G1 Z-0.2 F10
G1 X0.4064 Y1.3819 F10
G1 X0.4058 Y1.3831
G3 X0.4044 Y1.3848 I-0.0044 J-0.0022
G3 X0.4017 Y1.3861 I-0.0051 J-0.0069
G3 X0.3998 Y1.3865 I-0.0036 J-0.0121
G3 X0.3977 Y1.3867 I-0.0021 J-0.0149
G1 X0.3936 Y1.386
G1 X0.3925 Y1.3855
G1 X0.3919 Y1.3845
G2 X0.3869 Y1.3781 I-0.0267 J0.0154
G2 X0.3828 Y1.3755 I-0.0075 J0.0075
G2 X0.3779 Y1.3745 I-0.0064 J0.0188
G2 X0.3605 Y1.3739 I-0.0175 J0.2399
G1 X0.1783 Y1.3739
G2 X0.1622 Y1.3745 I0 J0.2019
G2 X0.1564 Y1.3757 I0.0022 J0.0277
G2 X0.1507 Y1.3792 I0.0037 J0.0123
G2 X0.1479 Y1.3848 I0.0083 J0.0077
G1 X0.1477 Y1.3858
G1 X0.1469 Y1.3866
G3 X0.1459 Y1.3873 I-0.0033 J-0.0033
G3 X0.1445 Y1.3879 I-0.0034 J-0.006
G3 X0.143 Y1.3883 I-0.0027 J-0.0089
G3 X0.1408 Y1.3884 I-0.0021 J-0.0174
G3 X0.1393 Y1.3883 I0 J-0.0214
G3 X0.1379 Y1.3882 I0.0014 J-0.0192
G3 X0.1356 Y1.3876 I0.002 J-0.0136
G3 X0.1343 Y1.387 I0.0017 J-0.0051
G1 X0.1331 Y1.3862
G1 X0.1328 Y1.3848
G2 X0.13 Y1.3702 I-0.3851 J0.0678
G2 X0.126 Y1.353 I-0.5474 J0.1179
G2 X0.1207 Y1.3336 I-0.4774 J0.1187
G2 X0.1162 Y1.3196 I-0.2503 J0.0732
G1 X0.1157 Y1.3183
G1 X0.1164 Y1.317
G3 X0.1191 Y1.3138 I0.008 J0.004
G3 X0.1238 Y1.3115 I0.0084 J0.0114
G3 X0.1291 Y1.3112 I0.0035 J0.013
G3 X0.1329 Y1.3127 I-0.0011 J0.0081
G1 X0.134 Y1.3141
G2 X0.1386 Y1.324 I0.2357 J-0.1036
G2 X0.1413 Y1.329 I0.0619 J-0.0304
G2 X0.1466 Y1.3366 I0.0554 J-0.0331
G2 X0.153 Y1.3433 I0.0502 J-0.0408
G2 X0.1603 Y1.3479 I0.0154 J-0.0168
G2 X0.175 Y1.3518 I0.0256 J-0.067
G2 X0.1863 Y1.3529 I0.0181 J-0.1181
G2 X0.2049 Y1.3535 I0.0187 J-0.3251
G1 X0.2291 Y1.3535
G2 X0.2363 Y1.3529 I0 J-0.0466
G2 X0.2378 Y1.3521 I-0.0004 J-0.0025
G2 X0.2385 Y1.3506 I-0.0021 J-0.0019
G2 X0.239 Y1.3428 I-0.0595 J-0.0078
G1 X0.239 Y1.1457
G2 X0.2387 Y1.1267 I-0.694 J0
G2 X0.2382 Y1.1178 I-0.1548 J0.0042
G2 X0.2367 Y1.1077 I-0.0786 J0.0067
G2 X0.2349 Y1.1027 I-0.0208 J0.0045
G2 X0.2297 Y1.0978 I-0.0093 J0.0047
G2 X0.2148 Y1.094 I-0.0192 J0.0448
G1 X0.1989 Y1.0927
G1 X0.1974 Y1.0922
G3 X0.1957 Y1.0908 I0.0037 J-0.0061
G3 X0.1944 Y1.0887 I0.0066 J-0.0056
G3 X0.1937 Y1.0863 I0.0092 J-0.0041
G3 X0.1935 Y1.0834 I0.0132 J-0.0023
G3 X0.1938 Y1.081 I0.0139 J0.0006
G3 X0.1945 Y1.0788 I0.011 J0.0025
G3 X0.196 Y1.0766 I0.0078 J0.0035
G3 X0.1977 Y1.0753 I0.0042 J0.0038
G1 X0.1993 Y1.075
G1 X0.1994 Y1.075
G1 X0.1996 Y1.075
G2 X0.2426 Y1.0761 I0.1472 J-4.8696
G2 X0.2604 Y1.0763 I0.0178 J-0.8312
G2 X0.2726 Y1.0762 I0 J-0.9647
G2 X0.2859 Y1.076 I-0.0146 J-1.1627
G2 X0.2966 Y1.0757 I-0.0382 J-1.5872
G2 X0.3181 Y1.075 I-0.1976 J-6.4219
G1 X0.3197 Y1.0753
G3 X0.3214 Y1.0766 I-0.0025 J0.0049
G3 X0.3229 Y1.079 I-0.007 J0.0061
G3 X0.3236 Y1.0812 I-0.0115 J0.0051
G3 X0.324 Y1.0839 I-0.0157 J0.0036
G3 X0.3239 Y1.0867 I-0.0151 J0.0009
G3 X0.3234 Y1.0889 I-0.0098 J-0.0012
G3 X0.3223 Y1.0909 I-0.0073 J-0.0027
G3 X0.3209 Y1.0922 I-0.0045 J-0.0034
G1 X0.3052 Y1.094
G2 X0.2904 Y1.0979 I0.0039 J0.0455
G2 X0.2853 Y1.103 I0.0042 J0.0093
G2 X0.2837 Y1.1079 I0.0199 J0.009
G2 X0.2824 Y1.1181 I0.0848 J0.016
G2 X0.2821 Y1.1262 I0.1698 J0.0115
G2 X0.2819 Y1.1457 I0.982 J0.0195
G1 X0.2819 Y1.3432
G2 X0.2819 Y1.3476 I0.2913 J0.0004
G2 X0.282 Y1.3494 I0.0459 J-0.0006
G2 X0.2823 Y1.3522 I0.0206 J-0.0011
G1 X0.2826 Y1.3527
G1 X0.2832 Y1.353
G2 X0.286 Y1.3534 I0.0041 J-0.0215
G2 X0.2877 Y1.3534 I0.0025 J-0.0448
G2 X0.2913 Y1.3535 I0.0036 J-0.2005
G1 X0.3226 Y1.3535
G2 X0.3402 Y1.3527 I0 J-0.2061
G2 X0.3524 Y1.3509 I-0.0087 J-0.1009
G2 X0.3641 Y1.3473 I-0.0143 J-0.0677
G2 X0.3717 Y1.3431 I-0.0129 J-0.0319
G2 X0.3741 Y1.3403 I-0.0051 J-0.007
G2 X0.3774 Y1.3329 I-0.0361 J-0.0202
G2 X0.3795 Y1.3249 I-0.0693 J-0.0224
G2 X0.3814 Y1.3133 I-0.1442 J-0.0292
G1 X0.3821 Y1.3115
G3 X0.3835 Y1.3103 I0.0052 J0.0043
G3 X0.3854 Y1.3092 I0.0055 J0.0079
G3 X0.3876 Y1.3086 I0.0042 J0.0106
G3 X0.3901 Y1.3084 I0.0025 J0.014
G3 X0.3931 Y1.3087 I0 J0.0139
G3 X0.3957 Y1.3096 I-0.0023 J0.0104
G3 X0.3978 Y1.3112 I-0.0041 J0.008
G3 X0.3992 Y1.3131 I-0.0048 J0.0049
G1 X0.3995 Y1.3149
G2 X0.3992 Y1.3248 I0.0753 J0.0074
G2 X0.4005 Y1.3459 I0.3446 J-0.0114
G2 X0.4033 Y1.3678 I0.3481 J-0.033
G2 X0.4061 Y1.3807 I0.1233 J-0.0196
G0 Z0.125
G0 X0.7684 Y1.1457
G1 Z-0.0312 F10
G1 X0.7684 Y1.3044 F10
G2 X0.7686 Y1.3239 I0.981 J0
G2 X0.7689 Y1.332 I0.1707 J-0.0034
G2 X0.7703 Y1.3422 I0.0866 J-0.0059
G2 X0.7718 Y1.3472 I0.0219 J-0.0041
G2 X0.777 Y1.3524 I0.0096 J-0.0043
G2 X0.7918 Y1.3566 I0.0196 J-0.0419
G1 X0.801 Y1.3574
G1 X0.8025 Y1.358
G3 X0.8039 Y1.3593 I-0.0031 J0.0047
G3 X0.805 Y1.3613 I-0.0063 J0.0047
G3 X0.8056 Y1.3635 I-0.0093 J0.0035
G3 X0.8056 Y1.3663 I-0.0151 J0.0019
G3 X0.8054 Y1.3685 I-0.0169 J-0.0011
G3 X0.8048 Y1.3705 I-0.0138 J-0.0028
G3 X0.8032 Y1.3733 I-0.0093 J-0.0033
G3 X0.8013 Y1.3749 I-0.0044 J-0.0035
G1 X0.7997 Y1.3752
G2 X0.7837 Y1.3746 I-0.0871 J1.98
G2 X0.7718 Y1.3742 I-0.0397 J1.1045
G2 X0.7598 Y1.374 I-0.0238 J0.948
G2 X0.7478 Y1.3739 I-0.012 J0.9623
G2 X0.7344 Y1.374 I0 J1.0181
G2 X0.7211 Y1.3743 I0.0133 J1.0126
G2 X0.7101 Y1.3746 I0.0299 J1.1346
G2 X0.6946 Y1.3752 I0.082 J2.2785
G1 X0.693 Y1.3749
G3 X0.6911 Y1.3733 I0.0025 J-0.0051
G3 X0.6895 Y1.3705 I0.0077 J-0.0062
G3 X0.689 Y1.3686 I0.0132 J-0.0048
G3 X0.6887 Y1.3664 I0.0161 J-0.0033
G3 X0.6887 Y1.3635 I0.0154 J-0.001
G3 X0.6893 Y1.3613 I0.0099 J0.0012
G3 X0.6903 Y1.3593 I0.0073 J0.0027
G3 X0.6917 Y1.358 I0.0045 J0.0034
G1 X0.7016 Y1.3566
G2 X0.7168 Y1.3524 I-0.0049 J-0.0478
G2 X0.722 Y1.3472 I-0.0044 J-0.0096
G2 X0.7236 Y1.3422 I-0.02 J-0.0091
G2 X0.7249 Y1.332 I-0.0836 J-0.0161
G2 X0.7253 Y1.3239 I-0.167 J-0.0115
G2 X0.7255 Y1.3044 I-0.9613 J-0.0195
G1 X0.7255 Y1.2537
G2 X0.7246 Y1.2462 I-0.0312 J0
G2 X0.7231 Y1.2443 I-0.0029 J0.0007
G2 X0.7207 Y1.2436 I-0.003 J0.0052
G2 X0.7068 Y1.243 I-0.0138 J0.1683
G1 X0.5808 Y1.243
G2 X0.567 Y1.2436 I0 J0.169
G2 X0.5645 Y1.2443 I0.0005 J0.0059
G2 X0.5631 Y1.2462 I0.0015 J0.0026
G2 X0.5622 Y1.2537 I0.0302 J0.0075
G1 X0.5622 Y1.3044
G2 X0.5623 Y1.3239 I0.9799 J0
G2 X0.5627 Y1.332 I0.1704 J-0.0034
G2 X0.564 Y1.3422 I0.0865 J-0.0059
G2 X0.5656 Y1.3472 I0.0218 J-0.0041
G2 X0.5707 Y1.3524 I0.0096 J-0.0043
G2 X0.5856 Y1.3566 I0.0197 J-0.0421
G1 X0.5939 Y1.3574
G1 X0.5954 Y1.358
G3 X0.5968 Y1.3593 I-0.0031 J0.0047
G3 X0.5979 Y1.3613 I-0.0063 J0.0047
G3 X0.5984 Y1.3635 I-0.0093 J0.0034
G3 X0.5985 Y1.3664 I-0.0153 J0.0019
G3 X0.5982 Y1.3686 I-0.0164 J-0.0011
G3 X0.5977 Y1.3705 I-0.0137 J-0.0028
G3 X0.5961 Y1.3733 I-0.0093 J-0.0034
G3 X0.5942 Y1.3749 I-0.0044 J-0.0036
G1 X0.5925 Y1.3752
G2 X0.5775 Y1.3746 I-0.0755 J1.63
G2 X0.5656 Y1.3742 I-0.0382 J1.0313
G2 X0.5537 Y1.374 I-0.0235 J0.9224
G2 X0.5416 Y1.3739 I-0.0121 J0.9622
G2 X0.5304 Y1.374 I0 J0.5447
G2 X0.5101 Y1.3745 I0.0371 J1.8114
G1 X0.5094 Y1.3746
G1 X0.5091 Y1.3746
G1 X0.5082 Y1.3746
G2 X0.5064 Y1.3747 I0.6629 J21.4399
G3 X0.4935 Y1.375 I-0.1052 J-3.3925
G3 X0.4861 Y1.3752 I-0.0303 J-1.1157
G1 X0.4846 Y1.3749
G3 X0.4827 Y1.3733 I0.0025 J-0.0051
G3 X0.4811 Y1.3705 I0.0076 J-0.0062
G3 X0.4805 Y1.3686 I0.0131 J-0.0048
G3 X0.4802 Y1.3664 I0.0152 J-0.0031
G3 X0.4803 Y1.3635 I0.0154 J-0.0011
G3 X0.4808 Y1.3613 I0.0099 J0.0012
G3 X0.4819 Y1.3593 I0.0074 J0.0027
G3 X0.4833 Y1.358 I0.0045 J0.0034
G1 X0.4964 Y1.3566
G2 X0.5096 Y1.3529 I-0.0028 J-0.0365
G2 X0.5151 Y1.3474 I-0.0051 J-0.0105
G2 X0.5176 Y1.3382 I-0.0254 J-0.0119
G2 X0.5192 Y1.3044 I-0.3501 J-0.0338
G1 X0.5192 Y1.1457
G2 X0.5191 Y1.1264 I-1.098 J0
G2 X0.5188 Y1.1189 I-0.1668 J0.0029
G2 X0.5175 Y1.109 I-0.0847 J0.0053
G2 X0.5161 Y1.1041 I-0.0213 J0.0039
G2 X0.5113 Y1.099 I-0.0096 J0.0042
G2 X0.4965 Y1.094 I-0.024 J0.0464
G1 X0.4879 Y1.0925
G1 X0.4872 Y1.0917
G3 X0.4858 Y1.0898 I0.0053 J-0.0053
G3 X0.4849 Y1.0871 I0.0096 J-0.0048
G3 X0.4846 Y1.0847 I0.013 J-0.0027
G3 X0.4848 Y1.0821 I0.0147 J-0.0002
G3 X0.4854 Y1.0797 I0.0136 J0.0022
G3 X0.4863 Y1.0779 I0.0091 J0.0032
G3 X0.4875 Y1.0763 I0.0067 J0.0041
G3 X0.4889 Y1.0753 I0.0039 J0.0041
G1 X0.4905 Y1.075
G1 X0.5082 Y1.0755
G2 X0.5186 Y1.0759 I0.1054 J-2.9405
G2 X0.5242 Y1.076 I0.0277 J-0.8586
G2 X0.5334 Y1.0762 I0.0197 J-0.7655
G2 X0.5416 Y1.0763 I0.0081 J-0.5961
G2 X0.5533 Y1.0762 I0 J-0.9174
G2 X0.5662 Y1.076 I-0.0141 J-1.099
G2 X0.5771 Y1.0757 I-0.0367 J-1.4926
G2 X0.5974 Y1.075 I-0.1667 J-5.2336
G1 X0.5991 Y1.0753
G3 X0.6008 Y1.0766 I-0.0025 J0.0049
G3 X0.6022 Y1.079 I-0.007 J0.0061
G3 X0.603 Y1.0812 I-0.0115 J0.0051
G3 X0.6034 Y1.0839 I-0.0157 J0.0036
G3 X0.6033 Y1.0867 I-0.0151 J0.0009
G3 X0.6027 Y1.0889 I-0.0098 J-0.0013
G3 X0.6017 Y1.0909 I-0.0073 J-0.0027
G3 X0.6003 Y1.0922 I-0.0044 J-0.0034
G1 X0.586 Y1.094
G2 X0.5713 Y1.098 I0.0052 J0.0481
G2 X0.5661 Y1.103 I0.0044 J0.0096
G2 X0.5637 Y1.1115 I0.0218 J0.0107
G2 X0.5622 Y1.1457 I0.3669 J0.0343
G1 X0.5622 Y1.2079
G2 X0.5631 Y1.2154 I0.031 J0
G2 X0.5645 Y1.2173 I0.0029 J-0.0007
G2 X0.567 Y1.218 I0.003 J-0.0052
G2 X0.5808 Y1.2186 I0.0138 J-0.1688
G1 X0.7068 Y1.2186
G2 X0.7207 Y1.218 I0 J-0.1692
G2 X0.7231 Y1.2173 I-0.0005 J-0.0059
G2 X0.7246 Y1.2154 I-0.0015 J-0.0026
G2 X0.7255 Y1.2079 I-0.0301 J-0.0075
G1 X0.7255 Y1.1457
G2 X0.7253 Y1.1256 I-1.2517 J0
G2 X0.725 Y1.1184 I-0.1613 J0.0026
G2 X0.7238 Y1.1085 I-0.0813 J0.0049
G2 X0.7223 Y1.1038 I-0.0195 J0.0036
G2 X0.7176 Y1.099 I-0.0089 J0.0041
G2 X0.7015 Y1.094 I-0.0262 J0.056
G1 X0.692 Y1.0925
G1 X0.6912 Y1.0917
G3 X0.6898 Y1.0898 I0.0053 J-0.0053
G3 X0.6889 Y1.0871 I0.0097 J-0.0048
G3 X0.6886 Y1.0846 I0.0131 J-0.0026
G3 X0.6888 Y1.0821 I0.0146 J-0.0002
G3 X0.6894 Y1.0797 I0.0136 J0.0022
G3 X0.6903 Y1.0779 I0.0091 J0.0033
G3 X0.6916 Y1.0763 I0.0067 J0.0042
G3 X0.693 Y1.0753 I0.0039 J0.0041
G1 X0.6947 Y1.075
G2 X0.7105 Y1.0756 I0.0823 J-1.8691
G2 X0.7229 Y1.076 I0.0406 J-1.1434
G2 X0.7353 Y1.0762 I0.0248 J-1.0058
G2 X0.7478 Y1.0763 I0.0125 J-1.0113
G2 X0.7601 Y1.0762 I0 J-0.9101
G2 X0.7732 Y1.0759 I-0.0141 J-1.0416
G2 X0.7842 Y1.0756 I-0.033 J-1.2655
G2 X0.801 Y1.075 I-0.1016 J-2.9151
G1 X0.8026 Y1.0753
G3 X0.8045 Y1.0769 I-0.0025 J0.0051
G3 X0.8061 Y1.0797 I-0.0076 J0.0061
G3 X0.8067 Y1.0816 I-0.0131 J0.0047
G3 X0.807 Y1.0838 I-0.0156 J0.0032
G3 X0.8069 Y1.0867 I-0.0152 J0.001
G3 X0.8064 Y1.0889 I-0.0098 J-0.0012
G3 X0.8053 Y1.0909 I-0.0073 J-0.0027
G3 X0.8039 Y1.0922 I-0.0045 J-0.0033
G1 X0.7919 Y1.094
G2 X0.7768 Y1.0983 I0.006 J0.0494
G2 X0.7717 Y1.1034 I0.0044 J0.0093
G2 X0.7702 Y1.1083 I0.0195 J0.0089
G2 X0.7689 Y1.1184 I0.0831 J0.0157
G2 X0.7686 Y1.1262 I0.1665 J0.011
G2 X0.7684 Y1.1457 I1.0251 J0.0195
G0 Z0.125
G0 X0.7684 Y1.1457
G1 Z-0.0624 F10
G1 X0.7684 Y1.3044 F10
G2 X0.7686 Y1.3239 I0.981 J0
G2 X0.7689 Y1.332 I0.1707 J-0.0034
G2 X0.7703 Y1.3422 I0.0866 J-0.0059
G2 X0.7718 Y1.3472 I0.0219 J-0.0041
G2 X0.777 Y1.3524 I0.0096 J-0.0043
G2 X0.7918 Y1.3566 I0.0196 J-0.0419
G1 X0.801 Y1.3574
G1 X0.8025 Y1.358
G3 X0.8039 Y1.3593 I-0.0031 J0.0047
G3 X0.805 Y1.3613 I-0.0063 J0.0047
G3 X0.8056 Y1.3635 I-0.0093 J0.0035
G3 X0.8056 Y1.3663 I-0.0151 J0.0019
G3 X0.8054 Y1.3685 I-0.0169 J-0.0011
G3 X0.8048 Y1.3705 I-0.0138 J-0.0028
G3 X0.8032 Y1.3733 I-0.0093 J-0.0033
G3 X0.8013 Y1.3749 I-0.0044 J-0.0035
G1 X0.7997 Y1.3752
G2 X0.7837 Y1.3746 I-0.0871 J1.98
G2 X0.7718 Y1.3742 I-0.0397 J1.1045
G2 X0.7598 Y1.374 I-0.0238 J0.948
G2 X0.7478 Y1.3739 I-0.012 J0.9623
G2 X0.7344 Y1.374 I0 J1.0181
G2 X0.7211 Y1.3743 I0.0133 J1.0126
G2 X0.7101 Y1.3746 I0.0299 J1.1346
G2 X0.6946 Y1.3752 I0.082 J2.2785
G1 X0.693 Y1.3749
G3 X0.6911 Y1.3733 I0.0025 J-0.0051
G3 X0.6895 Y1.3705 I0.0077 J-0.0062
G3 X0.689 Y1.3686 I0.0132 J-0.0048
G3 X0.6887 Y1.3664 I0.0161 J-0.0033
G3 X0.6887 Y1.3635 I0.0154 J-0.001
G3 X0.6893 Y1.3613 I0.0099 J0.0012
G3 X0.6903 Y1.3593 I0.0073 J0.0027
G3 X0.6917 Y1.358 I0.0045 J0.0034
G1 X0.7016 Y1.3566
G2 X0.7168 Y1.3524 I-0.0049 J-0.0478
G2 X0.722 Y1.3472 I-0.0044 J-0.0096
G2 X0.7236 Y1.3422 I-0.02 J-0.0091
G2 X0.7249 Y1.332 I-0.0836 J-0.0161
G2 X0.7253 Y1.3239 I-0.167 J-0.0115
G2 X0.7255 Y1.3044 I-0.9613 J-0.0195
G1 X0.7255 Y1.2537
G2 X0.7246 Y1.2462 I-0.0312 J0
G2 X0.7231 Y1.2443 I-0.0029 J0.0007
G2 X0.7207 Y1.2436 I-0.003 J0.0052
G2 X0.7068 Y1.243 I-0.0138 J0.1683
G1 X0.5808 Y1.243
G2 X0.567 Y1.2436 I0 J0.169
G2 X0.5645 Y1.2443 I0.0005 J0.0059
G2 X0.5631 Y1.2462 I0.0015 J0.0026
G2 X0.5622 Y1.2537 I0.0302 J0.0075
G1 X0.5622 Y1.3044
G2 X0.5623 Y1.3239 I0.9799 J0
G2 X0.5627 Y1.332 I0.1704 J-0.0034
G2 X0.564 Y1.3422 I0.0865 J-0.0059
G2 X0.5656 Y1.3472 I0.0218 J-0.0041
G2 X0.5707 Y1.3524 I0.0096 J-0.0043
G2 X0.5856 Y1.3566 I0.0197 J-0.0421
G1 X0.5939 Y1.3574
G1 X0.5954 Y1.358
G3 X0.5968 Y1.3593 I-0.0031 J0.0047
G3 X0.5979 Y1.3613 I-0.0063 J0.0047
G3 X0.5984 Y1.3635 I-0.0093 J0.0034
G3 X0.5985 Y1.3664 I-0.0153 J0.0019
G3 X0.5982 Y1.3686 I-0.0164 J-0.0011
G3 X0.5977 Y1.3705 I-0.0137 J-0.0028
G3 X0.5961 Y1.3733 I-0.0093 J-0.0034
G3 X0.5942 Y1.3749 I-0.0044 J-0.0036
G1 X0.5925 Y1.3752
G2 X0.5775 Y1.3746 I-0.0755 J1.63
G2 X0.5656 Y1.3742 I-0.0382 J1.0313
G2 X0.5537 Y1.374 I-0.0235 J0.9224
G2 X0.5416 Y1.3739 I-0.0121 J0.9622
G2 X0.5304 Y1.374 I0 J0.5447
G2 X0.5101 Y1.3745 I0.0371 J1.8114
G1 X0.5094 Y1.3746
G1 X0.5091 Y1.3746
G1 X0.5082 Y1.3746
G2 X0.5064 Y1.3747 I0.6629 J21.4399
G3 X0.4935 Y1.375 I-0.1052 J-3.3925
G3 X0.4861 Y1.3752 I-0.0303 J-1.1157
G1 X0.4846 Y1.3749
G3 X0.4827 Y1.3733 I0.0025 J-0.0051
G3 X0.4811 Y1.3705 I0.0076 J-0.0062
G3 X0.4805 Y1.3686 I0.0131 J-0.0048
G3 X0.4802 Y1.3664 I0.0152 J-0.0031
G3 X0.4803 Y1.3635 I0.0154 J-0.0011
G3 X0.4808 Y1.3613 I0.0099 J0.0012
G3 X0.4819 Y1.3593 I0.0074 J0.0027
G3 X0.4833 Y1.358 I0.0045 J0.0034
G1 X0.4964 Y1.3566
G2 X0.5096 Y1.3529 I-0.0028 J-0.0365
G2 X0.5151 Y1.3474 I-0.0051 J-0.0105
G2 X0.5176 Y1.3382 I-0.0254 J-0.0119
G2 X0.5192 Y1.3044 I-0.3501 J-0.0338
G1 X0.5192 Y1.1457
G2 X0.5191 Y1.1264 I-1.098 J0
G2 X0.5188 Y1.1189 I-0.1668 J0.0029
G2 X0.5175 Y1.109 I-0.0847 J0.0053
G2 X0.5161 Y1.1041 I-0.0213 J0.0039
G2 X0.5113 Y1.099 I-0.0096 J0.0042
G2 X0.4965 Y1.094 I-0.024 J0.0464
G1 X0.4879 Y1.0925
G1 X0.4872 Y1.0917
G3 X0.4858 Y1.0898 I0.0053 J-0.0053
G3 X0.4849 Y1.0871 I0.0096 J-0.0048
G3 X0.4846 Y1.0847 I0.013 J-0.0027
G3 X0.4848 Y1.0821 I0.0147 J-0.0002
G3 X0.4854 Y1.0797 I0.0136 J0.0022
G3 X0.4863 Y1.0779 I0.0091 J0.0032
G3 X0.4875 Y1.0763 I0.0067 J0.0041
G3 X0.4889 Y1.0753 I0.0039 J0.0041
G1 X0.4905 Y1.075
G1 X0.5082 Y1.0755
G2 X0.5186 Y1.0759 I0.1054 J-2.9405
G2 X0.5242 Y1.076 I0.0277 J-0.8586
G2 X0.5334 Y1.0762 I0.0197 J-0.7655
G2 X0.5416 Y1.0763 I0.0081 J-0.5961
G2 X0.5533 Y1.0762 I0 J-0.9174
G2 X0.5662 Y1.076 I-0.0141 J-1.099
G2 X0.5771 Y1.0757 I-0.0367 J-1.4926
G2 X0.5974 Y1.075 I-0.1667 J-5.2336
G1 X0.5991 Y1.0753
G3 X0.6008 Y1.0766 I-0.0025 J0.0049
G3 X0.6022 Y1.079 I-0.007 J0.0061
G3 X0.603 Y1.0812 I-0.0115 J0.0051
G3 X0.6034 Y1.0839 I-0.0157 J0.0036
G3 X0.6033 Y1.0867 I-0.0151 J0.0009
G3 X0.6027 Y1.0889 I-0.0098 J-0.0013
G3 X0.6017 Y1.0909 I-0.0073 J-0.0027
G3 X0.6003 Y1.0922 I-0.0044 J-0.0034
G1 X0.586 Y1.094
G2 X0.5713 Y1.098 I0.0052 J0.0481
G2 X0.5661 Y1.103 I0.0044 J0.0096
G2 X0.5637 Y1.1115 I0.0218 J0.0107
G2 X0.5622 Y1.1457 I0.3669 J0.0343
G1 X0.5622 Y1.2079
G2 X0.5631 Y1.2154 I0.031 J0
G2 X0.5645 Y1.2173 I0.0029 J-0.0007
G2 X0.567 Y1.218 I0.003 J-0.0052
G2 X0.5808 Y1.2186 I0.0138 J-0.1688
G1 X0.7068 Y1.2186
G2 X0.7207 Y1.218 I0 J-0.1692
G2 X0.7231 Y1.2173 I-0.0005 J-0.0059
G2 X0.7246 Y1.2154 I-0.0015 J-0.0026
G2 X0.7255 Y1.2079 I-0.0301 J-0.0075
G1 X0.7255 Y1.1457
G2 X0.7253 Y1.1256 I-1.2517 J0
G2 X0.725 Y1.1184 I-0.1613 J0.0026
G2 X0.7238 Y1.1085 I-0.0813 J0.0049
G2 X0.7223 Y1.1038 I-0.0195 J0.0036
G2 X0.7176 Y1.099 I-0.0089 J0.0041
G2 X0.7015 Y1.094 I-0.0262 J0.056
G1 X0.692 Y1.0925
G1 X0.6912 Y1.0917
G3 X0.6898 Y1.0898 I0.0053 J-0.0053
G3 X0.6889 Y1.0871 I0.0097 J-0.0048
G3 X0.6886 Y1.0846 I0.0131 J-0.0026
G3 X0.6888 Y1.0821 I0.0146 J-0.0002
G3 X0.6894 Y1.0797 I0.0136 J0.0022
G3 X0.6903 Y1.0779 I0.0091 J0.0033
G3 X0.6916 Y1.0763 I0.0067 J0.0042
G3 X0.693 Y1.0753 I0.0039 J0.0041
G1 X0.6947 Y1.075
G2 X0.7105 Y1.0756 I0.0823 J-1.8691
G2 X0.7229 Y1.076 I0.0406 J-1.1434
G2 X0.7353 Y1.0762 I0.0248 J-1.0058
G2 X0.7478 Y1.0763 I0.0125 J-1.0113
G2 X0.7601 Y1.0762 I0 J-0.9101
G2 X0.7732 Y1.0759 I-0.0141 J-1.0416
G2 X0.7842 Y1.0756 I-0.033 J-1.2655
G2 X0.801 Y1.075 I-0.1016 J-2.9151
G1 X0.8026 Y1.0753
G3 X0.8045 Y1.0769 I-0.0025 J0.0051
G3 X0.8061 Y1.0797 I-0.0076 J0.0061
G3 X0.8067 Y1.0816 I-0.0131 J0.0047
G3 X0.807 Y1.0838 I-0.0156 J0.0032
G3 X0.8069 Y1.0867 I-0.0152 J0.001
G3 X0.8064 Y1.0889 I-0.0098 J-0.0012
G3 X0.8053 Y1.0909 I-0.0073 J-0.0027
G3 X0.8039 Y1.0922 I-0.0045 J-0.0033
G1 X0.7919 Y1.094
G2 X0.7768 Y1.0983 I0.006 J0.0494
G2 X0.7717 Y1.1034 I0.0044 J0.0093
G2 X0.7702 Y1.1083 I0.0195 J0.0089
G2 X0.7689 Y1.1184 I0.0831 J0.0157
G2 X0.7686 Y1.1262 I0.1665 J0.011
G2 X0.7684 Y1.1457 I1.0251 J0.0195
G0 Z0.125
G0 X0.7684 Y1.1457
G1 Z-0.0936 F10
G1 X0.7684 Y1.3044 F10
G2 X0.7686 Y1.3239 I0.981 J0
G2 X0.7689 Y1.332 I0.1707 J-0.0034
G2 X0.7703 Y1.3422 I0.0866 J-0.0059
G2 X0.7718 Y1.3472 I0.0219 J-0.0041
G2 X0.777 Y1.3524 I0.0096 J-0.0043
G2 X0.7918 Y1.3566 I0.0196 J-0.0419
G1 X0.801 Y1.3574
G1 X0.8025 Y1.358
G3 X0.8039 Y1.3593 I-0.0031 J0.0047
G3 X0.805 Y1.3613 I-0.0063 J0.0047
G3 X0.8056 Y1.3635 I-0.0093 J0.0035
G3 X0.8056 Y1.3663 I-0.0151 J0.0019
G3 X0.8054 Y1.3685 I-0.0169 J-0.0011
G3 X0.8048 Y1.3705 I-0.0138 J-0.0028
G3 X0.8032 Y1.3733 I-0.0093 J-0.0033
G3 X0.8013 Y1.3749 I-0.0044 J-0.0035
G1 X0.7997 Y1.3752
G2 X0.7837 Y1.3746 I-0.0871 J1.98
G2 X0.7718 Y1.3742 I-0.0397 J1.1045
G2 X0.7598 Y1.374 I-0.0238 J0.948
G2 X0.7478 Y1.3739 I-0.012 J0.9623
G2 X0.7344 Y1.374 I0 J1.0181
G2 X0.7211 Y1.3743 I0.0133 J1.0126
G2 X0.7101 Y1.3746 I0.0299 J1.1346
G2 X0.6946 Y1.3752 I0.082 J2.2785
G1 X0.693 Y1.3749
G3 X0.6911 Y1.3733 I0.0025 J-0.0051
G3 X0.6895 Y1.3705 I0.0077 J-0.0062
G3 X0.689 Y1.3686 I0.0132 J-0.0048
G3 X0.6887 Y1.3664 I0.0161 J-0.0033
G3 X0.6887 Y1.3635 I0.0154 J-0.001
G3 X0.6893 Y1.3613 I0.0099 J0.0012
G3 X0.6903 Y1.3593 I0.0073 J0.0027
G3 X0.6917 Y1.358 I0.0045 J0.0034
G1 X0.7016 Y1.3566
G2 X0.7168 Y1.3524 I-0.0049 J-0.0478
G2 X0.722 Y1.3472 I-0.0044 J-0.0096
G2 X0.7236 Y1.3422 I-0.02 J-0.0091
G2 X0.7249 Y1.332 I-0.0836 J-0.0161
G2 X0.7253 Y1.3239 I-0.167 J-0.0115
G2 X0.7255 Y1.3044 I-0.9613 J-0.0195
G1 X0.7255 Y1.2537
G2 X0.7246 Y1.2462 I-0.0312 J0
G2 X0.7231 Y1.2443 I-0.0029 J0.0007
G2 X0.7207 Y1.2436 I-0.003 J0.0052
G2 X0.7068 Y1.243 I-0.0138 J0.1683
G1 X0.5808 Y1.243
G2 X0.567 Y1.2436 I0 J0.169
G2 X0.5645 Y1.2443 I0.0005 J0.0059
G2 X0.5631 Y1.2462 I0.0015 J0.0026
G2 X0.5622 Y1.2537 I0.0302 J0.0075
G1 X0.5622 Y1.3044
G2 X0.5623 Y1.3239 I0.9799 J0
G2 X0.5627 Y1.332 I0.1704 J-0.0034
G2 X0.564 Y1.3422 I0.0865 J-0.0059
G2 X0.5656 Y1.3472 I0.0218 J-0.0041
G2 X0.5707 Y1.3524 I0.0096 J-0.0043
G2 X0.5856 Y1.3566 I0.0197 J-0.0421
G1 X0.5939 Y1.3574
G1 X0.5954 Y1.358
G3 X0.5968 Y1.3593 I-0.0031 J0.0047
G3 X0.5979 Y1.3613 I-0.0063 J0.0047
G3 X0.5984 Y1.3635 I-0.0093 J0.0034
G3 X0.5985 Y1.3664 I-0.0153 J0.0019
G3 X0.5982 Y1.3686 I-0.0164 J-0.0011
G3 X0.5977 Y1.3705 I-0.0137 J-0.0028
G3 X0.5961 Y1.3733 I-0.0093 J-0.0034
G3 X0.5942 Y1.3749 I-0.0044 J-0.0036
G1 X0.5925 Y1.3752
G2 X0.5775 Y1.3746 I-0.0755 J1.63
G2 X0.5656 Y1.3742 I-0.0382 J1.0313
G2 X0.5537 Y1.374 I-0.0235 J0.9224
G2 X0.5416 Y1.3739 I-0.0121 J0.9622
G2 X0.5304 Y1.374 I0 J0.5447
G2 X0.5101 Y1.3745 I0.0371 J1.8114
G1 X0.5094 Y1.3746
G1 X0.5091 Y1.3746
G1 X0.5082 Y1.3746
G2 X0.5064 Y1.3747 I0.6629 J21.4399
G3 X0.4935 Y1.375 I-0.1052 J-3.3925
G3 X0.4861 Y1.3752 I-0.0303 J-1.1157
G1 X0.4846 Y1.3749
G3 X0.4827 Y1.3733 I0.0025 J-0.0051
G3 X0.4811 Y1.3705 I0.0076 J-0.0062
G3 X0.4805 Y1.3686 I0.0131 J-0.0048
G3 X0.4802 Y1.3664 I0.0152 J-0.0031
G3 X0.4803 Y1.3635 I0.0154 J-0.0011
G3 X0.4808 Y1.3613 I0.0099 J0.0012
G3 X0.4819 Y1.3593 I0.0074 J0.0027
G3 X0.4833 Y1.358 I0.0045 J0.0034
G1 X0.4964 Y1.3566
G2 X0.5096 Y1.3529 I-0.0028 J-0.0365
G2 X0.5151 Y1.3474 I-0.0051 J-0.0105
G2 X0.5176 Y1.3382 I-0.0254 J-0.0119
G2 X0.5192 Y1.3044 I-0.3501 J-0.0338
G1 X0.5192 Y1.1457
G2 X0.5191 Y1.1264 I-1.098 J0
G2 X0.5188 Y1.1189 I-0.1668 J0.0029
G2 X0.5175 Y1.109 I-0.0847 J0.0053
G2 X0.5161 Y1.1041 I-0.0213 J0.0039
G2 X0.5113 Y1.099 I-0.0096 J0.0042
G2 X0.4965 Y1.094 I-0.024 J0.0464
G1 X0.4879 Y1.0925
G1 X0.4872 Y1.0917
G3 X0.4858 Y1.0898 I0.0053 J-0.0053
G3 X0.4849 Y1.0871 I0.0096 J-0.0048
G3 X0.4846 Y1.0847 I0.013 J-0.0027
G3 X0.4848 Y1.0821 I0.0147 J-0.0002
G3 X0.4854 Y1.0797 I0.0136 J0.0022
G3 X0.4863 Y1.0779 I0.0091 J0.0032
G3 X0.4875 Y1.0763 I0.0067 J0.0041
G3 X0.4889 Y1.0753 I0.0039 J0.0041
G1 X0.4905 Y1.075
G1 X0.5082 Y1.0755
G2 X0.5186 Y1.0759 I0.1054 J-2.9405
G2 X0.5242 Y1.076 I0.0277 J-0.8586
G2 X0.5334 Y1.0762 I0.0197 J-0.7655
G2 X0.5416 Y1.0763 I0.0081 J-0.5961
G2 X0.5533 Y1.0762 I0 J-0.9174
G2 X0.5662 Y1.076 I-0.0141 J-1.099
G2 X0.5771 Y1.0757 I-0.0367 J-1.4926
G2 X0.5974 Y1.075 I-0.1667 J-5.2336
G1 X0.5991 Y1.0753
G3 X0.6008 Y1.0766 I-0.0025 J0.0049
G3 X0.6022 Y1.079 I-0.007 J0.0061
G3 X0.603 Y1.0812 I-0.0115 J0.0051
G3 X0.6034 Y1.0839 I-0.0157 J0.0036
G3 X0.6033 Y1.0867 I-0.0151 J0.0009
G3 X0.6027 Y1.0889 I-0.0098 J-0.0013
G3 X0.6017 Y1.0909 I-0.0073 J-0.0027
G3 X0.6003 Y1.0922 I-0.0044 J-0.0034
G1 X0.586 Y1.094
G2 X0.5713 Y1.098 I0.0052 J0.0481
G2 X0.5661 Y1.103 I0.0044 J0.0096
G2 X0.5637 Y1.1115 I0.0218 J0.0107
G2 X0.5622 Y1.1457 I0.3669 J0.0343
G1 X0.5622 Y1.2079
G2 X0.5631 Y1.2154 I0.031 J0
G2 X0.5645 Y1.2173 I0.0029 J-0.0007
G2 X0.567 Y1.218 I0.003 J-0.0052
G2 X0.5808 Y1.2186 I0.0138 J-0.1688
G1 X0.7068 Y1.2186
G2 X0.7207 Y1.218 I0 J-0.1692
G2 X0.7231 Y1.2173 I-0.0005 J-0.0059
G2 X0.7246 Y1.2154 I-0.0015 J-0.0026
G2 X0.7255 Y1.2079 I-0.0301 J-0.0075
G1 X0.7255 Y1.1457
G2 X0.7253 Y1.1256 I-1.2517 J0
G2 X0.725 Y1.1184 I-0.1613 J0.0026
G2 X0.7238 Y1.1085 I-0.0813 J0.0049
G2 X0.7223 Y1.1038 I-0.0195 J0.0036
G2 X0.7176 Y1.099 I-0.0089 J0.0041
G2 X0.7015 Y1.094 I-0.0262 J0.056
G1 X0.692 Y1.0925
G1 X0.6912 Y1.0917
G3 X0.6898 Y1.0898 I0.0053 J-0.0053
G3 X0.6889 Y1.0871 I0.0097 J-0.0048
G3 X0.6886 Y1.0846 I0.0131 J-0.0026
G3 X0.6888 Y1.0821 I0.0146 J-0.0002
G3 X0.6894 Y1.0797 I0.0136 J0.0022
G3 X0.6903 Y1.0779 I0.0091 J0.0033
G3 X0.6916 Y1.0763 I0.0067 J0.0042
G3 X0.693 Y1.0753 I0.0039 J0.0041
G1 X0.6947 Y1.075
G2 X0.7105 Y1.0756 I0.0823 J-1.8691
G2 X0.7229 Y1.076 I0.0406 J-1.1434
G2 X0.7353 Y1.0762 I0.0248 J-1.0058
G2 X0.7478 Y1.0763 I0.0125 J-1.0113
G2 X0.7601 Y1.0762 I0 J-0.9101
G2 X0.7732 Y1.0759 I-0.0141 J-1.0416
G2 X0.7842 Y1.0756 I-0.033 J-1.2655
G2 X0.801 Y1.075 I-0.1016 J-2.9151
G1 X0.8026 Y1.0753
G3 X0.8045 Y1.0769 I-0.0025 J0.0051
G3 X0.8061 Y1.0797 I-0.0076 J0.0061
G3 X0.8067 Y1.0816 I-0.0131 J0.0047
G3 X0.807 Y1.0838 I-0.0156 J0.0032
G3 X0.8069 Y1.0867 I-0.0152 J0.001
G3 X0.8064 Y1.0889 I-0.0098 J-0.0012
G3 X0.8053 Y1.0909 I-0.0073 J-0.0027
G3 X0.8039 Y1.0922 I-0.0045 J-0.0033
G1 X0.7919 Y1.094
G2 X0.7768 Y1.0983 I0.006 J0.0494
G2 X0.7717 Y1.1034 I0.0044 J0.0093
G2 X0.7702 Y1.1083 I0.0195 J0.0089
G2 X0.7689 Y1.1184 I0.0831 J0.0157
G2 X0.7686 Y1.1262 I0.1665 J0.011
G2 X0.7684 Y1.1457 I1.0251 J0.0195
G0 Z0.125
G0 X0.7684 Y1.1457
G1 Z-0.1248 F10
G1 X0.7684 Y1.3044 F10
G2 X0.7686 Y1.3239 I0.981 J0
G2 X0.7689 Y1.332 I0.1707 J-0.0034
G2 X0.7703 Y1.3422 I0.0866 J-0.0059
G2 X0.7718 Y1.3472 I0.0219 J-0.0041
G2 X0.777 Y1.3524 I0.0096 J-0.0043
G2 X0.7918 Y1.3566 I0.0196 J-0.0419
G1 X0.801 Y1.3574
G1 X0.8025 Y1.358
G3 X0.8039 Y1.3593 I-0.0031 J0.0047
G3 X0.805 Y1.3613 I-0.0063 J0.0047
G3 X0.8056 Y1.3635 I-0.0093 J0.0035
G3 X0.8056 Y1.3663 I-0.0151 J0.0019
G3 X0.8054 Y1.3685 I-0.0169 J-0.0011
G3 X0.8048 Y1.3705 I-0.0138 J-0.0028
G3 X0.8032 Y1.3733 I-0.0093 J-0.0033
G3 X0.8013 Y1.3749 I-0.0044 J-0.0035
G1 X0.7997 Y1.3752
G2 X0.7837 Y1.3746 I-0.0871 J1.98
G2 X0.7718 Y1.3742 I-0.0397 J1.1045
G2 X0.7598 Y1.374 I-0.0238 J0.948
G2 X0.7478 Y1.3739 I-0.012 J0.9623
G2 X0.7344 Y1.374 I0 J1.0181
G2 X0.7211 Y1.3743 I0.0133 J1.0126
G2 X0.7101 Y1.3746 I0.0299 J1.1346
G2 X0.6946 Y1.3752 I0.082 J2.2785
G1 X0.693 Y1.3749
G3 X0.6911 Y1.3733 I0.0025 J-0.0051
G3 X0.6895 Y1.3705 I0.0077 J-0.0062
G3 X0.689 Y1.3686 I0.0132 J-0.0048
G3 X0.6887 Y1.3664 I0.0161 J-0.0033
G3 X0.6887 Y1.3635 I0.0154 J-0.001
G3 X0.6893 Y1.3613 I0.0099 J0.0012
G3 X0.6903 Y1.3593 I0.0073 J0.0027
G3 X0.6917 Y1.358 I0.0045 J0.0034
G1 X0.7016 Y1.3566
G2 X0.7168 Y1.3524 I-0.0049 J-0.0478
G2 X0.722 Y1.3472 I-0.0044 J-0.0096
G2 X0.7236 Y1.3422 I-0.02 J-0.0091
G2 X0.7249 Y1.332 I-0.0836 J-0.0161
G2 X0.7253 Y1.3239 I-0.167 J-0.0115
G2 X0.7255 Y1.3044 I-0.9613 J-0.0195
G1 X0.7255 Y1.2537
G2 X0.7246 Y1.2462 I-0.0312 J0
G2 X0.7231 Y1.2443 I-0.0029 J0.0007
G2 X0.7207 Y1.2436 I-0.003 J0.0052
G2 X0.7068 Y1.243 I-0.0138 J0.1683
G1 X0.5808 Y1.243
G2 X0.567 Y1.2436 I0 J0.169
G2 X0.5645 Y1.2443 I0.0005 J0.0059
G2 X0.5631 Y1.2462 I0.0015 J0.0026
G2 X0.5622 Y1.2537 I0.0302 J0.0075
G1 X0.5622 Y1.3044
G2 X0.5623 Y1.3239 I0.9799 J0
G2 X0.5627 Y1.332 I0.1704 J-0.0034
G2 X0.564 Y1.3422 I0.0865 J-0.0059
G2 X0.5656 Y1.3472 I0.0218 J-0.0041
G2 X0.5707 Y1.3524 I0.0096 J-0.0043
G2 X0.5856 Y1.3566 I0.0197 J-0.0421
G1 X0.5939 Y1.3574
G1 X0.5954 Y1.358
G3 X0.5968 Y1.3593 I-0.0031 J0.0047
G3 X0.5979 Y1.3613 I-0.0063 J0.0047
G3 X0.5984 Y1.3635 I-0.0093 J0.0034
G3 X0.5985 Y1.3664 I-0.0153 J0.0019
G3 X0.5982 Y1.3686 I-0.0164 J-0.0011
G3 X0.5977 Y1.3705 I-0.0137 J-0.0028
G3 X0.5961 Y1.3733 I-0.0093 J-0.0034
G3 X0.5942 Y1.3749 I-0.0044 J-0.0036
G1 X0.5925 Y1.3752
G2 X0.5775 Y1.3746 I-0.0755 J1.63
G2 X0.5656 Y1.3742 I-0.0382 J1.0313
G2 X0.5537 Y1.374 I-0.0235 J0.9224
G2 X0.5416 Y1.3739 I-0.0121 J0.9622
G2 X0.5304 Y1.374 I0 J0.5447
G2 X0.5101 Y1.3745 I0.0371 J1.8114
G1 X0.5094 Y1.3746
G1 X0.5091 Y1.3746
G1 X0.5082 Y1.3746
G2 X0.5064 Y1.3747 I0.6629 J21.4399
G3 X0.4935 Y1.375 I-0.1052 J-3.3925
G3 X0.4861 Y1.3752 I-0.0303 J-1.1157
G1 X0.4846 Y1.3749
G3 X0.4827 Y1.3733 I0.0025 J-0.0051
G3 X0.4811 Y1.3705 I0.0076 J-0.0062
G3 X0.4805 Y1.3686 I0.0131 J-0.0048
G3 X0.4802 Y1.3664 I0.0152 J-0.0031
G3 X0.4803 Y1.3635 I0.0154 J-0.0011
G3 X0.4808 Y1.3613 I0.0099 J0.0012
G3 X0.4819 Y1.3593 I0.0074 J0.0027
G3 X0.4833 Y1.358 I0.0045 J0.0034
G1 X0.4964 Y1.3566
G2 X0.5096 Y1.3529 I-0.0028 J-0.0365
G2 X0.5151 Y1.3474 I-0.0051 J-0.0105
G2 X0.5176 Y1.3382 I-0.0254 J-0.0119
G2 X0.5192 Y1.3044 I-0.3501 J-0.0338
G1 X0.5192 Y1.1457
G2 X0.5191 Y1.1264 I-1.098 J0
G2 X0.5188 Y1.1189 I-0.1668 J0.0029
G2 X0.5175 Y1.109 I-0.0847 J0.0053
G2 X0.5161 Y1.1041 I-0.0213 J0.0039
G2 X0.5113 Y1.099 I-0.0096 J0.0042
G2 X0.4965 Y1.094 I-0.024 J0.0464
G1 X0.4879 Y1.0925
G1 X0.4872 Y1.0917
G3 X0.4858 Y1.0898 I0.0053 J-0.0053
G3 X0.4849 Y1.0871 I0.0096 J-0.0048
G3 X0.4846 Y1.0847 I0.013 J-0.0027
G3 X0.4848 Y1.0821 I0.0147 J-0.0002
G3 X0.4854 Y1.0797 I0.0136 J0.0022
G3 X0.4863 Y1.0779 I0.0091 J0.0032
G3 X0.4875 Y1.0763 I0.0067 J0.0041
G3 X0.4889 Y1.0753 I0.0039 J0.0041
G1 X0.4905 Y1.075
G1 X0.5082 Y1.0755
G2 X0.5186 Y1.0759 I0.1054 J-2.9405
G2 X0.5242 Y1.076 I0.0277 J-0.8586
G2 X0.5334 Y1.0762 I0.0197 J-0.7655
G2 X0.5416 Y1.0763 I0.0081 J-0.5961
G2 X0.5533 Y1.0762 I0 J-0.9174
G2 X0.5662 Y1.076 I-0.0141 J-1.099
G2 X0.5771 Y1.0757 I-0.0367 J-1.4926
G2 X0.5974 Y1.075 I-0.1667 J-5.2336
G1 X0.5991 Y1.0753
G3 X0.6008 Y1.0766 I-0.0025 J0.0049
G3 X0.6022 Y1.079 I-0.007 J0.0061
G3 X0.603 Y1.0812 I-0.0115 J0.0051
G3 X0.6034 Y1.0839 I-0.0157 J0.0036
G3 X0.6033 Y1.0867 I-0.0151 J0.0009
G3 X0.6027 Y1.0889 I-0.0098 J-0.0013
G3 X0.6017 Y1.0909 I-0.0073 J-0.0027
G3 X0.6003 Y1.0922 I-0.0044 J-0.0034
G1 X0.586 Y1.094
G2 X0.5713 Y1.098 I0.0052 J0.0481
G2 X0.5661 Y1.103 I0.0044 J0.0096
G2 X0.5637 Y1.1115 I0.0218 J0.0107
G2 X0.5622 Y1.1457 I0.3669 J0.0343
G1 X0.5622 Y1.2079
G2 X0.5631 Y1.2154 I0.031 J0
G2 X0.5645 Y1.2173 I0.0029 J-0.0007
G2 X0.567 Y1.218 I0.003 J-0.0052
G2 X0.5808 Y1.2186 I0.0138 J-0.1688
G1 X0.7068 Y1.2186
G2 X0.7207 Y1.218 I0 J-0.1692
G2 X0.7231 Y1.2173 I-0.0005 J-0.0059
G2 X0.7246 Y1.2154 I-0.0015 J-0.0026
G2 X0.7255 Y1.2079 I-0.0301 J-0.0075
G1 X0.7255 Y1.1457
G2 X0.7253 Y1.1256 I-1.2517 J0
G2 X0.725 Y1.1184 I-0.1613 J0.0026
G2 X0.7238 Y1.1085 I-0.0813 J0.0049
G2 X0.7223 Y1.1038 I-0.0195 J0.0036
G2 X0.7176 Y1.099 I-0.0089 J0.0041
G2 X0.7015 Y1.094 I-0.0262 J0.056
G1 X0.692 Y1.0925
G1 X0.6912 Y1.0917
G3 X0.6898 Y1.0898 I0.0053 J-0.0053
G3 X0.6889 Y1.0871 I0.0097 J-0.0048
G3 X0.6886 Y1.0846 I0.0131 J-0.0026
G3 X0.6888 Y1.0821 I0.0146 J-0.0002
G3 X0.6894 Y1.0797 I0.0136 J0.0022
G3 X0.6903 Y1.0779 I0.0091 J0.0033
G3 X0.6916 Y1.0763 I0.0067 J0.0042
G3 X0.693 Y1.0753 I0.0039 J0.0041
G1 X0.6947 Y1.075
G2 X0.7105 Y1.0756 I0.0823 J-1.8691
G2 X0.7229 Y1.076 I0.0406 J-1.1434
G2 X0.7353 Y1.0762 I0.0248 J-1.0058
G2 X0.7478 Y1.0763 I0.0125 J-1.0113
G2 X0.7601 Y1.0762 I0 J-0.9101
G2 X0.7732 Y1.0759 I-0.0141 J-1.0416
G2 X0.7842 Y1.0756 I-0.033 J-1.2655
G2 X0.801 Y1.075 I-0.1016 J-2.9151
G1 X0.8026 Y1.0753
G3 X0.8045 Y1.0769 I-0.0025 J0.0051
G3 X0.8061 Y1.0797 I-0.0076 J0.0061
G3 X0.8067 Y1.0816 I-0.0131 J0.0047
G3 X0.807 Y1.0838 I-0.0156 J0.0032
G3 X0.8069 Y1.0867 I-0.0152 J0.001
G3 X0.8064 Y1.0889 I-0.0098 J-0.0012
G3 X0.8053 Y1.0909 I-0.0073 J-0.0027
G3 X0.8039 Y1.0922 I-0.0045 J-0.0033
G1 X0.7919 Y1.094
G2 X0.7768 Y1.0983 I0.006 J0.0494
G2 X0.7717 Y1.1034 I0.0044 J0.0093
G2 X0.7702 Y1.1083 I0.0195 J0.0089
G2 X0.7689 Y1.1184 I0.0831 J0.0157
G2 X0.7686 Y1.1262 I0.1665 J0.011
G2 X0.7684 Y1.1457 I1.0251 J0.0195
G0 Z0.125
G0 X0.7684 Y1.1457
G1 Z-0.156 F10
G1 X0.7684 Y1.3044 F10
G2 X0.7686 Y1.3239 I0.981 J0
G2 X0.7689 Y1.332 I0.1707 J-0.0034
G2 X0.7703 Y1.3422 I0.0866 J-0.0059
G2 X0.7718 Y1.3472 I0.0219 J-0.0041
G2 X0.777 Y1.3524 I0.0096 J-0.0043
G2 X0.7918 Y1.3566 I0.0196 J-0.0419
G1 X0.801 Y1.3574
G1 X0.8025 Y1.358
G3 X0.8039 Y1.3593 I-0.0031 J0.0047
G3 X0.805 Y1.3613 I-0.0063 J0.0047
G3 X0.8056 Y1.3635 I-0.0093 J0.0035
G3 X0.8056 Y1.3663 I-0.0151 J0.0019
G3 X0.8054 Y1.3685 I-0.0169 J-0.0011
G3 X0.8048 Y1.3705 I-0.0138 J-0.0028
G3 X0.8032 Y1.3733 I-0.0093 J-0.0033
G3 X0.8013 Y1.3749 I-0.0044 J-0.0035
G1 X0.7997 Y1.3752
G2 X0.7837 Y1.3746 I-0.0871 J1.98
G2 X0.7718 Y1.3742 I-0.0397 J1.1045
G2 X0.7598 Y1.374 I-0.0238 J0.948
G2 X0.7478 Y1.3739 I-0.012 J0.9623
G2 X0.7344 Y1.374 I0 J1.0181
G2 X0.7211 Y1.3743 I0.0133 J1.0126
G2 X0.7101 Y1.3746 I0.0299 J1.1346
G2 X0.6946 Y1.3752 I0.082 J2.2785
G1 X0.693 Y1.3749
G3 X0.6911 Y1.3733 I0.0025 J-0.0051
G3 X0.6895 Y1.3705 I0.0077 J-0.0062
G3 X0.689 Y1.3686 I0.0132 J-0.0048
G3 X0.6887 Y1.3664 I0.0161 J-0.0033
G3 X0.6887 Y1.3635 I0.0154 J-0.001
G3 X0.6893 Y1.3613 I0.0099 J0.0012
G3 X0.6903 Y1.3593 I0.0073 J0.0027
G3 X0.6917 Y1.358 I0.0045 J0.0034
G1 X0.7016 Y1.3566
G2 X0.7168 Y1.3524 I-0.0049 J-0.0478
G2 X0.722 Y1.3472 I-0.0044 J-0.0096
G2 X0.7236 Y1.3422 I-0.02 J-0.0091
G2 X0.7249 Y1.332 I-0.0836 J-0.0161
G2 X0.7253 Y1.3239 I-0.167 J-0.0115
G2 X0.7255 Y1.3044 I-0.9613 J-0.0195
G1 X0.7255 Y1.2537
G2 X0.7246 Y1.2462 I-0.0312 J0
G2 X0.7231 Y1.2443 I-0.0029 J0.0007
G2 X0.7207 Y1.2436 I-0.003 J0.0052
G2 X0.7068 Y1.243 I-0.0138 J0.1683
G1 X0.5808 Y1.243
G2 X0.567 Y1.2436 I0 J0.169
G2 X0.5645 Y1.2443 I0.0005 J0.0059
G2 X0.5631 Y1.2462 I0.0015 J0.0026
G2 X0.5622 Y1.2537 I0.0302 J0.0075
G1 X0.5622 Y1.3044
G2 X0.5623 Y1.3239 I0.9799 J0
G2 X0.5627 Y1.332 I0.1704 J-0.0034
G2 X0.564 Y1.3422 I0.0865 J-0.0059
G2 X0.5656 Y1.3472 I0.0218 J-0.0041
G2 X0.5707 Y1.3524 I0.0096 J-0.0043
G2 X0.5856 Y1.3566 I0.0197 J-0.0421
G1 X0.5939 Y1.3574
G1 X0.5954 Y1.358
G3 X0.5968 Y1.3593 I-0.0031 J0.0047
G3 X0.5979 Y1.3613 I-0.0063 J0.0047
G3 X0.5984 Y1.3635 I-0.0093 J0.0034
G3 X0.5985 Y1.3664 I-0.0153 J0.0019
G3 X0.5982 Y1.3686 I-0.0164 J-0.0011
G3 X0.5977 Y1.3705 I-0.0137 J-0.0028
G3 X0.5961 Y1.3733 I-0.0093 J-0.0034
G3 X0.5942 Y1.3749 I-0.0044 J-0.0036
G1 X0.5925 Y1.3752
G2 X0.5775 Y1.3746 I-0.0755 J1.63
G2 X0.5656 Y1.3742 I-0.0382 J1.0313
G2 X0.5537 Y1.374 I-0.0235 J0.9224
G2 X0.5416 Y1.3739 I-0.0121 J0.9622
G2 X0.5304 Y1.374 I0 J0.5447
G2 X0.5101 Y1.3745 I0.0371 J1.8114
G1 X0.5094 Y1.3746
G1 X0.5091 Y1.3746
G1 X0.5082 Y1.3746
G2 X0.5064 Y1.3747 I0.6629 J21.4399
G3 X0.4935 Y1.375 I-0.1052 J-3.3925
G3 X0.4861 Y1.3752 I-0.0303 J-1.1157
G1 X0.4846 Y1.3749
G3 X0.4827 Y1.3733 I0.0025 J-0.0051
G3 X0.4811 Y1.3705 I0.0076 J-0.0062
G3 X0.4805 Y1.3686 I0.0131 J-0.0048
G3 X0.4802 Y1.3664 I0.0152 J-0.0031
G3 X0.4803 Y1.3635 I0.0154 J-0.0011
G3 X0.4808 Y1.3613 I0.0099 J0.0012
G3 X0.4819 Y1.3593 I0.0074 J0.0027
G3 X0.4833 Y1.358 I0.0045 J0.0034
G1 X0.4964 Y1.3566
G2 X0.5096 Y1.3529 I-0.0028 J-0.0365
G2 X0.5151 Y1.3474 I-0.0051 J-0.0105
G2 X0.5176 Y1.3382 I-0.0254 J-0.0119
G2 X0.5192 Y1.3044 I-0.3501 J-0.0338
G1 X0.5192 Y1.1457
G2 X0.5191 Y1.1264 I-1.098 J0
G2 X0.5188 Y1.1189 I-0.1668 J0.0029
G2 X0.5175 Y1.109 I-0.0847 J0.0053
G2 X0.5161 Y1.1041 I-0.0213 J0.0039
G2 X0.5113 Y1.099 I-0.0096 J0.0042
G2 X0.4965 Y1.094 I-0.024 J0.0464
G1 X0.4879 Y1.0925
G1 X0.4872 Y1.0917
G3 X0.4858 Y1.0898 I0.0053 J-0.0053
G3 X0.4849 Y1.0871 I0.0096 J-0.0048
G3 X0.4846 Y1.0847 I0.013 J-0.0027
G3 X0.4848 Y1.0821 I0.0147 J-0.0002
G3 X0.4854 Y1.0797 I0.0136 J0.0022
G3 X0.4863 Y1.0779 I0.0091 J0.0032
G3 X0.4875 Y1.0763 I0.0067 J0.0041
G3 X0.4889 Y1.0753 I0.0039 J0.0041
G1 X0.4905 Y1.075
G1 X0.5082 Y1.0755
G2 X0.5186 Y1.0759 I0.1054 J-2.9405
G2 X0.5242 Y1.076 I0.0277 J-0.8586
G2 X0.5334 Y1.0762 I0.0197 J-0.7655
G2 X0.5416 Y1.0763 I0.0081 J-0.5961
G2 X0.5533 Y1.0762 I0 J-0.9174
G2 X0.5662 Y1.076 I-0.0141 J-1.099
G2 X0.5771 Y1.0757 I-0.0367 J-1.4926
G2 X0.5974 Y1.075 I-0.1667 J-5.2336
G1 X0.5991 Y1.0753
G3 X0.6008 Y1.0766 I-0.0025 J0.0049
G3 X0.6022 Y1.079 I-0.007 J0.0061
G3 X0.603 Y1.0812 I-0.0115 J0.0051
G3 X0.6034 Y1.0839 I-0.0157 J0.0036
G3 X0.6033 Y1.0867 I-0.0151 J0.0009
G3 X0.6027 Y1.0889 I-0.0098 J-0.0013
G3 X0.6017 Y1.0909 I-0.0073 J-0.0027
G3 X0.6003 Y1.0922 I-0.0044 J-0.0034
G1 X0.586 Y1.094
G2 X0.5713 Y1.098 I0.0052 J0.0481
G2 X0.5661 Y1.103 I0.0044 J0.0096
G2 X0.5637 Y1.1115 I0.0218 J0.0107
G2 X0.5622 Y1.1457 I0.3669 J0.0343
G1 X0.5622 Y1.2079
G2 X0.5631 Y1.2154 I0.031 J0
G2 X0.5645 Y1.2173 I0.0029 J-0.0007
G2 X0.567 Y1.218 I0.003 J-0.0052
G2 X0.5808 Y1.2186 I0.0138 J-0.1688
G1 X0.7068 Y1.2186
G2 X0.7207 Y1.218 I0 J-0.1692
G2 X0.7231 Y1.2173 I-0.0005 J-0.0059
G2 X0.7246 Y1.2154 I-0.0015 J-0.0026
G2 X0.7255 Y1.2079 I-0.0301 J-0.0075
G1 X0.7255 Y1.1457
G2 X0.7253 Y1.1256 I-1.2517 J0
G2 X0.725 Y1.1184 I-0.1613 J0.0026
G2 X0.7238 Y1.1085 I-0.0813 J0.0049
G2 X0.7223 Y1.1038 I-0.0195 J0.0036
G2 X0.7176 Y1.099 I-0.0089 J0.0041
G2 X0.7015 Y1.094 I-0.0262 J0.056
G1 X0.692 Y1.0925
G1 X0.6912 Y1.0917
G3 X0.6898 Y1.0898 I0.0053 J-0.0053
G3 X0.6889 Y1.0871 I0.0097 J-0.0048
G3 X0.6886 Y1.0846 I0.0131 J-0.0026
G3 X0.6888 Y1.0821 I0.0146 J-0.0002
G3 X0.6894 Y1.0797 I0.0136 J0.0022
G3 X0.6903 Y1.0779 I0.0091 J0.0033
G3 X0.6916 Y1.0763 I0.0067 J0.0042
G3 X0.693 Y1.0753 I0.0039 J0.0041
G1 X0.6947 Y1.075
G2 X0.7105 Y1.0756 I0.0823 J-1.8691
G2 X0.7229 Y1.076 I0.0406 J-1.1434
G2 X0.7353 Y1.0762 I0.0248 J-1.0058
G2 X0.7478 Y1.0763 I0.0125 J-1.0113
G2 X0.7601 Y1.0762 I0 J-0.9101
G2 X0.7732 Y1.0759 I-0.0141 J-1.0416
G2 X0.7842 Y1.0756 I-0.033 J-1.2655
G2 X0.801 Y1.075 I-0.1016 J-2.9151
G1 X0.8026 Y1.0753
G3 X0.8045 Y1.0769 I-0.0025 J0.0051
G3 X0.8061 Y1.0797 I-0.0076 J0.0061
G3 X0.8067 Y1.0816 I-0.0131 J0.0047
G3 X0.807 Y1.0838 I-0.0156 J0.0032
G3 X0.8069 Y1.0867 I-0.0152 J0.001
G3 X0.8064 Y1.0889 I-0.0098 J-0.0012
G3 X0.8053 Y1.0909 I-0.0073 J-0.0027
G3 X0.8039 Y1.0922 I-0.0045 J-0.0033
G1 X0.7919 Y1.094
G2 X0.7768 Y1.0983 I0.006 J0.0494
G2 X0.7717 Y1.1034 I0.0044 J0.0093
G2 X0.7702 Y1.1083 I0.0195 J0.0089
G2 X0.7689 Y1.1184 I0.0831 J0.0157
G2 X0.7686 Y1.1262 I0.1665 J0.011
G2 X0.7684 Y1.1457 I1.0251 J0.0195
G0 Z0.125
G0 X0.7684 Y1.1457
G1 Z-0.1872 F10
G1 X0.7684 Y1.3044 F10
G2 X0.7686 Y1.3239 I0.981 J0
G2 X0.7689 Y1.332 I0.1707 J-0.0034
G2 X0.7703 Y1.3422 I0.0866 J-0.0059
G2 X0.7718 Y1.3472 I0.0219 J-0.0041
G2 X0.777 Y1.3524 I0.0096 J-0.0043
G2 X0.7918 Y1.3566 I0.0196 J-0.0419
G1 X0.801 Y1.3574
G1 X0.8025 Y1.358
G3 X0.8039 Y1.3593 I-0.0031 J0.0047
G3 X0.805 Y1.3613 I-0.0063 J0.0047
G3 X0.8056 Y1.3635 I-0.0093 J0.0035
G3 X0.8056 Y1.3663 I-0.0151 J0.0019
G3 X0.8054 Y1.3685 I-0.0169 J-0.0011
G3 X0.8048 Y1.3705 I-0.0138 J-0.0028
G3 X0.8032 Y1.3733 I-0.0093 J-0.0033
G3 X0.8013 Y1.3749 I-0.0044 J-0.0035
G1 X0.7997 Y1.3752
G2 X0.7837 Y1.3746 I-0.0871 J1.98
G2 X0.7718 Y1.3742 I-0.0397 J1.1045
G2 X0.7598 Y1.374 I-0.0238 J0.948
G2 X0.7478 Y1.3739 I-0.012 J0.9623
G2 X0.7344 Y1.374 I0 J1.0181
G2 X0.7211 Y1.3743 I0.0133 J1.0126
G2 X0.7101 Y1.3746 I0.0299 J1.1346
G2 X0.6946 Y1.3752 I0.082 J2.2785
G1 X0.693 Y1.3749
G3 X0.6911 Y1.3733 I0.0025 J-0.0051
G3 X0.6895 Y1.3705 I0.0077 J-0.0062
G3 X0.689 Y1.3686 I0.0132 J-0.0048
G3 X0.6887 Y1.3664 I0.0161 J-0.0033
G3 X0.6887 Y1.3635 I0.0154 J-0.001
G3 X0.6893 Y1.3613 I0.0099 J0.0012
G3 X0.6903 Y1.3593 I0.0073 J0.0027
G3 X0.6917 Y1.358 I0.0045 J0.0034
G1 X0.7016 Y1.3566
G2 X0.7168 Y1.3524 I-0.0049 J-0.0478
G2 X0.722 Y1.3472 I-0.0044 J-0.0096
G2 X0.7236 Y1.3422 I-0.02 J-0.0091
G2 X0.7249 Y1.332 I-0.0836 J-0.0161
G2 X0.7253 Y1.3239 I-0.167 J-0.0115
G2 X0.7255 Y1.3044 I-0.9613 J-0.0195
G1 X0.7255 Y1.2537
G2 X0.7246 Y1.2462 I-0.0312 J0
G2 X0.7231 Y1.2443 I-0.0029 J0.0007
G2 X0.7207 Y1.2436 I-0.003 J0.0052
G2 X0.7068 Y1.243 I-0.0138 J0.1683
G1 X0.5808 Y1.243
G2 X0.567 Y1.2436 I0 J0.169
G2 X0.5645 Y1.2443 I0.0005 J0.0059
G2 X0.5631 Y1.2462 I0.0015 J0.0026
G2 X0.5622 Y1.2537 I0.0302 J0.0075
G1 X0.5622 Y1.3044
G2 X0.5623 Y1.3239 I0.9799 J0
G2 X0.5627 Y1.332 I0.1704 J-0.0034
G2 X0.564 Y1.3422 I0.0865 J-0.0059
G2 X0.5656 Y1.3472 I0.0218 J-0.0041
G2 X0.5707 Y1.3524 I0.0096 J-0.0043
G2 X0.5856 Y1.3566 I0.0197 J-0.0421
G1 X0.5939 Y1.3574
G1 X0.5954 Y1.358
G3 X0.5968 Y1.3593 I-0.0031 J0.0047
G3 X0.5979 Y1.3613 I-0.0063 J0.0047
G3 X0.5984 Y1.3635 I-0.0093 J0.0034
G3 X0.5985 Y1.3664 I-0.0153 J0.0019
G3 X0.5982 Y1.3686 I-0.0164 J-0.0011
G3 X0.5977 Y1.3705 I-0.0137 J-0.0028
G3 X0.5961 Y1.3733 I-0.0093 J-0.0034
G3 X0.5942 Y1.3749 I-0.0044 J-0.0036
G1 X0.5925 Y1.3752
G2 X0.5775 Y1.3746 I-0.0755 J1.63
G2 X0.5656 Y1.3742 I-0.0382 J1.0313
G2 X0.5537 Y1.374 I-0.0235 J0.9224
G2 X0.5416 Y1.3739 I-0.0121 J0.9622
G2 X0.5304 Y1.374 I0 J0.5447
G2 X0.5101 Y1.3745 I0.0371 J1.8114
G1 X0.5094 Y1.3746
G1 X0.5091 Y1.3746
G1 X0.5082 Y1.3746
G2 X0.5064 Y1.3747 I0.6629 J21.4399
G3 X0.4935 Y1.375 I-0.1052 J-3.3925
G3 X0.4861 Y1.3752 I-0.0303 J-1.1157
G1 X0.4846 Y1.3749
G3 X0.4827 Y1.3733 I0.0025 J-0.0051
G3 X0.4811 Y1.3705 I0.0076 J-0.0062
G3 X0.4805 Y1.3686 I0.0131 J-0.0048
G3 X0.4802 Y1.3664 I0.0152 J-0.0031
G3 X0.4803 Y1.3635 I0.0154 J-0.0011
G3 X0.4808 Y1.3613 I0.0099 J0.0012
G3 X0.4819 Y1.3593 I0.0074 J0.0027
G3 X0.4833 Y1.358 I0.0045 J0.0034
G1 X0.4964 Y1.3566
G2 X0.5096 Y1.3529 I-0.0028 J-0.0365
G2 X0.5151 Y1.3474 I-0.0051 J-0.0105
G2 X0.5176 Y1.3382 I-0.0254 J-0.0119
G2 X0.5192 Y1.3044 I-0.3501 J-0.0338
G1 X0.5192 Y1.1457
G2 X0.5191 Y1.1264 I-1.098 J0
G2 X0.5188 Y1.1189 I-0.1668 J0.0029
G2 X0.5175 Y1.109 I-0.0847 J0.0053
G2 X0.5161 Y1.1041 I-0.0213 J0.0039
G2 X0.5113 Y1.099 I-0.0096 J0.0042
G2 X0.4965 Y1.094 I-0.024 J0.0464
G1 X0.4879 Y1.0925
G1 X0.4872 Y1.0917
G3 X0.4858 Y1.0898 I0.0053 J-0.0053
G3 X0.4849 Y1.0871 I0.0096 J-0.0048
G3 X0.4846 Y1.0847 I0.013 J-0.0027
G3 X0.4848 Y1.0821 I0.0147 J-0.0002
G3 X0.4854 Y1.0797 I0.0136 J0.0022
G3 X0.4863 Y1.0779 I0.0091 J0.0032
G3 X0.4875 Y1.0763 I0.0067 J0.0041
G3 X0.4889 Y1.0753 I0.0039 J0.0041
G1 X0.4905 Y1.075
G1 X0.5082 Y1.0755
G2 X0.5186 Y1.0759 I0.1054 J-2.9405
G2 X0.5242 Y1.076 I0.0277 J-0.8586
G2 X0.5334 Y1.0762 I0.0197 J-0.7655
G2 X0.5416 Y1.0763 I0.0081 J-0.5961
G2 X0.5533 Y1.0762 I0 J-0.9174
G2 X0.5662 Y1.076 I-0.0141 J-1.099
G2 X0.5771 Y1.0757 I-0.0367 J-1.4926
G2 X0.5974 Y1.075 I-0.1667 J-5.2336
G1 X0.5991 Y1.0753
G3 X0.6008 Y1.0766 I-0.0025 J0.0049
G3 X0.6022 Y1.079 I-0.007 J0.0061
G3 X0.603 Y1.0812 I-0.0115 J0.0051
G3 X0.6034 Y1.0839 I-0.0157 J0.0036
G3 X0.6033 Y1.0867 I-0.0151 J0.0009
G3 X0.6027 Y1.0889 I-0.0098 J-0.0013
G3 X0.6017 Y1.0909 I-0.0073 J-0.0027
G3 X0.6003 Y1.0922 I-0.0044 J-0.0034
G1 X0.586 Y1.094
G2 X0.5713 Y1.098 I0.0052 J0.0481
G2 X0.5661 Y1.103 I0.0044 J0.0096
G2 X0.5637 Y1.1115 I0.0218 J0.0107
G2 X0.5622 Y1.1457 I0.3669 J0.0343
G1 X0.5622 Y1.2079
G2 X0.5631 Y1.2154 I0.031 J0
G2 X0.5645 Y1.2173 I0.0029 J-0.0007
G2 X0.567 Y1.218 I0.003 J-0.0052
G2 X0.5808 Y1.2186 I0.0138 J-0.1688
G1 X0.7068 Y1.2186
G2 X0.7207 Y1.218 I0 J-0.1692
G2 X0.7231 Y1.2173 I-0.0005 J-0.0059
G2 X0.7246 Y1.2154 I-0.0015 J-0.0026
G2 X0.7255 Y1.2079 I-0.0301 J-0.0075
G1 X0.7255 Y1.1457
G2 X0.7253 Y1.1256 I-1.2517 J0
G2 X0.725 Y1.1184 I-0.1613 J0.0026
G2 X0.7238 Y1.1085 I-0.0813 J0.0049
G2 X0.7223 Y1.1038 I-0.0195 J0.0036
G2 X0.7176 Y1.099 I-0.0089 J0.0041
G2 X0.7015 Y1.094 I-0.0262 J0.056
G1 X0.692 Y1.0925
G1 X0.6912 Y1.0917
G3 X0.6898 Y1.0898 I0.0053 J-0.0053
G3 X0.6889 Y1.0871 I0.0097 J-0.0048
G3 X0.6886 Y1.0846 I0.0131 J-0.0026
G3 X0.6888 Y1.0821 I0.0146 J-0.0002
G3 X0.6894 Y1.0797 I0.0136 J0.0022
G3 X0.6903 Y1.0779 I0.0091 J0.0033
G3 X0.6916 Y1.0763 I0.0067 J0.0042
G3 X0.693 Y1.0753 I0.0039 J0.0041
G1 X0.6947 Y1.075
G2 X0.7105 Y1.0756 I0.0823 J-1.8691
G2 X0.7229 Y1.076 I0.0406 J-1.1434
G2 X0.7353 Y1.0762 I0.0248 J-1.0058
G2 X0.7478 Y1.0763 I0.0125 J-1.0113
G2 X0.7601 Y1.0762 I0 J-0.9101
G2 X0.7732 Y1.0759 I-0.0141 J-1.0416
G2 X0.7842 Y1.0756 I-0.033 J-1.2655
G2 X0.801 Y1.075 I-0.1016 J-2.9151
G1 X0.8026 Y1.0753
G3 X0.8045 Y1.0769 I-0.0025 J0.0051
G3 X0.8061 Y1.0797 I-0.0076 J0.0061
G3 X0.8067 Y1.0816 I-0.0131 J0.0047
G3 X0.807 Y1.0838 I-0.0156 J0.0032
G3 X0.8069 Y1.0867 I-0.0152 J0.001
G3 X0.8064 Y1.0889 I-0.0098 J-0.0012
G3 X0.8053 Y1.0909 I-0.0073 J-0.0027
G3 X0.8039 Y1.0922 I-0.0045 J-0.0033
G1 X0.7919 Y1.094
G2 X0.7768 Y1.0983 I0.006 J0.0494
G2 X0.7717 Y1.1034 I0.0044 J0.0093
G2 X0.7702 Y1.1083 I0.0195 J0.0089
G2 X0.7689 Y1.1184 I0.0831 J0.0157
G2 X0.7686 Y1.1262 I0.1665 J0.011
G2 X0.7684 Y1.1457 I1.0251 J0.0195
G0 Z0.125
G0 X0.7684 Y1.1457
G1 Z-0.2 F10
G1 X0.7684 Y1.3044 F10
G2 X0.7686 Y1.3239 I0.981 J0
G2 X0.7689 Y1.332 I0.1707 J-0.0034
G2 X0.7703 Y1.3422 I0.0866 J-0.0059
G2 X0.7718 Y1.3472 I0.0219 J-0.0041
G2 X0.777 Y1.3524 I0.0096 J-0.0043
G2 X0.7918 Y1.3566 I0.0196 J-0.0419
G1 X0.801 Y1.3574
G1 X0.8025 Y1.358
G3 X0.8039 Y1.3593 I-0.0031 J0.0047
G3 X0.805 Y1.3613 I-0.0063 J0.0047
G3 X0.8056 Y1.3635 I-0.0093 J0.0035
G3 X0.8056 Y1.3663 I-0.0151 J0.0019
G3 X0.8054 Y1.3685 I-0.0169 J-0.0011
G3 X0.8048 Y1.3705 I-0.0138 J-0.0028
G3 X0.8032 Y1.3733 I-0.0093 J-0.0033
G3 X0.8013 Y1.3749 I-0.0044 J-0.0035
G1 X0.7997 Y1.3752
G2 X0.7837 Y1.3746 I-0.0871 J1.98
G2 X0.7718 Y1.3742 I-0.0397 J1.1045
G2 X0.7598 Y1.374 I-0.0238 J0.948
G2 X0.7478 Y1.3739 I-0.012 J0.9623
G2 X0.7344 Y1.374 I0 J1.0181
G2 X0.7211 Y1.3743 I0.0133 J1.0126
G2 X0.7101 Y1.3746 I0.0299 J1.1346
G2 X0.6946 Y1.3752 I0.082 J2.2785
G1 X0.693 Y1.3749
G3 X0.6911 Y1.3733 I0.0025 J-0.0051
G3 X0.6895 Y1.3705 I0.0077 J-0.0062
G3 X0.689 Y1.3686 I0.0132 J-0.0048
G3 X0.6887 Y1.3664 I0.0161 J-0.0033
G3 X0.6887 Y1.3635 I0.0154 J-0.001
G3 X0.6893 Y1.3613 I0.0099 J0.0012
G3 X0.6903 Y1.3593 I0.0073 J0.0027
G3 X0.6917 Y1.358 I0.0045 J0.0034
G1 X0.7016 Y1.3566
G2 X0.7168 Y1.3524 I-0.0049 J-0.0478
G2 X0.722 Y1.3472 I-0.0044 J-0.0096
G2 X0.7236 Y1.3422 I-0.02 J-0.0091
G2 X0.7249 Y1.332 I-0.0836 J-0.0161
G2 X0.7253 Y1.3239 I-0.167 J-0.0115
G2 X0.7255 Y1.3044 I-0.9613 J-0.0195
G1 X0.7255 Y1.2537
G2 X0.7246 Y1.2462 I-0.0312 J0
G2 X0.7231 Y1.2443 I-0.0029 J0.0007
G2 X0.7207 Y1.2436 I-0.003 J0.0052
G2 X0.7068 Y1.243 I-0.0138 J0.1683
G1 X0.5808 Y1.243
G2 X0.567 Y1.2436 I0 J0.169
G2 X0.5645 Y1.2443 I0.0005 J0.0059
G2 X0.5631 Y1.2462 I0.0015 J0.0026
G2 X0.5622 Y1.2537 I0.0302 J0.0075
G1 X0.5622 Y1.3044
G2 X0.5623 Y1.3239 I0.9799 J0
G2 X0.5627 Y1.332 I0.1704 J-0.0034
G2 X0.564 Y1.3422 I0.0865 J-0.0059
G2 X0.5656 Y1.3472 I0.0218 J-0.0041
G2 X0.5707 Y1.3524 I0.0096 J-0.0043
G2 X0.5856 Y1.3566 I0.0197 J-0.0421
G1 X0.5939 Y1.3574
G1 X0.5954 Y1.358
G3 X0.5968 Y1.3593 I-0.0031 J0.0047
G3 X0.5979 Y1.3613 I-0.0063 J0.0047
G3 X0.5984 Y1.3635 I-0.0093 J0.0034
G3 X0.5985 Y1.3664 I-0.0153 J0.0019
G3 X0.5982 Y1.3686 I-0.0164 J-0.0011
G3 X0.5977 Y1.3705 I-0.0137 J-0.0028
G3 X0.5961 Y1.3733 I-0.0093 J-0.0034
G3 X0.5942 Y1.3749 I-0.0044 J-0.0036
G1 X0.5925 Y1.3752
G2 X0.5775 Y1.3746 I-0.0755 J1.63
G2 X0.5656 Y1.3742 I-0.0382 J1.0313
G2 X0.5537 Y1.374 I-0.0235 J0.9224
G2 X0.5416 Y1.3739 I-0.0121 J0.9622
G2 X0.5304 Y1.374 I0 J0.5447
G2 X0.5101 Y1.3745 I0.0371 J1.8114
G1 X0.5094 Y1.3746
G1 X0.5091 Y1.3746
G1 X0.5082 Y1.3746
G2 X0.5064 Y1.3747 I0.6629 J21.4399
G3 X0.4935 Y1.375 I-0.1052 J-3.3925
G3 X0.4861 Y1.3752 I-0.0303 J-1.1157
G1 X0.4846 Y1.3749
G3 X0.4827 Y1.3733 I0.0025 J-0.0051
G3 X0.4811 Y1.3705 I0.0076 J-0.0062
G3 X0.4805 Y1.3686 I0.0131 J-0.0048
G3 X0.4802 Y1.3664 I0.0152 J-0.0031
G3 X0.4803 Y1.3635 I0.0154 J-0.0011
G3 X0.4808 Y1.3613 I0.0099 J0.0012
G3 X0.4819 Y1.3593 I0.0074 J0.0027
G3 X0.4833 Y1.358 I0.0045 J0.0034
G1 X0.4964 Y1.3566
G2 X0.5096 Y1.3529 I-0.0028 J-0.0365
G2 X0.5151 Y1.3474 I-0.0051 J-0.0105
G2 X0.5176 Y1.3382 I-0.0254 J-0.0119
G2 X0.5192 Y1.3044 I-0.3501 J-0.0338
G1 X0.5192 Y1.1457
G2 X0.5191 Y1.1264 I-1.098 J0
G2 X0.5188 Y1.1189 I-0.1668 J0.0029
G2 X0.5175 Y1.109 I-0.0847 J0.0053
G2 X0.5161 Y1.1041 I-0.0213 J0.0039
G2 X0.5113 Y1.099 I-0.0096 J0.0042
G2 X0.4965 Y1.094 I-0.024 J0.0464
G1 X0.4879 Y1.0925
G1 X0.4872 Y1.0917
G3 X0.4858 Y1.0898 I0.0053 J-0.0053
G3 X0.4849 Y1.0871 I0.0096 J-0.0048
G3 X0.4846 Y1.0847 I0.013 J-0.0027
G3 X0.4848 Y1.0821 I0.0147 J-0.0002
G3 X0.4854 Y1.0797 I0.0136 J0.0022
G3 X0.4863 Y1.0779 I0.0091 J0.0032
G3 X0.4875 Y1.0763 I0.0067 J0.0041
G3 X0.4889 Y1.0753 I0.0039 J0.0041
G1 X0.4905 Y1.075
G1 X0.5082 Y1.0755
G2 X0.5186 Y1.0759 I0.1054 J-2.9405
G2 X0.5242 Y1.076 I0.0277 J-0.8586
G2 X0.5334 Y1.0762 I0.0197 J-0.7655
G2 X0.5416 Y1.0763 I0.0081 J-0.5961
G2 X0.5533 Y1.0762 I0 J-0.9174
G2 X0.5662 Y1.076 I-0.0141 J-1.099
G2 X0.5771 Y1.0757 I-0.0367 J-1.4926
G2 X0.5974 Y1.075 I-0.1667 J-5.2336
G1 X0.5991 Y1.0753
G3 X0.6008 Y1.0766 I-0.0025 J0.0049
G3 X0.6022 Y1.079 I-0.007 J0.0061
G3 X0.603 Y1.0812 I-0.0115 J0.0051
G3 X0.6034 Y1.0839 I-0.0157 J0.0036
G3 X0.6033 Y1.0867 I-0.0151 J0.0009
G3 X0.6027 Y1.0889 I-0.0098 J-0.0013
G3 X0.6017 Y1.0909 I-0.0073 J-0.0027
G3 X0.6003 Y1.0922 I-0.0044 J-0.0034
G1 X0.586 Y1.094
G2 X0.5713 Y1.098 I0.0052 J0.0481
G2 X0.5661 Y1.103 I0.0044 J0.0096
G2 X0.5637 Y1.1115 I0.0218 J0.0107
G2 X0.5622 Y1.1457 I0.3669 J0.0343
G1 X0.5622 Y1.2079
G2 X0.5631 Y1.2154 I0.031 J0
G2 X0.5645 Y1.2173 I0.0029 J-0.0007
G2 X0.567 Y1.218 I0.003 J-0.0052
G2 X0.5808 Y1.2186 I0.0138 J-0.1688
G1 X0.7068 Y1.2186
G2 X0.7207 Y1.218 I0 J-0.1692
G2 X0.7231 Y1.2173 I-0.0005 J-0.0059
G2 X0.7246 Y1.2154 I-0.0015 J-0.0026
G2 X0.7255 Y1.2079 I-0.0301 J-0.0075
G1 X0.7255 Y1.1457
G2 X0.7253 Y1.1256 I-1.2517 J0
G2 X0.725 Y1.1184 I-0.1613 J0.0026
G2 X0.7238 Y1.1085 I-0.0813 J0.0049
G2 X0.7223 Y1.1038 I-0.0195 J0.0036
G2 X0.7176 Y1.099 I-0.0089 J0.0041
G2 X0.7015 Y1.094 I-0.0262 J0.056
G1 X0.692 Y1.0925
G1 X0.6912 Y1.0917
G3 X0.6898 Y1.0898 I0.0053 J-0.0053
G3 X0.6889 Y1.0871 I0.0097 J-0.0048
G3 X0.6886 Y1.0846 I0.0131 J-0.0026
G3 X0.6888 Y1.0821 I0.0146 J-0.0002
G3 X0.6894 Y1.0797 I0.0136 J0.0022
G3 X0.6903 Y1.0779 I0.0091 J0.0033
G3 X0.6916 Y1.0763 I0.0067 J0.0042
G3 X0.693 Y1.0753 I0.0039 J0.0041
G1 X0.6947 Y1.075
G2 X0.7105 Y1.0756 I0.0823 J-1.8691
G2 X0.7229 Y1.076 I0.0406 J-1.1434
G2 X0.7353 Y1.0762 I0.0248 J-1.0058
G2 X0.7478 Y1.0763 I0.0125 J-1.0113
G2 X0.7601 Y1.0762 I0 J-0.9101
G2 X0.7732 Y1.0759 I-0.0141 J-1.0416
G2 X0.7842 Y1.0756 I-0.033 J-1.2655
G2 X0.801 Y1.075 I-0.1016 J-2.9151
G1 X0.8026 Y1.0753
G3 X0.8045 Y1.0769 I-0.0025 J0.0051
G3 X0.8061 Y1.0797 I-0.0076 J0.0061
G3 X0.8067 Y1.0816 I-0.0131 J0.0047
G3 X0.807 Y1.0838 I-0.0156 J0.0032
G3 X0.8069 Y1.0867 I-0.0152 J0.001
G3 X0.8064 Y1.0889 I-0.0098 J-0.0012
G3 X0.8053 Y1.0909 I-0.0073 J-0.0027
G3 X0.8039 Y1.0922 I-0.0045 J-0.0033
G1 X0.7919 Y1.094
G2 X0.7768 Y1.0983 I0.006 J0.0494
G2 X0.7717 Y1.1034 I0.0044 J0.0093
G2 X0.7702 Y1.1083 I0.0195 J0.0089
G2 X0.7689 Y1.1184 I0.0831 J0.0157
G2 X0.7686 Y1.1262 I0.1665 J0.011
G2 X0.7684 Y1.1457 I1.0251 J0.0195
G0 Z0.125
G0 X1.1367 Y1.1389
G1 Z-0.0312 F10
G1 X1.1369 Y1.14 F10
G1 X1.1365 Y1.141
G3 X1.1347 Y1.1436 I-0.0083 J-0.0037
G3 X1.132 Y1.1456 I-0.0078 J-0.0075
G3 X1.1291 Y1.1467 I-0.0059 J-0.0111
G3 X1.1261 Y1.1471 I-0.003 J-0.0121
G1 X1.1204 Y1.1454
G1 X1.1194 Y1.1442
G2 X1.11 Y1.1272 I-0.2172 J0.1088
G2 X1.1019 Y1.1153 I-0.1152 J0.0697
G2 X1.0941 Y1.1064 I-0.0712 J0.0542
G2 X1.0896 Y1.103 I-0.0143 J0.0143
G2 X1.0822 Y1.1002 I-0.0167 J0.0336
G2 X1.0706 Y1.0981 I-0.0213 J0.0823
G2 X1.0587 Y1.0972 I-0.0178 J0.1563
G2 X1.0347 Y1.0967 I-0.024 J0.6368
G2 X1.0098 Y1.0976 I0 J0.3359
G2 X0.9972 Y1.0995 I0.0065 J0.0872
G2 X0.9886 Y1.1024 I0.0091 J0.041
G2 X0.9838 Y1.1058 I0.0071 J0.0152
G2 X0.9805 Y1.111 I0.0117 J0.011
G2 X0.9778 Y1.1216 I0.0469 J0.018
G2 X0.9768 Y1.1309 I0.0936 J0.0141
G2 X0.9764 Y1.1493 I0.3664 J0.0184
G1 X0.9764 Y1.2114
G2 X0.9769 Y1.2175 I0.0333 J0
G2 X0.9778 Y1.2189 I0.0022 J-0.0004
G2 X0.9793 Y1.2195 I0.0019 J-0.0025
G2 X0.9875 Y1.2199 I0.0082 J-0.0753
G1 X1.0131 Y1.2199
G2 X1.0259 Y1.2198 I0 J-0.6442
G2 X1.0331 Y1.2195 I-0.004 J-0.2034
G2 X1.0418 Y1.2187 I-0.0065 J-0.1169
G2 X1.0462 Y1.2178 I-0.004 J-0.0307
G2 X1.0504 Y1.2161 I-0.0036 J-0.0144
G2 X1.0534 Y1.2134 I-0.006 J-0.0097
G2 X1.0554 Y1.2099 I-0.0116 J-0.0091
G2 X1.0574 Y1.2036 I-0.0357 J-0.0146
G1 X1.0614 Y1.1864
G1 X1.062 Y1.185
G3 X1.0634 Y1.1838 I0.0052 J0.0043
G3 X1.0655 Y1.1827 I0.0056 J0.0082
G3 X1.0677 Y1.1821 I0.0043 J0.0111
G3 X1.0703 Y1.1819 I0.0026 J0.0148
G3 X1.0732 Y1.1822 I0 J0.0149
G3 X1.0756 Y1.1829 I-0.0021 J0.0105
G3 X1.0777 Y1.1843 I-0.0037 J0.0079
G3 X1.0791 Y1.1859 I-0.0042 J0.0048
G1 X1.0795 Y1.1876
G3 X1.0795 Y1.1905 I-0.0987 J0
G3 X1.0793 Y1.195 I-0.238 J-0.007
G3 X1.0791 Y1.198 I-0.3431 J-0.0166
G3 X1.0788 Y1.204 I-1.4192 J-0.0809
G2 X1.0783 Y1.2122 I1.5184 J0.0919
G2 X1.0781 Y1.2167 I0.4443 J0.0245
G2 X1.0778 Y1.2241 I0.3734 J0.0168
G2 X1.0777 Y1.2299 I0.2326 J0.0059
G2 X1.0779 Y1.2391 I0.2417 J0
G2 X1.0788 Y1.2567 I0.9006 J-0.0341
G1 X1.0788 Y1.2568
G1 X1.0788 Y1.2569
G3 X1.0791 Y1.2634 I-1.7323 J0.1004
G3 X1.0793 Y1.2664 I-0.3707 J0.0201
G3 X1.0795 Y1.2713 I-0.265 J0.0122
G3 X1.0795 Y1.2744 I-0.1145 J0.0032
G1 X1.0791 Y1.2761
G3 X1.0777 Y1.2778 I-0.0056 J-0.0032
G3 X1.0756 Y1.2791 I-0.0058 J-0.0065
G3 X1.0732 Y1.2799 I-0.0045 J-0.0097
G3 X1.0703 Y1.2802 I-0.003 J-0.0147
G3 X1.0677 Y1.28 I0 J-0.015
G3 X1.0655 Y1.2794 I0.002 J-0.0117
G3 X1.0634 Y1.2783 I0.0036 J-0.0093
G3 X1.062 Y1.277 I0.0038 J-0.0056
G1 X1.0578 Y1.2575
G2 X1.0559 Y1.2507 I-0.0467 J0.0093
G2 X1.0543 Y1.2477 I-0.0106 J0.0038
G2 X1.0525 Y1.2461 I-0.0055 J0.0042
G2 X1.0495 Y1.2446 I-0.0073 J0.0114
G2 X1.0459 Y1.2438 I-0.0064 J0.0189
G2 X1.0364 Y1.2428 I-0.0185 J0.1314
G2 X1.0269 Y1.2423 I-0.0161 J0.2358
G2 X1.0131 Y1.2421 I-0.0138 J0.4963
G1 X0.9875 Y1.2421
G2 X0.9793 Y1.2426 I0 J0.072
G2 X0.9778 Y1.2432 I0.0003 J0.003
G2 X0.9769 Y1.2446 I0.0014 J0.0018
G2 X0.9764 Y1.2511 I0.0363 J0.0065
G1 X0.9764 Y1.3392
G2 X0.9769 Y1.3497 I0.1072 J0
G2 X0.9776 Y1.3517 I0.0041 J-0.0004
G2 X0.9792 Y1.3528 I0.0021 J-0.0015
G2 X0.9862 Y1.3535 I0.007 J-0.0338
G1 X1.0179 Y1.3535
G2 X1.0335 Y1.3533 I0 J-0.7941
G2 X1.0426 Y1.353 I-0.0053 J-0.2699
G2 X1.0536 Y1.352 I-0.0088 J-0.1661
G2 X1.0599 Y1.3509 I-0.0067 J-0.0556
G2 X1.0722 Y1.3456 I-0.01 J-0.0398
G2 X1.0802 Y1.3378 I-0.0156 J-0.0241
G2 X1.0838 Y1.3312 I-0.0292 J-0.0202
G2 X1.0901 Y1.3139 I-0.1983 J-0.0823
G1 X1.0901 Y1.3139
G1 X1.0901 Y1.3139
G1 X1.091 Y1.3113
G1 X1.0916 Y1.3102
G3 X1.0928 Y1.309 I0.005 J0.0041
G3 X1.0946 Y1.3081 I0.0047 J0.0067
G3 X1.0964 Y1.3075 I0.0035 J0.009
G3 X1.0987 Y1.3074 I0.0023 J0.0132
G3 X1.1013 Y1.3076 I0 J0.015
G3 X1.1038 Y1.3082 I-0.0024 J0.0138
G3 X1.1064 Y1.3096 I-0.0037 J0.0101
G3 X1.108 Y1.3113 I-0.0039 J0.0054
G1 X1.1087 Y1.3123
G1 X1.1081 Y1.3188
G3 X1.1059 Y1.3422 I-2.7331 J-0.2441
G3 X1.1047 Y1.353 I-0.5913 J-0.0579
G3 X1.1025 Y1.3683 I-0.2897 J-0.0337
G3 X1.1013 Y1.373 I-0.0276 J-0.0047
G1 X1.1003 Y1.3758
G1 X1.0973 Y1.3751
G2 X1.094 Y1.3746 I-0.0042 J0.0167
G2 X1.0761 Y1.3741 I-0.025 J0.5004
G2 X1.0653 Y1.374 I-0.0151 J1.0681
G2 X1.0386 Y1.3739 I-0.0267 J6.5714
G1 X0.9558 Y1.3739
G2 X0.9431 Y1.374 I0 J1.0482
G2 X0.9311 Y1.3742 I0.0112 J0.9197
G2 X0.9192 Y1.3746 I0.0255 J1.0133
G2 X0.904 Y1.3752 I0.061 J1.6541
G1 X0.9023 Y1.3749
G3 X0.9004 Y1.3733 I0.0025 J-0.0051
G3 X0.8988 Y1.3705 I0.0076 J-0.0062
G3 X0.8983 Y1.3685 I0.0132 J-0.0048
G3 X0.898 Y1.3664 I0.0153 J-0.0031
G3 X0.8981 Y1.3635 I0.0154 J-0.001
G3 X0.8986 Y1.3613 I0.0099 J0.0012
G3 X0.8997 Y1.3593 I0.0074 J0.0027
G3 X0.901 Y1.358 I0.0045 J0.0033
G1 X0.9096 Y1.3566
G2 X0.9248 Y1.3522 I-0.0058 J-0.0488
G2 X0.93 Y1.3469 I-0.0046 J-0.0098
G2 X0.9316 Y1.342 I-0.02 J-0.0092
G2 X0.9329 Y1.3318 I-0.0826 J-0.016
G2 X0.9333 Y1.3237 I-0.1645 J-0.0114
G2 X0.9335 Y1.3044 I-0.9456 J-0.0194
G1 X0.9335 Y1.1457
G2 X0.9332 Y1.1267 I-0.6949 J0
G2 X0.9327 Y1.1178 I-0.1547 J0.0042
G2 X0.9312 Y1.1077 I-0.0785 J0.0067
G2 X0.9294 Y1.1027 I-0.0208 J0.0045
G2 X0.9242 Y1.0978 I-0.0093 J0.0047
G2 X0.9092 Y1.094 I-0.0193 J0.0449
G1 X0.8935 Y1.0926
G1 X0.8926 Y1.0917
G3 X0.8912 Y1.0898 I0.0053 J-0.0053
G3 X0.8903 Y1.0871 I0.0096 J-0.0048
G3 X0.89 Y1.0847 I0.013 J-0.0027
G3 X0.8902 Y1.0821 I0.0148 J-0.0003
G3 X0.8908 Y1.0797 I0.0136 J0.0022
G3 X0.8917 Y1.0779 I0.0092 J0.0032
G3 X0.893 Y1.0763 I0.0067 J0.0041
G3 X0.8944 Y1.0753 I0.0039 J0.0041
G1 X0.896 Y1.075
G2 X0.9182 Y1.0757 I0.2619 J-8.0037
G2 X0.9283 Y1.0759 I0.0491 J-1.6414
G2 X0.9427 Y1.0762 I0.0303 J-1.2736
G2 X0.9558 Y1.0763 I0.0131 J-1.0481
G1 X0.9955 Y1.0763
G2 X1.0244 Y1.0762 I0 J-5.1852
G2 X1.0535 Y1.076 I-0.0295 J-5.2919
G2 X1.0828 Y1.0756 I-0.0604 J-5.4458
G2 X1.1135 Y1.075 I-0.0984 J-5.9749
G1 X1.1157 Y1.0749
G1 X1.1166 Y1.0769
G3 X1.1206 Y1.0863 I-0.1005 J0.0483
G3 X1.1277 Y1.1067 I-0.467 J0.174
G3 X1.134 Y1.1274 I-0.499 J0.1616
G3 X1.1367 Y1.1389 I-0.1522 J0.0425
G0 Z0.125
G0 X1.1367 Y1.1389
G1 Z-0.0624 F10
G1 X1.1369 Y1.14 F10
G1 X1.1365 Y1.141
G3 X1.1347 Y1.1436 I-0.0083 J-0.0037
G3 X1.132 Y1.1456 I-0.0078 J-0.0075
G3 X1.1291 Y1.1467 I-0.0059 J-0.0111
G3 X1.1261 Y1.1471 I-0.003 J-0.0121
G1 X1.1204 Y1.1454
G1 X1.1194 Y1.1442
G2 X1.11 Y1.1272 I-0.2172 J0.1088
G2 X1.1019 Y1.1153 I-0.1152 J0.0697
G2 X1.0941 Y1.1064 I-0.0712 J0.0542
G2 X1.0896 Y1.103 I-0.0143 J0.0143
G2 X1.0822 Y1.1002 I-0.0167 J0.0336
G2 X1.0706 Y1.0981 I-0.0213 J0.0823
G2 X1.0587 Y1.0972 I-0.0178 J0.1563
G2 X1.0347 Y1.0967 I-0.024 J0.6368
G2 X1.0098 Y1.0976 I0 J0.3359
G2 X0.9972 Y1.0995 I0.0065 J0.0872
G2 X0.9886 Y1.1024 I0.0091 J0.041
G2 X0.9838 Y1.1058 I0.0071 J0.0152
G2 X0.9805 Y1.111 I0.0117 J0.011
G2 X0.9778 Y1.1216 I0.0469 J0.018
G2 X0.9768 Y1.1309 I0.0936 J0.0141
G2 X0.9764 Y1.1493 I0.3664 J0.0184
G1 X0.9764 Y1.2114
G2 X0.9769 Y1.2175 I0.0333 J0
G2 X0.9778 Y1.2189 I0.0022 J-0.0004
G2 X0.9793 Y1.2195 I0.0019 J-0.0025
G2 X0.9875 Y1.2199 I0.0082 J-0.0753
G1 X1.0131 Y1.2199
G2 X1.0259 Y1.2198 I0 J-0.6442
G2 X1.0331 Y1.2195 I-0.004 J-0.2034
G2 X1.0418 Y1.2187 I-0.0065 J-0.1169
G2 X1.0462 Y1.2178 I-0.004 J-0.0307
G2 X1.0504 Y1.2161 I-0.0036 J-0.0144
G2 X1.0534 Y1.2134 I-0.006 J-0.0097
G2 X1.0554 Y1.2099 I-0.0116 J-0.0091
G2 X1.0574 Y1.2036 I-0.0357 J-0.0146
G1 X1.0614 Y1.1864
G1 X1.062 Y1.185
G3 X1.0634 Y1.1838 I0.0052 J0.0043
G3 X1.0655 Y1.1827 I0.0056 J0.0082
G3 X1.0677 Y1.1821 I0.0043 J0.0111
G3 X1.0703 Y1.1819 I0.0026 J0.0148
G3 X1.0732 Y1.1822 I0 J0.0149
G3 X1.0756 Y1.1829 I-0.0021 J0.0105
G3 X1.0777 Y1.1843 I-0.0037 J0.0079
G3 X1.0791 Y1.1859 I-0.0042 J0.0048
G1 X1.0795 Y1.1876
G3 X1.0795 Y1.1905 I-0.0987 J0
G3 X1.0793 Y1.195 I-0.238 J-0.007
G3 X1.0791 Y1.198 I-0.3431 J-0.0166
G3 X1.0788 Y1.204 I-1.4192 J-0.0809
G2 X1.0783 Y1.2122 I1.5184 J0.0919
G2 X1.0781 Y1.2167 I0.4443 J0.0245
G2 X1.0778 Y1.2241 I0.3734 J0.0168
G2 X1.0777 Y1.2299 I0.2326 J0.0059
G2 X1.0779 Y1.2391 I0.2417 J0
G2 X1.0788 Y1.2567 I0.9006 J-0.0341
G1 X1.0788 Y1.2568
G1 X1.0788 Y1.2569
G3 X1.0791 Y1.2634 I-1.7323 J0.1004
G3 X1.0793 Y1.2664 I-0.3707 J0.0201
G3 X1.0795 Y1.2713 I-0.265 J0.0122
G3 X1.0795 Y1.2744 I-0.1145 J0.0032
G1 X1.0791 Y1.2761
G3 X1.0777 Y1.2778 I-0.0056 J-0.0032
G3 X1.0756 Y1.2791 I-0.0058 J-0.0065
G3 X1.0732 Y1.2799 I-0.0045 J-0.0097
G3 X1.0703 Y1.2802 I-0.003 J-0.0147
G3 X1.0677 Y1.28 I0 J-0.015
G3 X1.0655 Y1.2794 I0.002 J-0.0117
G3 X1.0634 Y1.2783 I0.0036 J-0.0093
G3 X1.062 Y1.277 I0.0038 J-0.0056
G1 X1.0578 Y1.2575
G2 X1.0559 Y1.2507 I-0.0467 J0.0093
G2 X1.0543 Y1.2477 I-0.0106 J0.0038
G2 X1.0525 Y1.2461 I-0.0055 J0.0042
G2 X1.0495 Y1.2446 I-0.0073 J0.0114
G2 X1.0459 Y1.2438 I-0.0064 J0.0189
G2 X1.0364 Y1.2428 I-0.0185 J0.1314
G2 X1.0269 Y1.2423 I-0.0161 J0.2358
G2 X1.0131 Y1.2421 I-0.0138 J0.4963
G1 X0.9875 Y1.2421
G2 X0.9793 Y1.2426 I0 J0.072
G2 X0.9778 Y1.2432 I0.0003 J0.003
G2 X0.9769 Y1.2446 I0.0014 J0.0018
G2 X0.9764 Y1.2511 I0.0363 J0.0065
G1 X0.9764 Y1.3392
G2 X0.9769 Y1.3497 I0.1072 J0
G2 X0.9776 Y1.3517 I0.0041 J-0.0004
G2 X0.9792 Y1.3528 I0.0021 J-0.0015
G2 X0.9862 Y1.3535 I0.007 J-0.0338
G1 X1.0179 Y1.3535
G2 X1.0335 Y1.3533 I0 J-0.7941
G2 X1.0426 Y1.353 I-0.0053 J-0.2699
G2 X1.0536 Y1.352 I-0.0088 J-0.1661
G2 X1.0599 Y1.3509 I-0.0067 J-0.0556
G2 X1.0722 Y1.3456 I-0.01 J-0.0398
G2 X1.0802 Y1.3378 I-0.0156 J-0.0241
G2 X1.0838 Y1.3312 I-0.0292 J-0.0202
G2 X1.0901 Y1.3139 I-0.1983 J-0.0823
G1 X1.0901 Y1.3139
G1 X1.0901 Y1.3139
G1 X1.091 Y1.3113
G1 X1.0916 Y1.3102
G3 X1.0928 Y1.309 I0.005 J0.0041
G3 X1.0946 Y1.3081 I0.0047 J0.0067
G3 X1.0964 Y1.3075 I0.0035 J0.009
G3 X1.0987 Y1.3074 I0.0023 J0.0132
G3 X1.1013 Y1.3076 I0 J0.015
G3 X1.1038 Y1.3082 I-0.0024 J0.0138
G3 X1.1064 Y1.3096 I-0.0037 J0.0101
G3 X1.108 Y1.3113 I-0.0039 J0.0054
G1 X1.1087 Y1.3123
G1 X1.1081 Y1.3188
G3 X1.1059 Y1.3422 I-2.7331 J-0.2441
G3 X1.1047 Y1.353 I-0.5913 J-0.0579
G3 X1.1025 Y1.3683 I-0.2897 J-0.0337
G3 X1.1013 Y1.373 I-0.0276 J-0.0047
G1 X1.1003 Y1.3758
G1 X1.0973 Y1.3751
G2 X1.094 Y1.3746 I-0.0042 J0.0167
G2 X1.0761 Y1.3741 I-0.025 J0.5004
G2 X1.0653 Y1.374 I-0.0151 J1.0681
G2 X1.0386 Y1.3739 I-0.0267 J6.5714
G1 X0.9558 Y1.3739
G2 X0.9431 Y1.374 I0 J1.0482
G2 X0.9311 Y1.3742 I0.0112 J0.9197
G2 X0.9192 Y1.3746 I0.0255 J1.0133
G2 X0.904 Y1.3752 I0.061 J1.6541
G1 X0.9023 Y1.3749
G3 X0.9004 Y1.3733 I0.0025 J-0.0051
G3 X0.8988 Y1.3705 I0.0076 J-0.0062
G3 X0.8983 Y1.3685 I0.0132 J-0.0048
G3 X0.898 Y1.3664 I0.0153 J-0.0031
G3 X0.8981 Y1.3635 I0.0154 J-0.001
G3 X0.8986 Y1.3613 I0.0099 J0.0012
G3 X0.8997 Y1.3593 I0.0074 J0.0027
G3 X0.901 Y1.358 I0.0045 J0.0033
G1 X0.9096 Y1.3566
G2 X0.9248 Y1.3522 I-0.0058 J-0.0488
G2 X0.93 Y1.3469 I-0.0046 J-0.0098
G2 X0.9316 Y1.342 I-0.02 J-0.0092
G2 X0.9329 Y1.3318 I-0.0826 J-0.016
G2 X0.9333 Y1.3237 I-0.1645 J-0.0114
G2 X0.9335 Y1.3044 I-0.9456 J-0.0194
G1 X0.9335 Y1.1457
G2 X0.9332 Y1.1267 I-0.6949 J0
G2 X0.9327 Y1.1178 I-0.1547 J0.0042
G2 X0.9312 Y1.1077 I-0.0785 J0.0067
G2 X0.9294 Y1.1027 I-0.0208 J0.0045
G2 X0.9242 Y1.0978 I-0.0093 J0.0047
G2 X0.9092 Y1.094 I-0.0193 J0.0449
G1 X0.8935 Y1.0926
G1 X0.8926 Y1.0917
G3 X0.8912 Y1.0898 I0.0053 J-0.0053
G3 X0.8903 Y1.0871 I0.0096 J-0.0048
G3 X0.89 Y1.0847 I0.013 J-0.0027
G3 X0.8902 Y1.0821 I0.0148 J-0.0003
G3 X0.8908 Y1.0797 I0.0136 J0.0022
G3 X0.8917 Y1.0779 I0.0092 J0.0032
G3 X0.893 Y1.0763 I0.0067 J0.0041
G3 X0.8944 Y1.0753 I0.0039 J0.0041
G1 X0.896 Y1.075
G2 X0.9182 Y1.0757 I0.2619 J-8.0037
G2 X0.9283 Y1.0759 I0.0491 J-1.6414
G2 X0.9427 Y1.0762 I0.0303 J-1.2736
G2 X0.9558 Y1.0763 I0.0131 J-1.0481
G1 X0.9955 Y1.0763
G2 X1.0244 Y1.0762 I0 J-5.1852
G2 X1.0535 Y1.076 I-0.0295 J-5.2919
G2 X1.0828 Y1.0756 I-0.0604 J-5.4458
G2 X1.1135 Y1.075 I-0.0984 J-5.9749
G1 X1.1157 Y1.0749
G1 X1.1166 Y1.0769
G3 X1.1206 Y1.0863 I-0.1005 J0.0483
G3 X1.1277 Y1.1067 I-0.467 J0.174
G3 X1.134 Y1.1274 I-0.499 J0.1616
G3 X1.1367 Y1.1389 I-0.1522 J0.0425
G0 Z0.125
G0 X1.1367 Y1.1389
