; generated by Slic3r 0.9.10b on 2013-10-18 at 11:16:21

; layer_height = 0.25
; perimeters = 3
; top_solid_layers = 3
; bottom_solid_layers = 3
; fill_density = 0.4
; perimeter_speed = 30
; infill_speed = 60
; travel_speed = 130
; nozzle_diameter = 0.4
; filament_diameter = 1.75
; extrusion_multiplier = 1
; perimeters extrusion width = 0.53mm
; infill extrusion width = 0.53mm
; solid infill extrusion width = 0.53mm
; top infill extrusion width = 0.53mm
; first layer extrusion width = 0.60mm

G21 ; set units to millimeters
M107
M104 S200 ; set temperature
G1 Z5 F5000 ; lift nozzle
G28 ; Home All
M92 X100 ; calibrate X
M92 Y100 ; calibrate Y
M92 Z1826 ; calibrate Z
M92 E440 ; calibrate E
;N9200 M106 S22 *126 ; Fan on
M109 S200 ; wait for temperature to be reached
G90 ; use absolute coordinates
G92 E0
M82 ; use absolute distances for extrusion
G1 F1800.000 E-1.00000
G92 E0
G1 Z0.300 F7800.000
G1 X19.970 Y19.970
G1 F1800.000 E1.00000
G1 X21.050 Y19.080 F540.000 E1.09724
G1 X22.280 Y18.430 E1.19390
G1 X23.610 Y18.020 E1.29060
G1 X25.000 Y17.890 E1.38760
G1 X75.000 Y17.890 E4.86171
G1 X76.390 Y18.020 E4.95871
G1 X77.720 Y18.430 E5.05541
G1 X78.950 Y19.080 E5.15207
G1 X80.030 Y19.970 E5.24931
G1 X80.920 Y21.050 E5.34655
G1 X81.570 Y22.280 E5.44321
G1 X81.980 Y23.610 E5.53991
G1 X82.110 Y25.000 E5.63691
G1 X82.110 Y35.000 E6.33173
G1 X81.980 Y36.390 E6.42874
G1 X81.570 Y37.720 E6.52544
G1 X80.920 Y38.950 E6.62210
G1 X80.030 Y40.030 E6.71934
G1 X40.030 Y80.030 E10.64984
G1 X38.950 Y80.920 E10.74707
G1 X37.720 Y81.570 E10.84374
G1 X36.390 Y81.980 E10.94044
G1 X35.000 Y82.110 E11.03744
G1 X25.000 Y82.110 E11.73226
G1 X23.610 Y81.980 E11.82926
G1 X22.280 Y81.570 E11.92596
G1 X21.050 Y80.920 E12.02263
G1 X19.970 Y80.030 E12.11986
G1 X19.080 Y78.950 E12.21710
G1 X18.430 Y77.720 E12.31376
G1 X18.020 Y76.390 E12.41047
G1 X17.890 Y75.000 E12.50747
G1 X17.890 Y25.000 E15.98157
G1 X18.020 Y23.610 E16.07857
G1 X18.430 Y22.280 E16.17527
G1 X19.080 Y21.050 E16.27194
G1 X19.917 Y20.034 E16.36337
G1 X20.360 Y20.360 F7800.000
G1 X21.360 Y19.550 F540.000 E16.45278
G1 X22.490 Y18.940 E16.54201
G1 X23.720 Y18.570 E16.63125
G1 X25.000 Y18.440 E16.72065
G1 X75.000 Y18.440 E20.19475
G1 X76.280 Y18.570 E20.28415
G1 X77.510 Y18.940 E20.37339
G1 X78.640 Y19.550 E20.46262
G1 X79.640 Y20.360 E20.55203
G1 X80.450 Y21.360 E20.64145
G1 X81.060 Y22.490 E20.73067
G1 X81.430 Y23.720 E20.81992
G1 X81.560 Y25.000 E20.90931
G1 X81.560 Y35.000 E21.60413
G1 X81.430 Y36.280 E21.69353
G1 X81.060 Y37.510 E21.78277
G1 X80.450 Y38.640 E21.87200
G1 X79.640 Y39.640 E21.96141
G1 X39.640 Y79.640 E25.89191
G1 X38.640 Y80.450 E25.98133
G1 X37.510 Y81.060 E26.07055
G1 X36.280 Y81.430 E26.15980
G1 X35.000 Y81.560 E26.24919
G1 X25.000 Y81.560 E26.94401
G1 X23.720 Y81.430 E27.03341
G1 X22.490 Y81.060 E27.12265
G1 X21.360 Y80.450 E27.21188
G1 X20.360 Y79.640 E27.30129
G1 X19.550 Y78.640 E27.39071
G1 X18.940 Y77.510 E27.47993
G1 X18.570 Y76.280 E27.56918
G1 X18.440 Y75.000 E27.65857
G1 X18.440 Y25.000 E31.13268
G1 X18.570 Y23.720 E31.22207
G1 X18.940 Y22.490 E31.31132
G1 X19.550 Y21.360 E31.40054
G1 X20.307 Y20.425 E31.48415
G1 F1800.000 E30.48415
G92 E0
G1 X66.664 Y26.664 F7800.000
G1 F1800.000 E1.00000
G1 X73.336 Y26.664 F540.000 E1.46353
G1 X73.336 Y33.336 E1.92706
G1 X66.664 Y33.336 E2.39059
G1 X66.664 Y26.748 E2.84832
G1 X67.221 Y27.221 F7800.000
G1 X72.779 Y27.221 F540.000 E3.23444
G1 X72.779 Y32.779 E3.62055
G1 X67.221 Y32.779 E4.00667
G1 X67.221 Y27.305 E4.38698
G1 X67.704 Y27.500 F7800.000
G1 X65.836 Y26.664
G1 X65.836 Y33.336 F540.000 E4.85051
G1 X34.164 Y33.336 E7.05109
G1 X34.164 Y26.664 E7.51463
G1 X65.752 Y26.664 E9.70940
G1 X65.279 Y27.221 F7800.000
G1 X65.279 Y32.779 F378.000 E10.09552
G1 X34.721 Y32.779 E12.21869
G1 X34.721 Y27.221 E12.60480
G1 X65.195 Y27.221 E14.72217
G1 X65.000 Y27.704 F7800.000
G1 F1800.000 E13.72217
G92 E0
G1 X33.336 Y26.664 F7800.000
G1 F1800.000 E1.00000
G1 X33.336 Y33.336 F540.000 E1.46353
G1 X26.664 Y33.336 E1.92706
G1 X26.664 Y26.664 E2.39059
G1 X33.252 Y26.664 E2.84832
G1 X32.779 Y27.221 F7800.000
G1 X32.779 Y32.779 F540.000 E3.23444
G1 X27.221 Y32.779 E3.62055
G1 X27.221 Y27.221 E4.00667
G1 X32.695 Y27.221 E4.38698
G1 X32.500 Y27.704 F7800.000
G1 F1800.000 E3.38698
G92 E0
G1 X33.336 Y34.164 F7800.000
G1 F1800.000 E1.00000
G1 X33.336 Y65.836 F540.000 E3.20058
G1 X26.664 Y65.836 E3.66411
G1 X26.664 Y34.164 E5.86470
G1 X33.252 Y34.164 E6.32242
G1 X32.779 Y34.721 F7800.000
G1 X32.779 Y65.279 F378.000 E8.44559
G1 X27.221 Y65.279 E8.83171
G1 X27.221 Y34.721 E10.95487
G1 X32.695 Y34.721 E11.33519
G1 X32.500 Y35.204 F7800.000
G1 F1800.000 E10.33519
G92 E0
G1 X33.336 Y66.664 F7800.000
G1 F1800.000 E1.00000
G1 X33.336 Y73.336 F540.000 E1.46353
G1 X26.664 Y73.336 E1.92706
G1 X26.664 Y66.664 E2.39059
G1 X33.252 Y66.664 E2.84832
G1 X32.779 Y67.221 F7800.000
G1 X32.779 Y72.779 F540.000 E3.23444
G1 X27.221 Y72.779 E3.62055
G1 X27.221 Y67.221 E4.00667
G1 X32.695 Y67.221 E4.38698
G1 X32.500 Y67.704 F7800.000
G1 F1800.000 E3.38698
G92 E0
G1 X34.164 Y74.164 F7800.000
G1 F1800.000 E1.00000
G1 X25.836 Y74.164 F540.000 E1.57870
G1 X25.836 Y25.836 E4.93668
G1 X74.164 Y25.836 E8.29466
G1 X74.164 Y34.164 E8.87336
G1 X34.164 Y34.164 E11.65264
G1 X34.164 Y74.081 E14.42612
G1 X34.721 Y74.721 F7800.000
G1 X25.279 Y74.721 F378.000 E15.08223
G1 X25.279 Y25.279 E18.51763
G1 X74.721 Y25.279 E21.95302
G1 X74.721 Y34.721 E22.60913
G1 X34.721 Y34.721 E25.38842
G1 X34.721 Y74.638 E28.16189
G1 X34.239 Y74.443 F7800.000
G1 X26.366 Y73.766
G1 X26.335 Y73.734 F360.000 E28.16344
G1 X26.266 Y73.665 F7800.000
G1 X26.234 Y73.633 F360.000 E28.16498
G1 X26.266 Y73.277 E28.17725
G1 X26.234 Y73.245 E28.17879
G1 X26.266 Y72.888 E28.19106
G1 X26.234 Y72.856 E28.19261
G1 X26.266 Y72.500 E28.20488
G1 X26.234 Y72.468 E28.20642
G1 X26.266 Y72.111 E28.21869
G1 X26.234 Y72.079 E28.22024
G1 X26.266 Y71.723 E28.23251
G1 X26.234 Y71.691 E28.23405
G1 X26.266 Y71.334 E28.24632
G1 X26.234 Y71.302 E28.24787
G1 X26.266 Y70.946 E28.26013
G1 X26.234 Y70.914 E28.26168
G1 X26.266 Y70.557 E28.27395
G1 X26.234 Y70.525 E28.27549
G1 X26.266 Y70.169 E28.28776
G1 X26.234 Y70.137 E28.28931
G1 X26.266 Y69.780 E28.30158
G1 X26.234 Y69.748 E28.30312
G1 X26.266 Y69.392 E28.31539
G1 X26.234 Y69.360 E28.31694
G1 X26.266 Y69.003 E28.32920
G1 X26.234 Y68.971 E28.33075
G1 X26.266 Y68.615 E28.34302
G1 X26.234 Y68.583 E28.34456
G1 X26.266 Y68.226 E28.35683
G1 X26.234 Y68.194 E28.35838
G1 X26.266 Y67.838 E28.37065
G1 X26.234 Y67.806 E28.37219
G1 X26.266 Y67.449 E28.38446
G1 X26.234 Y67.417 E28.38601
G1 X26.266 Y67.061 E28.39827
G1 X26.234 Y67.029 E28.39982
G1 X26.266 Y66.672 E28.41209
G1 X26.234 Y66.640 E28.41363
G1 X26.266 Y66.283 E28.42590
G1 X26.234 Y66.252 E28.42745
G1 X26.266 Y65.895 E28.43972
G1 X26.234 Y65.863 E28.44126
G1 X26.266 Y65.506 E28.45353
G1 X26.234 Y65.475 E28.45508
G1 X26.266 Y65.118 E28.46734
G1 X26.234 Y65.086 E28.46889
G1 X26.266 Y64.729 E28.48116
G1 X26.234 Y64.698 E28.48270
G1 X26.266 Y64.341 E28.49497
G1 X26.234 Y64.309 E28.49652
G1 X26.266 Y63.952 E28.50879
G1 X26.234 Y63.920 E28.51033
G1 X26.266 Y63.564 E28.52260
G1 X26.234 Y63.532 E28.52415
G1 X26.266 Y63.175 E28.53642
G1 X26.234 Y63.143 E28.53796
G1 X26.266 Y62.787 E28.55023
G1 X26.234 Y62.755 E28.55177
G1 X26.266 Y62.398 E28.56404
G1 X26.234 Y62.366 E28.56559
G1 X26.266 Y62.010 E28.57786
G1 X26.234 Y61.978 E28.57940
G1 X26.266 Y61.621 E28.59167
G1 X26.234 Y61.589 E28.59322
G1 X26.266 Y61.233 E28.60549
G1 X26.234 Y61.201 E28.60703
G1 X26.266 Y60.844 E28.61930
G1 X26.234 Y60.812 E28.62084
G1 X26.266 Y60.456 E28.63311
G1 X26.234 Y60.424 E28.63466
G1 X26.266 Y60.067 E28.64693
G1 X26.234 Y60.035 E28.64847
G1 X26.266 Y59.679 E28.66074
G1 X26.234 Y59.647 E28.66229
G1 X26.266 Y59.290 E28.67456
G1 X26.234 Y59.258 E28.67610
G1 X26.266 Y58.902 E28.68837
G1 X26.234 Y58.870 E28.68992
G1 X26.266 Y58.513 E28.70218
G1 X26.234 Y58.481 E28.70373
G1 X26.266 Y58.125 E28.71600
G1 X26.234 Y58.093 E28.71754
G1 X26.266 Y57.736 E28.72981
G1 X26.234 Y57.704 E28.73136
G1 X26.266 Y57.348 E28.74363
G1 X26.234 Y57.316 E28.74517
G1 X26.266 Y56.959 E28.75744
G1 X26.234 Y56.927 E28.75899
G1 X26.266 Y56.570 E28.77125
G1 X26.234 Y56.539 E28.77280
G1 X26.266 Y56.182 E28.78507
G1 X26.234 Y56.150 E28.78661
G1 X26.266 Y55.793 E28.79888
G1 X26.234 Y55.762 E28.80043
G1 X26.266 Y55.405 E28.81270
G1 X26.234 Y55.373 E28.81424
G1 X26.266 Y55.016 E28.82651
G1 X26.234 Y54.985 E28.82806
G1 X26.266 Y54.628 E28.84033
G1 X26.234 Y54.596 E28.84187
G1 X26.266 Y54.239 E28.85414
G1 X26.234 Y54.207 E28.85568
G1 X26.266 Y53.851 E28.86795
G1 X26.234 Y53.819 E28.86950
G1 X26.266 Y53.462 E28.88177
G1 X26.234 Y53.430 E28.88331
G1 X26.266 Y53.074 E28.89558
G1 X26.234 Y53.042 E28.89713
G1 X26.266 Y52.685 E28.90940
G1 X26.234 Y52.653 E28.91094
G1 X26.266 Y52.297 E28.92321
G1 X26.234 Y52.265 E28.92475
G1 X26.266 Y51.908 E28.93702
G1 X26.234 Y51.876 E28.93857
G1 X26.266 Y51.520 E28.95084
G1 X26.234 Y51.488 E28.95238
G1 X26.266 Y51.131 E28.96465
G1 X26.234 Y51.099 E28.96620
G1 X26.266 Y50.743 E28.97847
G1 X26.234 Y50.711 E28.98001
G1 X26.266 Y50.354 E28.99228
G1 X26.234 Y50.322 E28.99383
G1 X26.266 Y49.966 E29.00609
G1 X26.234 Y49.934 E29.00764
G1 X26.266 Y49.577 E29.01991
G1 X26.234 Y49.545 E29.02145
G1 X26.266 Y49.189 E29.03372
G1 X26.234 Y49.157 E29.03527
G1 X26.266 Y48.800 E29.04754
G1 X26.234 Y48.768 E29.04908
G1 X26.266 Y48.412 E29.06135
G1 X26.234 Y48.380 E29.06290
G1 X26.266 Y48.023 E29.07516
G1 X26.234 Y47.991 E29.07671
G1 X26.266 Y47.634 E29.08898
G1 X26.234 Y47.603 E29.09052
G1 X26.266 Y47.246 E29.10279
G1 X26.234 Y47.214 E29.10434
G1 X26.266 Y46.857 E29.11661
G1 X26.234 Y46.826 E29.11815
G1 X26.266 Y46.469 E29.13042
G1 X26.234 Y46.437 E29.13197
G1 X26.266 Y46.080 E29.14423
G1 X26.234 Y46.049 E29.14578
G1 X26.266 Y45.692 E29.15805
G1 X26.234 Y45.660 E29.15959
G1 X26.266 Y45.303 E29.17186
G1 X26.234 Y45.271 E29.17341
G1 X26.266 Y44.915 E29.18568
G1 X26.234 Y44.883 E29.18722
G1 X26.266 Y44.526 E29.19949
G1 X26.234 Y44.494 E29.20104
G1 X26.266 Y44.138 E29.21331
G1 X26.234 Y44.106 E29.21485
G1 X26.266 Y43.749 E29.22712
G1 X26.234 Y43.717 E29.22866
G1 X26.266 Y43.361 E29.24093
G1 X26.234 Y43.329 E29.24248
G1 X26.266 Y42.972 E29.25475
G1 X26.234 Y42.940 E29.25629
G1 X26.266 Y42.584 E29.26856
G1 X26.234 Y42.552 E29.27011
G1 X26.266 Y42.195 E29.28238
G1 X26.234 Y42.163 E29.28392
G1 X26.266 Y41.807 E29.29619
G1 X26.234 Y41.775 E29.29773
G1 X26.266 Y41.418 E29.31000
G1 X26.234 Y41.386 E29.31155
G1 X26.266 Y41.030 E29.32382
G1 X26.234 Y40.998 E29.32536
G1 X26.266 Y40.641 E29.33763
G1 X26.234 Y40.609 E29.33918
G1 X26.266 Y40.253 E29.35145
G1 X26.234 Y40.221 E29.35299
G1 X26.266 Y39.864 E29.36526
G1 X26.234 Y39.832 E29.36681
G1 X26.266 Y39.476 E29.37907
G1 X26.234 Y39.444 E29.38062
G1 X26.266 Y39.087 E29.39289
G1 X26.234 Y39.055 E29.39443
G1 X26.266 Y38.699 E29.40670
G1 X26.234 Y38.667 E29.40825
G1 X26.266 Y38.310 E29.42052
G1 X26.234 Y38.278 E29.42206
G1 X26.266 Y37.921 E29.43433
G1 X26.234 Y37.890 E29.43588
G1 X26.266 Y37.533 E29.44814
G1 X26.234 Y37.501 E29.44969
G1 X26.266 Y37.144 E29.46196
G1 X26.234 Y37.113 E29.46350
G1 X26.266 Y36.756 E29.47577
G1 X26.234 Y36.724 E29.47732
G1 X26.266 Y36.367 E29.48959
G1 X26.234 Y36.336 E29.49113
G1 X26.266 Y35.979 E29.50340
G1 X26.234 Y35.947 E29.50495
G1 X26.266 Y35.590 E29.51721
G1 X26.234 Y35.558 E29.51876
G1 X26.266 Y35.202 E29.53103
G1 X26.234 Y35.170 E29.53257
G1 X26.266 Y34.813 E29.54484
G1 X26.234 Y34.781 E29.54639
G1 X26.266 Y34.425 E29.55866
G1 X26.234 Y34.393 E29.56020
G1 X26.266 Y34.036 E29.57247
G1 X26.234 Y34.004 E29.57402
G1 X26.384 Y33.766 E29.58367
G1 X26.352 Y33.734 E29.58522
G1 X26.637 Y66.266 F7800.000
G1 X26.605 Y66.234 F360.000 E29.58676
G1 X26.994 Y66.234 E29.60007
G1 X27.025 Y66.266 E29.60162
G1 X27.382 Y66.234 E29.61389
G1 X27.414 Y66.266 E29.61543
G1 X27.771 Y66.234 E29.62770
G1 X27.802 Y66.266 E29.62925
G1 X28.159 Y66.234 E29.64152
G1 X28.191 Y66.266 E29.64306
G1 X28.548 Y66.234 E29.65533
G1 X28.580 Y66.266 E29.65687
G1 X28.936 Y66.234 E29.66914
G1 X28.968 Y66.266 E29.67069
G1 X29.325 Y66.234 E29.68296
G1 X29.357 Y66.266 E29.68450
G1 X29.713 Y66.234 E29.69677
G1 X29.745 Y66.266 E29.69832
G1 X30.102 Y66.234 E29.71059
G1 X30.134 Y66.266 E29.71213
G1 X30.490 Y66.234 E29.72440
G1 X30.522 Y66.266 E29.72594
G1 X30.879 Y66.234 E29.73821
G1 X30.911 Y66.266 E29.73976
G1 X31.267 Y66.234 E29.75203
G1 X31.299 Y66.266 E29.75357
G1 X31.656 Y66.234 E29.76584
G1 X31.688 Y66.266 E29.76739
G1 X32.044 Y66.234 E29.77966
G1 X32.076 Y66.266 E29.78120
G1 X32.433 Y66.234 E29.79347
G1 X32.465 Y66.266 E29.79501
G1 X32.821 Y66.234 E29.80728
G1 X32.853 Y66.266 E29.80883
G1 X33.210 Y66.234 E29.82110
G1 X33.242 Y66.266 E29.82264
G1 X33.734 Y66.370 F7800.000
G1 X33.766 Y66.402 F360.000 E29.82419
G1 X33.734 Y66.758 E29.83646
G1 X33.766 Y66.790 E29.83800
G1 X33.734 Y67.147 E29.85027
G1 X33.766 Y67.179 E29.85182
G1 X33.734 Y67.535 E29.86409
G1 X33.766 Y67.567 E29.86563
G1 X33.734 Y67.924 E29.87790
G1 X33.766 Y67.956 E29.87944
G1 X33.734 Y68.312 E29.89171
G1 X33.766 Y68.344 E29.89326
G1 X33.734 Y68.701 E29.90553
G1 X33.766 Y68.733 E29.90707
G1 X33.734 Y69.089 E29.91934
G1 X33.766 Y69.121 E29.92089
G1 X33.734 Y69.478 E29.93316
G1 X33.766 Y69.510 E29.93470
G1 X33.734 Y69.866 E29.94697
G1 X33.766 Y69.898 E29.94851
G1 X33.734 Y70.255 E29.96078
G1 X33.766 Y70.287 E29.96233
G1 X33.734 Y70.643 E29.97460
G1 X33.766 Y70.675 E29.97614
G1 X33.734 Y71.032 E29.98841
G1 X33.766 Y71.064 E29.98996
G1 X33.734 Y71.420 E30.00223
G1 X33.766 Y71.452 E30.00377
G1 X33.734 Y71.809 E30.01604
G1 X33.766 Y71.841 E30.01758
G1 X33.734 Y72.198 E30.02985
G1 X33.766 Y72.229 E30.03140
G1 X33.734 Y72.586 E30.04367
G1 X33.766 Y72.618 E30.04521
G1 X33.734 Y72.975 E30.05748
G1 X33.766 Y73.006 E30.05903
G1 X33.734 Y73.363 E30.07130
G1 X33.766 Y73.395 E30.07284
G1 X33.717 Y73.734 E30.08458
G1 X33.748 Y73.766 E30.08613
G1 X33.360 Y73.766 E30.09944
G1 X33.328 Y73.734 E30.10099
G1 X32.971 Y73.766 E30.11325
G1 X32.939 Y73.734 E30.11480
G1 X32.583 Y73.766 E30.12707
G1 X32.551 Y73.734 E30.12861
G1 X32.194 Y73.766 E30.14088
G1 X32.162 Y73.734 E30.14243
G1 X31.806 Y73.766 E30.15470
G1 X31.774 Y73.734 E30.15624
G1 X31.417 Y73.766 E30.16851
G1 X31.385 Y73.734 E30.17006
G1 X31.029 Y73.766 E30.18233
G1 X30.997 Y73.734 E30.18387
G1 X30.640 Y73.766 E30.19614
G1 X30.608 Y73.734 E30.19768
G1 X30.252 Y73.766 E30.20995
G1 X30.220 Y73.734 E30.21150
G1 X29.863 Y73.766 E30.22377
G1 X29.831 Y73.734 E30.22531
G1 X29.475 Y73.766 E30.23758
G1 X29.443 Y73.734 E30.23913
G1 X29.086 Y73.766 E30.25140
G1 X29.054 Y73.734 E30.25294
G1 X28.698 Y73.766 E30.26521
G1 X28.666 Y73.734 E30.26675
G1 X28.309 Y73.766 E30.27902
G1 X28.277 Y73.734 E30.28057
G1 X27.921 Y73.766 E30.29284
G1 X27.889 Y73.734 E30.29438
G1 X27.532 Y73.766 E30.30665
G1 X27.500 Y73.734 E30.30820
G1 X27.144 Y73.766 E30.32047
G1 X27.112 Y73.734 E30.32201
G1 X26.755 Y73.766 E30.33428
G1 X26.723 Y73.734 E30.33582
G1 F1800.000 E29.33582
G92 E0
G1 X33.734 Y34.123 F7800.000
G1 F1800.000 E1.00000
G1 X33.766 Y34.154 F360.000 E1.00155
G1 X33.734 Y34.511 E1.01381
G1 X33.766 Y34.543 E1.01536
G1 X33.734 Y34.900 E1.02763
G1 X33.766 Y34.931 E1.02917
G1 X33.734 Y35.288 E1.04144
G1 X33.766 Y35.320 E1.04299
G1 X33.734 Y35.677 E1.05526
G1 X33.766 Y35.708 E1.05680
G1 X33.734 Y36.065 E1.06907
G1 X33.766 Y36.097 E1.07062
G1 X33.734 Y36.454 E1.08288
G1 X33.766 Y36.486 E1.08443
G1 X33.734 Y36.842 E1.09670
G1 X33.766 Y36.874 E1.09824
G1 X33.734 Y37.231 E1.11051
G1 X33.766 Y37.263 E1.11206
G1 X33.734 Y37.619 E1.12433
G1 X33.766 Y37.651 E1.12587
G1 X33.734 Y38.008 E1.13814
G1 X33.766 Y38.040 E1.13969
G1 X33.734 Y38.396 E1.15195
G1 X33.766 Y38.428 E1.15350
G1 X33.734 Y38.785 E1.16577
G1 X33.766 Y38.817 E1.16731
G1 X33.734 Y39.173 E1.17958
G1 X33.766 Y39.205 E1.18113
G1 X33.734 Y39.562 E1.19340
G1 X33.766 Y39.594 E1.19494
G1 X33.734 Y39.950 E1.20721
G1 X33.766 Y39.982 E1.20876
G1 X33.734 Y40.339 E1.22102
G1 X33.766 Y40.371 E1.22257
G1 X33.734 Y40.727 E1.23484
G1 X33.766 Y40.759 E1.23638
G1 X33.734 Y41.116 E1.24865
G1 X33.766 Y41.148 E1.25020
G1 X33.734 Y41.504 E1.26247
